;This Gcode has been generated specifically for the LulzBot Mini
;Basic settings: Layer height: 0.38 Walls: 1 Fill: 20
;Filament Diameter: 2.85
;Nozzle Size: 0.5
G26                          ; clear potential 'probe fail' condition
G21                          ; metric values
G90                          ; absolute positioning
M82                          ; set extruder to absolute mode
M107                         ; start with the fan off
G92 E0                       ; set extruder position to 0
M140 S60; get bed heating up
G28                          ; home all
M109 R140                    ; set to cleaning temp and wait
G1 Z150 E-30 F75             ; suck up XXmm of filament
M109 R140                    ; heat up rest of way
G1 X45 Y174 F11520           ; move behind scraper
G1 Z0  F1200                 ; CRITICAL: set Z to height of top of scraper
G1 X45 Y174 Z-.5 F4000       ; wiping ; plunge into wipe pad
G1 X55 Y172 Z-.5 F4000       ; wiping
G1 X45 Y174 Z0 F4000         ; wiping
G1 X55 Y172 F4000            ; wiping
G1 X45 Y174 F4000            ; wiping
G1 X55 Y172 F4000            ; wiping
G1 X45 Y174 F4000            ; wiping
G1 X55 Y172 F4000            ; wiping
G1 X60 Y174 F4000            ; wiping
G1 X80 Y172 F4000            ; wiping
G1 X60 Y174 F4000            ; wiping
G1 X80 Y172 F4000            ; wiping
G1 X60 Y174 F4000            ; wiping
G1 X90 Y172 F4000            ; wiping
G1 X80 Y174 F4000            ; wiping
G1 X100 Y172 F4000           ; wiping
G1 X80 Y174 F4000            ; wiping
G1 X100 Y172 F4000           ; wiping
G1 X80 Y174 F4000            ; wiping
G1 X100 Y172 F4000           ; wiping
G1 X110 Y174 F4000           ; wiping
G1 X100 Y172 F4000           ; wiping
G1 X110 Y174 F4000           ; wiping
G1 X100 Y172 F4000           ; wiping
G1 X110 Y174 F4000           ; wiping
G1 X115 Y172 Z-0.5 F1000     ; wipe slower and bury noz in cleanish area
G1 Z10                       ; raise z
G28 X0 Y0                    ; home x and y
M109 R140                    ; set to probing temp
M204 S300                    ; Set probing acceleration
G29                          ; Probe
M204 S2000                   ; Restore standard acceleration
G1 X5 Y15 Z10 F5000          ; get out the way
G4 S1                        ; pause
M400                         ; clear buffer
M109 R205    ; set extruder temp and wait
G4 S15                       ; wait for bed to temp up
G1 Z2 E0 F75                 ; extrude filament back into nozzle
M140 S60; get bed temping up during first layer

;Layer count: 42
;LAYER:0
M107
G0 F10500 X55.303 Y42.981 Z0.425
G0 X56.200 Y43.878
;TYPE:SKIRT
G1 F900 X55.303 Y42.981 E0.05282
G1 X93.033 Y5.665 E2.26239
G1 X95.885 Y2.840 E2.42954
G1 X155.710 Y62.007 E5.93301
G1 X117.966 Y99.335 E8.14335
G1 X115.107 Y102.167 E8.31091
G1 X114.930 Y101.991 E8.32131
G1 X94.127 Y122.794 E9.54629
G1 X94.822 Y123.473 E9.58675
G1 X83.057 Y134.204 E10.24978
G1 X82.107 Y134.831 E10.29718
G1 X82.056 Y134.865 E10.29973
G1 X79.543 Y137.377 E10.44768
G1 X79.037 Y136.858 E10.47786
G1 X72.307 Y141.301 E10.81364
G1 X61.592 Y146.662 E11.31252
G1 X50.651 Y149.980 E11.78857
G1 X39.948 Y151.830 E12.24083
G1 X30.335 Y151.208 E12.64193
G1 X22.071 Y148.684 E13.00172
G1 X21.316 Y148.450 E13.03463
G1 X14.594 Y142.914 E13.39722
G1 X9.163 Y136.630 E13.74305
G1 X6.313 Y127.812 E14.12891
G1 X5.706 Y118.951 E14.49873
G1 X5.666 Y118.411 E14.52128
G1 X7.580 Y107.953 E14.96396
G1 X10.864 Y97.717 E15.41156
G1 X11.007 Y97.278 E15.43079
G1 X16.532 Y86.850 E15.92217
G1 X21.687 Y79.471 E16.29696
G1 X21.145 Y78.933 E16.32876
G1 X25.390 Y74.688 E16.57873
G1 X34.409 Y64.730 E17.13814
G1 X34.885 Y65.194 E17.16582
G1 X56.200 Y43.878 E18.42098
G1 F600 E16.92098
G1 Z0.525
G0 F10500 X61.225 Y44.863
;TYPE:WALL-INNER
G1 Z0.425
G1 F600 E18.42098
G1 F900 X62.217 Y43.868 E18.47949
G1 X61.333 Y42.994 E18.53125
G1 X95.887 Y8.818 E20.55486
G1 X149.668 Y62.007 E23.70437
G1 X115.114 Y96.181 E25.72792
G1 X114.922 Y95.990 E25.73920
G1 X88.079 Y122.833 E27.31985
G1 X88.632 Y123.369 E27.35191
G1 X80.441 Y130.840 E27.81353
G1 X79.628 Y131.376 E27.85408
G1 X70.178 Y137.615 E28.32557
G1 X60.016 Y142.699 E28.79870
G1 X49.664 Y145.839 E29.24913
G1 X39.721 Y147.558 E29.66927
G1 X31.103 Y147.000 E30.02886
G1 X23.371 Y144.638 E30.36549
G1 X17.574 Y139.864 E30.67818
G1 X12.942 Y134.503 E30.97318
G1 X10.516 Y127.001 E31.30148
G1 X9.945 Y118.658 E31.64968
G1 X9.944 Y118.641 E31.65039
G1 X11.711 Y108.984 E32.05916
G1 X14.907 Y99.025 E32.49466
G1 X14.934 Y98.943 E32.49826
G1 X20.164 Y89.069 E32.96350
G1 X27.215 Y78.976 E33.47615
G1 X27.163 Y78.924 E33.47921
G1 X28.466 Y77.621 E33.55594
G1 X34.599 Y70.849 E33.93636
G1 X34.922 Y71.165 E33.95517
G1 X61.225 Y44.863 E35.50399
G0 F10500 X61.332 Y43.872
;TYPE:WALL-OUTER
G1 F900 X60.443 Y42.994 E35.55602
G1 X95.887 Y7.939 E37.63172
G1 X150.557 Y62.007 E40.83328
G1 X115.113 Y97.061 E42.90895
G1 X114.923 Y96.872 E42.92011
G1 X88.970 Y122.826 E44.44838
G1 X89.545 Y123.382 E44.48168
G1 X80.822 Y131.338 E44.97327
G1 X79.753 Y132.043 E45.02659
G1 X79.577 Y132.219 E45.03695
G1 X79.541 Y132.182 E45.03910
G1 X70.494 Y138.156 E45.49052
G1 X60.248 Y143.282 E45.96755
G1 X49.805 Y146.449 E46.42193
G1 X39.754 Y148.187 E46.84665
G1 X30.990 Y147.619 E47.21233
G1 X23.136 Y145.220 E47.55427
G1 X23.069 Y145.199 E47.55719
G1 X17.135 Y140.312 E47.87728
G1 X12.386 Y134.816 E48.17972
G1 X9.897 Y127.119 E48.51654
G1 X9.321 Y118.703 E48.86779
G1 X9.314 Y118.608 E48.87175
G1 X11.103 Y108.834 E49.28549
G1 X14.313 Y98.831 E49.72291
G1 X14.356 Y98.698 E49.72873
G1 X19.629 Y88.744 E50.19776
G1 X26.402 Y79.049 E50.69019
G1 X26.278 Y78.926 E50.69746
G1 X28.013 Y77.190 E50.79966
G1 X34.571 Y69.949 E51.20643
G1 X34.917 Y70.286 E51.22654
G1 X61.332 Y43.872 E52.78196
G0 F10500 X61.813 Y44.578
;TYPE:SKIN
G1 F900 X113.918 Y96.683 E55.85016
G0 F10500 X113.476 Y97.125
G1 F900 X61.371 Y45.020 E58.91836
G0 F10500 X60.929 Y45.462
G1 F900 X113.034 Y97.567 E61.98656
G0 F10500 X112.592 Y98.009
G1 F900 X60.488 Y45.904 E65.05473
G0 F10500 X60.046 Y46.346
G1 F900 X112.150 Y98.451 E68.12290
G0 F10500 X111.708 Y98.893
G1 F900 X59.604 Y46.788 E71.19107
G0 F10500 X59.162 Y47.230
G1 F900 X111.266 Y99.335 E74.25924
G0 F10500 X110.824 Y99.777
G1 F900 X58.720 Y47.672 E77.32741
G0 F10500 X58.278 Y48.114
G1 F900 X110.382 Y100.218 E80.39556
G0 F10500 X109.940 Y100.660
G1 F900 X57.836 Y48.556 E83.46370
G0 F10500 X57.394 Y48.998
G1 F900 X109.499 Y101.102 E86.53187
G0 F10500 X109.057 Y101.544
G1 F900 X56.952 Y49.440 E89.60004
G0 F10500 X56.510 Y49.882
G1 F900 X108.615 Y101.986 E92.66821
G0 F10500 X108.173 Y102.428
G1 F900 X56.068 Y50.324 E95.73638
G0 F10500 X55.626 Y50.766
G1 F900 X107.731 Y102.870 E98.80455
G0 F10500 X107.289 Y103.312
G1 F900 X55.184 Y51.207 E101.87275
G0 F10500 X54.742 Y51.649
G1 F900 X106.847 Y103.754 E104.94095
G0 F10500 X106.405 Y104.196
G1 F900 X54.300 Y52.091 E108.00916
G0 F10500 X53.858 Y52.533
G1 F900 X105.963 Y104.638 E111.07736
G0 F10500 X105.521 Y105.080
G1 F900 X53.416 Y52.975 E114.14556
G0 F10500 X52.975 Y53.417
G1 F900 X105.079 Y105.522 E117.21373
G0 F10500 X104.637 Y105.964
G1 F900 X52.533 Y53.859 E120.28190
G0 F10500 X52.091 Y54.301
G1 F900 X104.195 Y106.406 E123.35007
G0 F10500 X103.753 Y106.848
G1 F900 X51.649 Y54.743 E126.41824
G0 F10500 X51.207 Y55.185
G1 F900 X103.311 Y107.290 E129.48641
G0 F10500 X102.869 Y107.731
G1 F900 X50.765 Y55.627 E132.55455
G0 F10500 X50.323 Y56.069
G1 F900 X102.427 Y108.173 E135.62270
G0 F10500 X101.986 Y108.615
G1 F900 X49.881 Y56.511 E138.69087
G0 F10500 X49.439 Y56.953
G1 F900 X101.544 Y109.057 E141.75904
G0 F10500 X101.102 Y109.499
G1 F900 X48.997 Y57.395 E144.82721
G0 F10500 X48.556 Y57.837
G1 F900 X100.660 Y109.941 E147.89535
G0 F10500 X100.218 Y110.383
G1 F900 X48.114 Y58.279 E150.96349
G0 F10500 X47.672 Y58.721
G1 F900 X99.776 Y110.825 E154.03163
G0 F10500 X99.334 Y111.267
G1 F900 X47.230 Y59.163 E157.09978
G0 F10500 X46.788 Y59.605
G1 F900 X98.892 Y111.709 E160.16792
G0 F10500 X98.450 Y112.151
G1 F900 X46.346 Y60.047 E163.23606
G0 F10500 X45.904 Y60.489
G1 F900 X98.008 Y112.593 E166.30420
G0 F10500 X97.566 Y113.035
G1 F900 X45.462 Y60.931 E169.37234
G0 F10500 X45.020 Y61.373
G1 F900 X97.124 Y113.477 E172.44048
G0 F10500 X96.682 Y113.919
G1 F900 X44.578 Y61.815 E175.50863
G0 F10500 X44.136 Y62.257
G1 F900 X96.240 Y114.361 E178.57677
G0 F10500 X95.798 Y114.803
G1 F900 X43.694 Y62.699 E181.64491
G0 F10500 X43.253 Y63.141
G1 F900 X95.356 Y115.244 E184.71299
G0 F10500 X94.914 Y115.686
G1 F900 X42.811 Y63.583 E187.78107
G0 F10500 X42.369 Y64.024
G1 F900 X94.473 Y116.128 E190.84922
G0 F10500 X94.031 Y116.570
G1 F900 X41.927 Y64.466 E193.91736
G0 F10500 X41.485 Y64.908
G1 F900 X93.589 Y117.012 E196.98550
G0 F10500 X93.147 Y117.454
G1 F900 X41.043 Y65.350 E200.05364
G0 F10500 X40.601 Y65.792
G1 F900 X92.705 Y117.896 E203.12178
G0 F10500 X92.263 Y118.338
G1 F900 X40.159 Y66.234 E206.18992
G0 F10500 X39.717 Y66.676
G1 F900 X91.821 Y118.780 E209.25807
G0 F10500 X91.379 Y119.222
G1 F900 X39.275 Y67.118 E212.32621
G0 F10500 X38.833 Y67.560
G1 F900 X90.937 Y119.664 E215.39435
G0 F10500 X90.495 Y120.106
G1 F900 X38.391 Y68.002 E218.46249
G0 F10500 X37.949 Y68.444
G1 F900 X90.053 Y120.548 E221.53063
G0 F10500 X89.611 Y120.990
G1 F900 X37.507 Y68.886 E224.59877
G0 F10500 X37.065 Y69.328
G1 F900 X89.169 Y121.432 E227.66692
G0 F10500 X88.727 Y121.874
G1 F900 X36.623 Y69.770 E230.73506
G0 F10500 X36.181 Y70.212
G1 F900 X88.285 Y122.316 E233.80320
G0 F10500 X87.843 Y122.757
G1 F900 X35.740 Y70.654 E236.87128
G0 F10500 X35.298 Y71.096
G1 F900 X87.921 Y123.719 E239.96998
G0 F10500 X87.459 Y124.141
G1 F900 X34.547 Y71.229 E243.08571
G0 F10500 X34.127 Y71.693
G1 F900 X86.997 Y124.563 E246.19895
G0 F10500 X86.535 Y124.984
G1 F900 X33.707 Y72.157 E249.30970
G0 F10500 X33.287 Y72.621
G1 F900 X86.072 Y125.406 E252.41794
G0 F10500 X85.610 Y125.827
G1 F900 X32.867 Y73.085 E255.52368
G0 F10500 X32.447 Y73.549
G1 F900 X85.148 Y126.249 E258.62695
G0 F10500 X84.685 Y126.671
G1 F900 X32.027 Y74.012 E261.72774
G0 F10500 X31.607 Y74.476
G1 F900 X84.223 Y127.092 E264.82603
G0 F10500 X83.761 Y127.513
G1 F900 X31.187 Y74.940 E267.92182
G0 F10500 X30.767 Y75.404
G1 F900 X83.299 Y127.936 E271.01516
G0 F10500 X82.836 Y128.357
G1 F900 X30.347 Y75.868 E274.10598
G0 F10500 X29.927 Y76.332
G1 F900 X82.374 Y128.778 E277.19429
G0 F10500 X81.912 Y129.201
G1 F900 X29.506 Y76.795 E280.28021
G0 F10500 X29.086 Y77.259
G1 F900 X81.450 Y129.622 E283.36363
G0 F10500 X80.987 Y130.044
G1 F900 X28.666 Y77.723 E286.44455
G0 F10500 X28.227 Y78.167
G1 F900 X80.525 Y130.465 E289.52412
G0 F10500 X80.026 Y130.850
G1 F900 X27.785 Y78.609 E292.60033
G0 F10500 X27.394 Y79.101
G1 F900 X79.494 Y131.202 E295.66826
G0 F10500 X78.961 Y131.553
G1 F900 X27.030 Y79.622 E298.72622
G0 F10500 X26.666 Y80.142
G1 F900 X78.429 Y131.905 E301.77428
G0 F10500 X77.897 Y132.256
G1 F900 X26.302 Y80.662 E304.81242
G0 F10500 X25.939 Y81.182
G1 F900 X77.364 Y132.607 E307.84058
G0 F10500 X76.832 Y132.959
G1 F900 X25.576 Y81.703 E310.85878
G0 F10500 X25.212 Y82.223
G1 F900 X76.299 Y133.310 E313.86704
G0 F10500 X75.767 Y133.662
G1 F900 X24.849 Y82.744 E316.86534
G0 F10500 X24.485 Y83.264
G1 F900 X75.234 Y134.013 E319.85370
G0 F10500 X74.703 Y134.365
G1 F900 X24.121 Y83.784 E322.83219
G0 F10500 X23.758 Y84.304
G1 F900 X74.170 Y134.717 E325.80072
G0 F10500 X73.638 Y135.068
G1 F900 X23.394 Y84.825 E328.75931
G0 F10500 X23.031 Y85.345
G1 F900 X73.105 Y135.420 E331.70794
G0 F10500 X72.573 Y135.771
G1 F900 X22.667 Y85.866 E334.64663
G0 F10500 X22.304 Y86.386
G1 F900 X72.040 Y136.123 E337.57536
G0 F10500 X71.508 Y136.474
G1 F900 X21.940 Y86.906 E340.49417
G0 F10500 X21.576 Y87.426
G1 F900 X70.975 Y136.825 E343.40303
G0 F10500 X70.443 Y137.177
G1 F900 X21.213 Y87.947 E346.30193
G0 F10500 X20.849 Y88.467
G1 F900 X69.893 Y137.511 E349.18989
G0 F10500 X69.304 Y137.806
G1 F900 X20.486 Y88.987 E352.06456
G0 F10500 X20.158 Y89.544
G1 F900 X68.715 Y138.101 E354.92384
G0 F10500 X68.126 Y138.395
G1 F900 X19.852 Y90.122 E357.76642
G0 F10500 X19.546 Y90.699
G1 F900 X67.537 Y138.690 E360.59237
G0 F10500 X66.948 Y138.985
G1 F900 X19.240 Y91.277 E363.40165
G0 F10500 X18.934 Y91.855
G1 F900 X66.359 Y139.280 E366.19427
G0 F10500 X65.770 Y139.575
G1 F900 X18.628 Y92.433 E368.97023
G0 F10500 X18.322 Y93.011
G1 F900 X65.180 Y139.869 E371.72946
G0 F10500 X64.591 Y140.164
G1 F900 X18.016 Y93.589 E374.47202
G0 F10500 X17.710 Y94.166
G1 F900 X64.002 Y140.458 E377.19793
G0 F10500 X63.413 Y140.753
G1 F900 X17.404 Y94.745 E379.90713
G0 F10500 X17.098 Y95.322
G1 F900 X62.824 Y141.048 E382.59971
G0 F10500 X62.235 Y141.343
G1 F900 X16.792 Y95.900 E385.27562
G0 F10500 X16.486 Y96.478
G1 F900 X61.645 Y141.637 E387.93480
G0 F10500 X61.056 Y141.932
G1 F900 X16.180 Y97.056 E390.57732
G0 F10500 X15.874 Y97.634
G1 F900 X60.467 Y142.227 E393.20318
G0 F10500 X59.869 Y142.513
G1 F900 X15.568 Y98.212 E395.81184
G0 F10500 X15.262 Y98.789
G1 F900 X59.191 Y142.718 E398.39860
G0 F10500 X58.513 Y142.924
G1 F900 X15.009 Y99.421 E400.96030
G0 F10500 X14.794 Y100.090
G1 F900 X57.834 Y143.130 E403.49471
G0 F10500 X57.156 Y143.336
G1 F900 X14.579 Y100.759 E406.00186
G0 F10500 X14.365 Y101.428
G1 F900 X56.478 Y143.541 E408.48168
G0 F10500 X55.800 Y143.747
G1 F900 X14.150 Y102.097 E410.93424
G0 F10500 X13.935 Y102.766
G1 F900 X55.122 Y143.953 E413.35953
G0 F10500 X54.444 Y144.159
G1 F900 X13.720 Y103.435 E415.75756
G0 F10500 X13.506 Y104.105
G1 F900 X53.766 Y144.365 E418.12827
G0 F10500 X53.088 Y144.570
G1 F900 X13.291 Y104.774 E420.47168
G0 F10500 X13.076 Y105.443
G1 F900 X52.410 Y144.776 E422.78784
G0 F10500 X51.731 Y144.982
G1 F900 X12.862 Y106.112 E425.07666
G0 F10500 X12.647 Y106.781
G1 F900 X51.053 Y145.188 E427.33823
G0 F10500 X50.374 Y145.393
G1 F900 X12.432 Y107.450 E429.57247
G0 F10500 X12.217 Y108.119
G1 F900 X49.696 Y145.598 E431.77942
G0 F10500 X48.953 Y145.739
G1 F900 X12.003 Y108.789 E433.95522
G0 F10500 X11.837 Y109.507
G1 F900 X48.199 Y145.869 E436.09640
G0 F10500 X47.446 Y146.000
G1 F900 X11.701 Y110.254 E438.20127
G0 F10500 X11.564 Y111.001
G1 F900 X46.693 Y146.130 E440.26984
G0 F10500 X45.939 Y146.260
G1 F900 X11.427 Y111.749 E442.30204
G0 F10500 X11.290 Y112.495
G1 F900 X45.185 Y146.390 E444.29795
G0 F10500 X44.432 Y146.521
G1 F900 X11.153 Y113.243 E446.25755
G0 F10500 X11.017 Y113.990
G1 F900 X43.678 Y146.651 E448.18079
G0 F10500 X42.924 Y146.781
G1 F900 X10.880 Y114.737 E450.06770
G0 F10500 X10.743 Y115.484
G1 F900 X42.171 Y146.912 E451.91834
G0 F10500 X41.418 Y147.042
G1 F900 X10.607 Y116.232 E453.73262
G0 F10500 X10.470 Y116.978
G1 F900 X40.664 Y147.172 E455.51059
G0 F10500 X39.910 Y147.303
G1 F900 X10.333 Y117.726 E457.25223
G0 F10500 X10.197 Y118.473
G1 F900 X39.016 Y147.293 E458.94926
G0 F10500 X38.071 Y147.231
G1 F900 X10.212 Y119.373 E460.58971
G0 F10500 X10.277 Y120.321
G1 F900 X37.125 Y147.170 E462.17068
G0 F10500 X36.180 Y147.108
G1 F900 X10.342 Y121.270 E463.69215
G0 F10500 X10.407 Y122.219
G1 F900 X35.235 Y147.047 E465.15415
G0 F10500 X34.290 Y146.986
G1 F900 X10.472 Y123.168 E466.55667
G0 F10500 X10.537 Y124.117
G1 F900 X33.345 Y146.924 E467.89969
G0 F10500 X32.399 Y146.863
G1 F900 X10.602 Y125.065 E469.18323
G0 F10500 X10.666 Y126.014
G1 F900 X31.454 Y146.801 E470.40730
G0 F10500 X30.290 Y146.521
G1 F900 X10.733 Y126.965 E471.55889
G0 F10500 X11.156 Y128.271
G1 F900 X29.018 Y146.133 E472.61069
G0 F10500 X27.745 Y145.744
G1 F900 X11.579 Y129.578 E473.56262
G0 F10500 X12.002 Y130.885
G1 F900 X26.473 Y145.356 E474.41475
G0 F10500 X25.200 Y144.967
G1 F900 X12.424 Y132.191 E475.16706
G0 F10500 X12.847 Y133.498
G1 F900 X23.928 Y144.579 E475.81957
G0 F10500 X20.245 Y141.779
G1 F900 X14.906 Y136.441 E476.13392
G0 F10500 X62.255 Y44.136
G1 F900 X114.360 Y96.241 E479.20213
G0 F10500 X114.802 Y95.799
G1 F900 X61.821 Y42.818 E482.32191
G0 F10500 X62.265 Y42.379
G1 F900 X115.438 Y95.552 E485.45300
G0 F10500 X115.882 Y95.112
G1 F900 X62.710 Y41.939 E488.58406
G0 F10500 X63.154 Y41.500
G1 F900 X116.327 Y94.673 E491.71515
G0 F10500 X116.771 Y94.233
G1 F900 X63.599 Y41.060 E494.84621
G0 F10500 X64.043 Y40.621
G1 F900 X117.216 Y93.794 E497.97730
G0 F10500 X117.660 Y93.354
G1 F900 X64.488 Y40.182 E501.10833
G0 F10500 X64.932 Y39.742
G1 F900 X118.105 Y92.915 E504.23942
G0 F10500 X118.549 Y92.475
G1 F900 X65.376 Y39.302 E507.37051
G0 F10500 X65.821 Y38.863
G1 F900 X118.994 Y92.036 E510.50160
G0 F10500 X119.438 Y91.596
G1 F900 X66.265 Y38.423 E513.63269
G0 F10500 X66.709 Y37.984
G1 F900 X119.882 Y91.156 E516.76375
G0 F10500 X120.326 Y90.717
G1 F900 X67.153 Y37.544 E519.89484
G0 F10500 X67.598 Y37.105
G1 F900 X120.771 Y90.277 E523.02590
G0 F10500 X121.215 Y89.838
G1 F900 X68.042 Y36.665 E526.15699
G0 F10500 X68.486 Y36.225
G1 F900 X121.659 Y89.398 E529.28808
G0 F10500 X122.104 Y88.959
G1 F900 X68.931 Y35.786 E532.41917
G0 F10500 X69.375 Y35.346
G1 F900 X122.548 Y88.519 E535.55026
G0 F10500 X122.992 Y88.080
G1 F900 X69.820 Y34.907 E538.68132
G0 F10500 X70.264 Y34.467
G1 F900 X123.437 Y87.640 E541.81241
G0 F10500 X123.881 Y87.201
G1 F900 X70.709 Y34.028 E544.94347
G0 F10500 X71.153 Y33.588
G1 F900 X124.326 Y86.762 E548.07459
G0 F10500 X124.770 Y86.322
G1 F900 X71.598 Y33.149 E551.20565
G0 F10500 X72.042 Y32.710
G1 F900 X125.215 Y85.883 E554.33674
G0 F10500 X125.659 Y85.443
G1 F900 X72.486 Y32.270 E557.46783
G0 F10500 X72.930 Y31.831
G1 F900 X126.104 Y85.004 E560.59894
G0 F10500 X126.548 Y84.564
G1 F900 X73.375 Y31.391 E563.73003
G0 F10500 X73.819 Y30.952
G1 F900 X126.992 Y84.124 E566.86109
G0 F10500 X127.436 Y83.685
G1 F900 X74.263 Y30.512 E569.99218
G0 F10500 X74.708 Y30.073
G1 F900 X127.880 Y83.245 E573.12322
G0 F10500 X128.325 Y82.806
G1 F900 X75.152 Y29.633 E576.25430
G0 F10500 X75.596 Y29.193
G1 F900 X128.769 Y82.366 E579.38539
G0 F10500 X129.214 Y81.927
G1 F900 X76.041 Y28.754 E582.51648
G0 F10500 X76.485 Y28.314
G1 F900 X129.658 Y81.487 E585.64757
G0 F10500 X130.103 Y81.048
G1 F900 X76.930 Y27.875 E588.77866
G0 F10500 X77.374 Y27.435
G1 F900 X130.547 Y80.608 E591.90975
G0 F10500 X130.991 Y80.168
G1 F900 X77.819 Y26.996 E595.04078
G0 F10500 X78.263 Y26.556
G1 F900 X131.436 Y79.729 E598.17187
G0 F10500 X131.880 Y79.290
G1 F900 X78.708 Y26.117 E601.30293
G0 F10500 X79.152 Y25.677
G1 F900 X132.325 Y78.850 E604.43402
G0 F10500 X132.769 Y78.411
G1 F900 X79.596 Y25.238 E607.56511
G0 F10500 X80.040 Y24.798
G1 F900 X133.213 Y77.971 E610.69620
G0 F10500 X133.658 Y77.532
G1 F900 X80.485 Y24.359 E613.82729
G0 F10500 X80.929 Y23.920
G1 F900 X134.102 Y77.092 E616.95835
G0 F10500 X134.546 Y76.653
G1 F900 X81.373 Y23.480 E620.08944
G0 F10500 X81.818 Y23.041
G1 F900 X134.990 Y76.213 E623.22047
G0 F10500 X135.435 Y75.774
G1 F900 X82.262 Y22.601 E626.35156
G0 F10500 X82.707 Y22.162
G1 F900 X135.879 Y75.334 E629.48259
G0 F10500 X136.324 Y74.895
G1 F900 X83.151 Y21.722 E632.61368
G0 F10500 X83.595 Y21.282
G1 F900 X136.768 Y74.455 E635.74477
G0 F10500 X137.213 Y74.016
G1 F900 X84.040 Y20.843 E638.87586
G0 F10500 X84.484 Y20.403
G1 F900 X137.657 Y73.576 E642.00695
G0 F10500 X138.101 Y73.136
G1 F900 X84.929 Y19.964 E645.13798
G0 F10500 X85.373 Y19.524
G1 F900 X138.546 Y72.697 E648.26907
G0 F10500 X138.990 Y72.257
G1 F900 X85.818 Y19.085 E651.40010
G0 F10500 X86.262 Y18.645
G1 F900 X139.435 Y71.818 E654.53119
G0 F10500 X139.879 Y71.378
G1 F900 X86.706 Y18.205 E657.66228
G0 F10500 X87.150 Y17.766
G1 F900 X140.323 Y70.939 E660.79337
G0 F10500 X140.767 Y70.499
G1 F900 X87.594 Y17.326 E663.92446
G0 F10500 X88.039 Y16.887
G1 F900 X141.212 Y70.060 E667.05555
G0 F10500 X141.656 Y69.621
G1 F900 X88.483 Y16.448 E670.18664
G0 F10500 X88.928 Y16.008
G1 F900 X142.100 Y69.181 E673.31770
G0 F10500 X142.545 Y68.742
G1 F900 X89.372 Y15.569 E676.44879
G0 F10500 X89.817 Y15.129
G1 F900 X142.989 Y68.302 E679.57985
G0 F10500 X143.434 Y67.863
G1 F900 X90.261 Y14.690 E682.71094
G0 F10500 X90.705 Y14.250
G1 F900 X143.878 Y67.423 E685.84203
G0 F10500 X144.323 Y66.984
G1 F900 X91.150 Y13.811 E688.97312
G0 F10500 X91.594 Y13.371
G1 F900 X144.767 Y66.544 E692.10421
G0 F10500 X145.211 Y66.104
G1 F900 X92.039 Y12.932 E695.23524
G0 F10500 X92.483 Y12.492
G1 F900 X145.656 Y65.665 E698.36633
G0 F10500 X146.100 Y65.225
G1 F900 X92.927 Y12.053 E701.49739
G0 F10500 X93.372 Y11.613
G1 F900 X146.545 Y64.786 E704.62848
G0 F10500 X146.989 Y64.346
G1 F900 X93.816 Y11.173 E707.75957
G0 F10500 X94.260 Y10.734
G1 F900 X147.433 Y63.907 E710.89066
G0 F10500 X147.877 Y63.467
G1 F900 X94.704 Y10.294 E714.02175
G0 F10500 X95.149 Y9.855
G1 F900 X148.322 Y63.028 E717.15284
G0 F10500 X148.766 Y62.588
G1 F900 X95.593 Y9.415 E720.28393
G0 F10500 X123.264 Y36.202
G1 F900 X149.210 Y62.149 E721.81179
;LAYER:1
M106 S191
G0 F10500 X149.934 Y62.007 Z0.805
;TYPE:WALL-INNER
G1 F1140 X115.114 Y96.444 E723.27037
G1 X114.923 Y96.254 E723.27839
G1 X88.346 Y122.831 E724.39781
G1 X88.905 Y123.373 E724.42100
G1 X80.556 Y130.988 E724.75756
G1 X79.547 Y131.653 E724.79355
G1 X78.184 Y132.553 E724.84220
G1 X70.270 Y137.777 E725.12463
G1 X60.083 Y142.875 E725.46390
G1 X49.709 Y146.020 E725.78676
G1 X39.728 Y147.746 E726.08844
G1 X31.346 Y147.204 E726.33861
G1 X31.070 Y147.186 E726.34684
G1 X23.467 Y144.863 E726.58362
G1 X23.281 Y144.806 E726.58941
G1 X17.438 Y139.994 E726.81486
G1 X12.776 Y134.599 E727.02722
G1 X10.331 Y127.034 E727.26401
G1 X9.773 Y118.891 E727.50710
G1 X9.755 Y118.633 E727.51480
G1 X11.529 Y108.940 E727.80829
G1 X14.646 Y99.224 E728.11219
G1 X14.762 Y98.867 E728.12337
G1 X20.003 Y88.974 E728.45681
G1 X26.995 Y78.965 E728.82045
G1 X28.237 Y77.594 E728.87554
G1 X34.591 Y70.580 E729.15742
G1 X34.921 Y70.902 E729.17115
G1 X61.093 Y44.731 E730.27349
G1 X61.952 Y43.869 E730.30974
G1 X61.066 Y42.994 E730.34683
G1 X95.887 Y8.554 E731.80549
G1 X149.934 Y62.007 E734.06947
G0 F10500 X150.644 Y62.007
;TYPE:WALL-OUTER
G1 F1080 X115.112 Y97.148 E735.55787
G1 X114.924 Y96.960 E735.56579
G1 X89.059 Y122.825 E736.65523
G1 X89.635 Y123.384 E736.67913
G1 X80.865 Y131.383 E737.03266
G1 X79.830 Y132.066 E737.06959
G1 X70.521 Y138.211 E737.40181
G1 X60.266 Y143.342 E737.74333
G1 X49.826 Y146.508 E738.06826
G1 X39.756 Y148.249 E738.37262
G1 X30.981 Y147.681 E738.63452
G1 X23.039 Y145.255 E738.88185
G1 X17.089 Y140.355 E739.11142
G1 X12.331 Y134.848 E739.32817
G1 X9.836 Y127.130 E739.56975
G1 X9.251 Y118.606 E739.82422
G1 X11.042 Y108.819 E740.12056
G1 X14.299 Y98.674 E740.43790
G1 X19.577 Y88.710 E740.77372
G1 X26.600 Y78.657 E741.13896
G1 X27.558 Y77.599 E741.18147
G1 X27.538 Y77.578 E741.18233
G1 X27.968 Y77.147 E741.20047
G1 X34.568 Y69.860 E741.49328
G1 X34.916 Y70.199 E741.50775
G1 X61.244 Y43.872 E742.61667
G1 X60.356 Y42.994 E742.65386
G1 X95.887 Y7.852 E744.14226
G1 X150.644 Y62.007 E746.43599
G0 F10500 X149.372 Y61.698
;TYPE:SKIN
G1 F1380 X114.993 Y96.078 E747.88405
G0 F10500 X88.502 Y122.829
G0 X88.528 Y123.250
G1 F1380 X85.926 Y125.851 E747.99363
G0 F10500 X88.169 Y122.902
G1 F1380 X79.784 Y131.286 E748.34678
G0 F10500 X77.705 Y132.658
G1 F1380 X149.017 Y61.347 E751.35043
G0 F10500 X148.662 Y60.995
G1 F1380 X75.625 Y134.031 E754.42673
G0 F10500 X73.546 Y135.403
G1 F1380 X148.306 Y60.643 E757.57563
G0 F10500 X147.950 Y60.292
G1 F1380 X71.466 Y136.776 E760.79714
G0 F10500 X69.640 Y137.895
G1 F1380 X147.595 Y59.940 E764.08061
G0 F10500 X147.240 Y59.588
G1 F1380 X68.225 Y138.603 E767.40872
G0 F10500 X66.809 Y139.312
G1 F1380 X146.884 Y59.237 E770.78149
G0 F10500 X146.528 Y58.885
G1 F1380 X65.393 Y140.020 E774.19890
G0 F10500 X63.978 Y140.729
G1 F1380 X146.173 Y58.534 E777.66096
G0 F10500 X145.817 Y58.182
G1 F1380 X62.562 Y141.437 E781.16766
G0 F10500 X61.147 Y142.146
G1 F1380 X145.462 Y57.830 E784.71904
G0 F10500 X145.106 Y57.479
G1 F1380 X59.812 Y142.774 E788.31165
G0 F10500 X58.797 Y143.081
G1 F1380 X144.751 Y57.127 E791.93203
G0 F10500 X144.395 Y56.776
G1 F1380 X57.782 Y143.389 E795.58018
G0 F10500 X56.767 Y143.696
G1 F1380 X144.040 Y56.424 E799.25610
G0 F10500 X143.684 Y56.072
G1 F1380 X55.753 Y144.004 E802.95978
G0 F10500 X54.738 Y144.312
G1 F1380 X143.329 Y55.721 E806.69124
G0 F10500 X142.973 Y55.369
G1 F1380 X53.723 Y144.619 E810.45046
G0 F10500 X52.709 Y144.927
G1 F1380 X142.618 Y55.017 E814.23745
G0 F10500 X142.262 Y54.666
G1 F1380 X51.694 Y145.234 E818.05218
G0 F10500 X50.679 Y145.542
G1 F1380 X141.907 Y54.314 E821.89471
G0 F10500 X141.551 Y53.963
G1 F1380 X49.665 Y145.849 E825.76495
G0 F10500 X48.810 Y145.997
G1 F1380 X141.196 Y53.611 E829.65626
G0 F10500 X140.840 Y53.259
G1 F1380 X47.955 Y146.145 E833.56860
G0 F10500 X47.100 Y146.293
G1 F1380 X140.485 Y52.908 E837.50198
G0 F10500 X140.129 Y52.557
G1 F1380 X46.245 Y146.441 E841.45638
G0 F10500 X45.390 Y146.588
G1 F1380 X139.773 Y52.205 E845.43180
G0 F10500 X139.418 Y51.853
G1 F1380 X44.535 Y146.736 E849.42828
G0 F10500 X43.680 Y146.884
G1 F1380 X139.063 Y51.502 E853.44579
G0 F10500 X138.707 Y51.150
G1 F1380 X42.825 Y147.032 E857.48435
G0 F10500 X41.971 Y147.180
G1 F1380 X138.351 Y50.799 E861.54390
G0 F10500 X137.996 Y50.447
G1 F1380 X41.116 Y147.327 E865.62449
G0 F10500 X40.261 Y147.475
G1 F1380 X137.641 Y50.095 E869.72614
G0 F10500 X137.285 Y49.744
G1 F1380 X39.476 Y147.553 E873.84587
G0 F10500 X38.811 Y147.510
G1 F1380 X136.929 Y49.392 E877.97860
G0 F10500 X136.574 Y49.040
G1 F1380 X38.147 Y147.467 E882.12435
G0 F10500 X37.483 Y147.424
G1 F1380 X136.219 Y48.689 E886.28310
G0 F10500 X135.863 Y48.337
G1 F1380 X36.819 Y147.382 E890.45486
G0 F10500 X36.155 Y147.339
G1 F1380 X135.507 Y47.986 E894.63959
G0 F10500 X135.152 Y47.634
G1 F1380 X35.491 Y147.295 E898.83732
G0 F10500 X34.826 Y147.253
G1 F1380 X134.797 Y47.282 E903.04810
G0 F10500 X134.441 Y46.931
G1 F1380 X34.162 Y147.210 E907.27186
G0 F10500 X33.498 Y147.167
G1 F1380 X134.085 Y46.579 E911.50861
G0 F10500 X133.730 Y46.227
G1 F1380 X32.833 Y147.124 E915.75840
G0 F10500 X32.169 Y147.081
G1 F1380 X133.375 Y45.876 E920.02118
G0 F10500 X133.019 Y45.524
G1 F1380 X31.505 Y147.038 E924.29696
G0 F10500 X30.889 Y146.947
G1 F1380 X132.663 Y45.173 E928.58369
G0 F10500 X132.308 Y44.822
G1 F1380 X30.348 Y146.781 E932.87823
G0 F10500 X29.806 Y146.616
G1 F1380 X131.953 Y44.469 E937.18067
G0 F10500 X131.597 Y44.118
G1 F1380 X29.265 Y146.451 E941.49092
G0 F10500 X28.723 Y146.285
G1 F1380 X131.241 Y43.767 E945.80898
G0 F10500 X130.886 Y43.415
G1 F1380 X28.181 Y146.120 E950.13492
G0 F10500 X27.640 Y145.954
G1 F1380 X130.531 Y43.063 E954.46870
G0 F10500 X130.175 Y42.712
G1 F1380 X27.098 Y145.789 E958.81031
G0 F10500 X26.556 Y145.623
G1 F1380 X129.819 Y42.360 E963.15975
G0 F10500 X129.464 Y42.009
G1 F1380 X26.015 Y145.458 E967.51703
G0 F10500 X25.473 Y145.292
G1 F1380 X129.109 Y41.657 E971.88216
G0 F10500 X128.753 Y41.305
G1 F1380 X24.931 Y145.127 E976.25515
G0 F10500 X24.390 Y144.961
G1 F1380 X128.397 Y40.954 E980.63593
G0 F10500 X128.042 Y40.602
G1 F1380 X23.848 Y144.796 E985.02459
G0 F10500 X23.323 Y144.614
G1 F1380 X127.687 Y40.250 E989.42041
G0 F10500 X127.331 Y39.899
G1 F1380 X22.935 Y144.295 E993.81757
G0 F10500 X22.547 Y143.976
G1 F1380 X126.975 Y39.547 E998.21611
G0 F10500 X126.620 Y39.196
G1 F1380 X22.160 Y143.656 E1002.61597
G0 F10500 X21.772 Y143.336
G1 F1380 X126.265 Y38.844 E1007.01720
G0 F10500 X125.909 Y38.492
G1 F1380 X21.384 Y143.018 E1011.41982
G0 F10500 X20.996 Y142.698
G1 F1380 X125.553 Y38.141 E1015.82377
G0 F10500 X125.198 Y37.789
G1 F1380 X20.608 Y142.379 E1020.22911
G0 F10500 X20.221 Y142.059
G1 F1380 X124.842 Y37.438 E1024.63575
G0 F10500 X124.487 Y37.086
G1 F1380 X19.833 Y141.740 E1029.04378
G0 F10500 X19.445 Y141.421
G1 F1380 X124.131 Y36.734 E1033.45318
G0 F10500 X123.776 Y36.383
G1 F1380 X19.057 Y141.101 E1037.86393
G0 F10500 X18.669 Y140.782
G1 F1380 X123.420 Y36.032 E1042.27603
G0 F10500 X123.065 Y35.679
G1 F1380 X18.282 Y140.463 E1046.68952
G0 F10500 X17.894 Y140.143
G1 F1380 X122.709 Y35.328 E1051.10433
G0 F10500 X122.354 Y34.977
G1 F1380 X17.515 Y139.816 E1055.52016
G0 F10500 X17.187 Y139.436
G1 F1380 X121.998 Y34.625 E1059.93480
G0 F10500 X121.643 Y34.273
G1 F1380 X16.859 Y139.057 E1064.34831
G0 F10500 X16.532 Y138.677
G1 F1380 X121.287 Y33.922 E1068.76060
G0 F10500 X120.932 Y33.570
G1 F1380 X16.204 Y138.298 E1073.17175
G0 F10500 X15.876 Y137.919
G1 F1380 X120.576 Y33.219 E1077.58172
G0 F10500 X120.221 Y32.867
G1 F1380 X15.548 Y137.540 E1081.99055
G0 F10500 X15.221 Y137.160
G1 F1380 X119.865 Y32.515 E1086.39819
G0 F10500 X119.510 Y32.164
G1 F1380 X14.893 Y136.781 E1090.80466
G0 F10500 X14.565 Y136.401
G1 F1380 X119.154 Y31.812 E1095.20996
G0 F10500 X118.799 Y31.460
G1 F1380 X14.237 Y136.022 E1099.61411
G0 F10500 X13.910 Y135.642
G1 F1380 X118.443 Y31.109 E1104.01705
G0 F10500 X118.088 Y30.757
G1 F1380 X13.582 Y135.263 E1108.41885
G0 F10500 X13.254 Y134.884
G1 F1380 X117.732 Y30.406 E1112.81947
G0 F10500 X117.376 Y30.054
G1 F1380 X12.929 Y134.502 E1117.21880
G0 F10500 X12.756 Y133.967
G1 F1380 X117.021 Y29.702 E1121.61045
G0 F10500 X116.666 Y29.351
G1 F1380 X12.584 Y133.433 E1125.99439
G0 F10500 X12.411 Y132.899
G1 F1380 X116.310 Y28.999 E1130.37065
G0 F10500 X115.954 Y28.648
G1 F1380 X12.238 Y132.364 E1134.73917
G0 F10500 X12.066 Y131.830
G1 F1380 X115.599 Y28.296 E1139.10001
G0 F10500 X115.244 Y27.944
G1 F1380 X11.893 Y131.295 E1143.45316
G0 F10500 X11.721 Y130.761
G1 F1380 X114.888 Y27.593 E1147.79858
G0 F10500 X114.532 Y27.241
G1 F1380 X11.547 Y130.227 E1152.13633
G0 F10500 X11.375 Y129.692
G1 F1380 X114.177 Y26.889 E1156.46638
G0 F10500 X113.822 Y26.538
G1 F1380 X11.202 Y129.158 E1160.78874
G0 F10500 X11.030 Y128.623
G1 F1380 X113.466 Y26.186 E1165.10337
G0 F10500 X113.110 Y25.835
G1 F1380 X10.857 Y128.088 E1169.41028
G0 F10500 X10.684 Y127.554
G1 F1380 X112.755 Y25.483 E1173.70951
G0 F10500 X112.400 Y25.131
G1 F1380 X10.511 Y127.020 E1178.00109
G0 F10500 X10.460 Y126.364
G1 F1380 X112.044 Y24.780 E1182.27981
G0 F10500 X111.688 Y24.429
G1 F1380 X10.415 Y125.702 E1186.54543
G0 F10500 X10.370 Y125.040
G1 F1380 X111.333 Y24.076 E1190.79802
G0 F10500 X110.978 Y23.725
G1 F1380 X10.324 Y124.379 E1195.03758
G0 F10500 X10.279 Y123.717
G1 F1380 X110.622 Y23.374 E1199.26403
G0 F10500 X110.266 Y23.022
G1 F1380 X10.233 Y123.055 E1203.47743
G0 F10500 X10.188 Y122.393
G1 F1380 X109.911 Y22.671 E1207.67774
G0 F10500 X109.556 Y22.319
G1 F1380 X10.142 Y121.732 E1211.86505
G0 F10500 X10.097 Y121.070
G1 F1380 X109.200 Y21.967 E1216.03927
G0 F10500 X108.844 Y21.616
G1 F1380 X10.052 Y120.408 E1220.20040
G0 F10500 X10.006 Y119.747
G1 F1380 X108.489 Y21.264 E1224.34851
G0 F10500 X108.134 Y20.912
G1 F1380 X9.961 Y119.085 E1228.48356
G0 F10500 X9.983 Y118.356
G1 F1380 X107.778 Y20.561 E1232.60269
G0 F10500 X107.422 Y20.209
G1 F1380 X10.142 Y117.490 E1236.70015
G0 F10500 X10.300 Y116.625
G1 F1380 X107.067 Y19.858 E1240.77598
G0 F10500 X106.712 Y19.506
G1 F1380 X10.458 Y115.759 E1244.83019
G0 F10500 X10.617 Y114.894
G1 F1380 X106.356 Y19.154 E1248.86274
G0 F10500 X106.000 Y18.803
G1 F1380 X10.775 Y114.028 E1252.87362
G0 F10500 X10.933 Y113.163
G1 F1380 X105.645 Y18.451 E1256.86290
G0 F10500 X105.290 Y18.099
G1 F1380 X11.092 Y112.297 E1260.83052
G0 F10500 X11.250 Y111.432
G1 F1380 X104.934 Y17.748 E1264.77650
G0 F10500 X104.578 Y17.396
G1 F1380 X11.409 Y110.566 E1268.70080
G0 F10500 X11.567 Y109.701
G1 F1380 X104.223 Y17.045 E1272.60348
G0 F10500 X103.868 Y16.693
G1 F1380 X11.754 Y108.806 E1276.48331
G0 F10500 X12.089 Y107.765
G1 F1380 X103.512 Y16.341 E1280.33407
G0 F10500 X103.156 Y15.990
G1 F1380 X12.423 Y106.723 E1284.15575
G0 F10500 X12.757 Y105.682
G1 F1380 X102.801 Y15.639 E1287.94839
G0 F10500 X102.445 Y15.287
G1 F1380 X13.092 Y104.641 E1291.71196
G0 F10500 X13.426 Y103.599
G1 F1380 X102.090 Y14.935 E1295.44650
G0 F10500 X101.734 Y14.584
G1 F1380 X13.761 Y102.558 E1299.15195
G0 F10500 X14.095 Y101.516
G1 F1380 X101.379 Y14.232 E1302.82835
G0 F10500 X101.023 Y13.881
G1 F1380 X14.429 Y100.474 E1306.47568
G0 F10500 X14.763 Y99.434
G1 F1380 X100.668 Y13.529 E1310.09400
G0 F10500 X100.312 Y13.177
G1 F1380 X15.339 Y98.151 E1313.67309
G0 F10500 X16.136 Y96.647
G1 F1380 X99.957 Y12.826 E1317.20363
G0 F10500 X99.601 Y12.474
G1 F1380 X16.932 Y95.144 E1320.68568
G0 F10500 X17.728 Y93.640
G1 F1380 X99.246 Y12.122 E1324.11922
G0 F10500 X98.891 Y11.771
G1 F1380 X18.524 Y92.137 E1327.50426
G0 F10500 X19.321 Y90.633
G1 F1380 X98.535 Y11.419 E1330.84076
G0 F10500 X98.179 Y11.068
G1 F1380 X20.117 Y89.130 E1334.12874
G0 F10500 X21.718 Y86.822
G1 F1380 X97.824 Y10.716 E1337.33433
G0 F10500 X97.469 Y10.364
G1 F1380 X23.357 Y84.476 E1340.45593
G0 F10500 X24.995 Y82.131
G1 F1380 X97.113 Y10.013 E1343.49355
G0 F10500 X96.757 Y9.661
G1 F1380 X26.633 Y79.785 E1346.44717
G0 F10500 X31.873 Y73.838
G1 F1380 X34.742 Y70.970 E1346.56799
G0 F10500 X61.798 Y43.871
G0 X61.664 Y43.340
G1 F1380 X96.047 Y8.958 E1348.01619
G0 F10500 X96.402 Y9.309
G1 F1380 X62.021 Y43.691 E1349.46434
;LAYER:2
G0 F10500 X61.952 Y43.869 Z1.185
;TYPE:WALL-INNER
G1 F1440 X61.066 Y42.994 E1349.50142
G1 X95.887 Y8.554 E1350.96009
G1 X149.934 Y62.007 E1353.22407
G1 X115.114 Y96.444 E1354.68265
G1 X114.923 Y96.254 E1354.69067
G1 X88.346 Y122.830 E1355.81008
G1 X88.905 Y123.372 E1355.83327
G1 X80.552 Y130.991 E1356.16999
G1 X70.275 Y137.775 E1356.53675
G1 X60.081 Y142.875 E1356.87624
G1 X49.711 Y146.020 E1357.19899
G1 X39.728 Y147.746 E1357.50072
G1 X31.070 Y147.186 E1357.75913
G1 X23.279 Y144.805 E1358.00176
G1 X17.441 Y139.997 E1358.22702
G1 X12.776 Y134.599 E1358.43950
G1 X10.331 Y127.034 E1358.67629
G1 X9.788 Y119.108 E1358.91291
G1 X9.755 Y118.633 E1358.92709
G1 X11.529 Y108.940 E1359.22057
G1 X14.761 Y98.869 E1359.53559
G1 X20.003 Y88.974 E1359.86910
G1 X26.992 Y78.970 E1360.23256
G1 X34.591 Y70.580 E1360.56970
G1 X34.921 Y70.902 E1360.58343
G1 X61.093 Y44.731 E1361.68578
G1 X61.952 Y43.869 E1361.72202
G0 F10500 X61.244 Y43.872
;TYPE:WALL-OUTER
G1 F1320 X60.356 Y42.994 E1361.75921
G1 X95.887 Y7.852 E1363.24761
G1 X150.644 Y62.007 E1365.54134
G1 X115.112 Y97.148 E1367.02974
G1 X114.924 Y96.960 E1367.03765
G1 X89.059 Y122.825 E1368.12709
G1 X89.634 Y123.383 E1368.15095
G1 X80.861 Y131.385 E1368.50461
G1 X70.521 Y138.211 E1368.87362
G1 X60.265 Y143.343 E1369.21519
G1 X49.828 Y146.507 E1369.54001
G1 X39.756 Y148.249 E1369.84444
G1 X30.981 Y147.681 E1370.10634
G1 X23.039 Y145.255 E1370.35366
G1 X17.089 Y140.355 E1370.58323
G1 X12.331 Y134.848 E1370.79999
G1 X9.836 Y127.130 E1371.04157
G1 X9.251 Y118.606 E1371.29604
G1 X11.042 Y108.819 E1371.59237
G1 X14.299 Y98.674 E1371.90971
G1 X19.577 Y88.710 E1372.24554
G1 X26.600 Y78.657 E1372.61078
G1 X34.568 Y69.860 E1372.96428
G1 X34.916 Y70.199 E1372.97875
G1 X61.244 Y43.872 E1374.08766
G0 F10500 X61.696 Y44.372
;TYPE:SKIN
G1 F1920 X114.126 Y96.802 E1376.29602
G0 F10500 X113.772 Y97.155
G1 F1920 X61.342 Y44.725 E1378.50437
G0 F10500 X60.989 Y45.079
G1 F1920 X113.419 Y97.509 E1380.71273
G0 F10500 X113.065 Y97.862
G1 F1920 X60.635 Y45.433 E1382.92106
G0 F10500 X60.282 Y45.786
G1 F1920 X112.712 Y98.216 E1385.12942
G0 F10500 X112.358 Y98.569
G1 F1920 X59.928 Y46.140 E1387.33775
G0 F10500 X59.575 Y46.493
G1 F1920 X112.005 Y98.923 E1389.54611
G0 F10500 X111.651 Y99.277
G1 F1920 X59.221 Y46.847 E1391.75446
G0 F10500 X58.868 Y47.200
G1 F1920 X111.297 Y99.630 E1393.96280
G0 F10500 X110.944 Y99.984
G1 F1920 X58.514 Y47.554 E1396.17115
G0 F10500 X58.160 Y47.907
G1 F1920 X110.590 Y100.337 E1398.37950
G0 F10500 X110.237 Y100.691
G1 F1920 X57.807 Y48.261 E1400.58786
G0 F10500 X57.453 Y48.615
G1 F1920 X109.883 Y101.044 E1402.79619
G0 F10500 X109.530 Y101.398
G1 F1920 X57.100 Y48.968 E1405.00455
G0 F10500 X56.746 Y49.322
G1 F1920 X109.176 Y101.751 E1407.21288
G0 F10500 X108.823 Y102.105
G1 F1920 X56.393 Y49.675 E1409.42124
G0 F10500 X56.039 Y50.029
G1 F1920 X108.469 Y102.459 E1411.62959
G0 F10500 X108.115 Y102.812
G1 F1920 X55.686 Y50.382 E1413.83793
G0 F10500 X55.332 Y50.736
G1 F1920 X107.762 Y103.166 E1416.04628
G0 F10500 X107.408 Y103.519
G1 F1920 X54.978 Y51.089 E1418.25463
G0 F10500 X54.625 Y51.443
G1 F1920 X107.055 Y103.873 E1420.46299
G0 F10500 X106.701 Y104.226
G1 F1920 X54.271 Y51.796 E1422.67134
G0 F10500 X53.918 Y52.150
G1 F1920 X106.348 Y104.580 E1424.87970
G0 F10500 X105.994 Y104.933
G1 F1920 X53.564 Y52.504 E1427.08803
G0 F10500 X53.211 Y52.857
G1 F1920 X105.641 Y105.287 E1429.29639
G0 F10500 X105.287 Y105.641
G1 F1920 X52.857 Y53.211 E1431.50474
G0 F10500 X52.504 Y53.564
G1 F1920 X104.933 Y105.994 E1433.71308
G0 F10500 X104.580 Y106.348
G1 F1920 X52.150 Y53.918 E1435.92143
G0 F10500 X51.796 Y54.271
G1 F1920 X104.226 Y106.701 E1438.12979
G0 F10500 X103.873 Y107.055
G1 F1920 X51.443 Y54.625 E1440.33814
G0 F10500 X51.089 Y54.978
G1 F1920 X103.519 Y107.408 E1442.54650
G0 F10500 X103.166 Y107.762
G1 F1920 X50.736 Y55.332 E1444.75485
G0 F10500 X50.382 Y55.686
G1 F1920 X102.812 Y108.115 E1446.96318
G0 F10500 X102.459 Y108.469
G1 F1920 X50.029 Y56.039 E1449.17154
G0 F10500 X49.675 Y56.393
G1 F1920 X102.105 Y108.823 E1451.37989
G0 F10500 X101.751 Y109.176
G1 F1920 X49.322 Y56.746 E1453.58823
G0 F10500 X48.968 Y57.100
G1 F1920 X101.398 Y109.530 E1455.79658
G0 F10500 X101.044 Y109.883
G1 F1920 X48.615 Y57.453 E1458.00492
G0 F10500 X48.261 Y57.807
G1 F1920 X100.691 Y110.237 E1460.21327
G0 F10500 X100.337 Y110.590
G1 F1920 X47.907 Y58.160 E1462.42163
G0 F10500 X47.554 Y58.514
G1 F1920 X99.984 Y110.944 E1464.62998
G0 F10500 X99.630 Y111.297
G1 F1920 X47.200 Y58.868 E1466.83831
G0 F10500 X46.847 Y59.221
G1 F1920 X99.277 Y111.651 E1469.04667
G0 F10500 X98.923 Y112.005
G1 F1920 X46.493 Y59.575 E1471.25502
G0 F10500 X46.140 Y59.928
G1 F1920 X98.569 Y112.358 E1473.46336
G0 F10500 X98.216 Y112.712
G1 F1920 X45.786 Y60.282 E1475.67171
G0 F10500 X45.433 Y60.635
G1 F1920 X97.862 Y113.065 E1477.88005
G0 F10500 X97.509 Y113.419
G1 F1920 X45.079 Y60.989 E1480.08840
G0 F10500 X44.725 Y61.342
G1 F1920 X97.155 Y113.772 E1482.29676
G0 F10500 X96.802 Y114.126
G1 F1920 X44.372 Y61.696 E1484.50511
G0 F10500 X44.018 Y62.050
G1 F1920 X96.448 Y114.479 E1486.71345
G0 F10500 X96.095 Y114.833
G1 F1920 X43.665 Y62.403 E1488.92180
G0 F10500 X43.311 Y62.757
G1 F1920 X95.741 Y115.186 E1491.13013
G0 F10500 X95.387 Y115.540
G1 F1920 X42.958 Y63.110 E1493.33847
G0 F10500 X42.604 Y63.464
G1 F1920 X95.034 Y115.894 E1495.54682
G0 F10500 X94.680 Y116.247
G1 F1920 X42.251 Y63.817 E1497.75516
G0 F10500 X41.897 Y64.171
G1 F1920 X94.327 Y116.601 E1499.96351
G0 F10500 X93.973 Y116.954
G1 F1920 X41.543 Y64.524 E1502.17187
G0 F10500 X41.190 Y64.878
G1 F1920 X93.620 Y117.308 E1504.38022
G0 F10500 X93.266 Y117.661
G1 F1920 X40.836 Y65.232 E1506.58855
G0 F10500 X40.483 Y65.585
G1 F1920 X92.913 Y118.015 E1508.79691
G0 F10500 X92.559 Y118.368
G1 F1920 X40.129 Y65.939 E1511.00524
G0 F10500 X39.776 Y66.292
G1 F1920 X92.206 Y118.722 E1513.21360
G0 F10500 X91.852 Y119.076
G1 F1920 X39.422 Y66.646 E1515.42195
G0 F10500 X39.069 Y66.999
G1 F1920 X91.498 Y119.429 E1517.63029
G0 F10500 X91.145 Y119.783
G1 F1920 X38.715 Y67.353 E1519.83864
G0 F10500 X38.361 Y67.706
G1 F1920 X90.791 Y120.136 E1522.04700
G0 F10500 X90.438 Y120.490
G1 F1920 X38.008 Y68.060 E1524.25535
G0 F10500 X37.654 Y68.413
G1 F1920 X90.084 Y120.843 E1526.46371
G0 F10500 X89.731 Y121.197
G1 F1920 X37.301 Y68.767 E1528.67206
G0 F10500 X36.947 Y69.121
G1 F1920 X89.377 Y121.550 E1530.88039
G0 F10500 X89.024 Y121.904
G1 F1920 X36.594 Y69.474 E1533.08875
G0 F10500 X36.240 Y69.828
G1 F1920 X88.670 Y122.258 E1535.29710
G0 F10500 X88.316 Y122.611
G1 F1920 X35.887 Y70.181 E1537.50544
G0 F10500 X35.533 Y70.535
G1 F1920 X88.500 Y123.501 E1539.73639
G0 F10500 X88.130 Y123.839
G1 F1920 X35.179 Y70.888 E1541.96669
G0 F10500 X34.511 Y70.927
G1 F1920 X87.760 Y124.176 E1544.20954
G0 F10500 X87.390 Y124.513
G1 F1920 X34.175 Y71.298 E1546.45096
G0 F10500 X33.838 Y71.668
G1 F1920 X87.021 Y124.851 E1548.69103
G0 F10500 X86.651 Y125.189
G1 F1920 X33.502 Y72.040 E1550.92967
G0 F10500 X33.166 Y72.411
G1 F1920 X86.281 Y125.526 E1553.16688
G0 F10500 X85.912 Y125.863
G1 F1920 X32.830 Y72.782 E1555.40267
G0 F10500 X32.494 Y73.153
G1 F1920 X85.542 Y126.200 E1557.63704
G0 F10500 X85.172 Y126.538
G1 F1920 X32.158 Y73.524 E1559.86999
G0 F10500 X31.822 Y73.895
G1 F1920 X84.802 Y126.875 E1562.10151
G0 F10500 X84.432 Y127.212
G1 F1920 X31.486 Y74.266 E1564.33160
G0 F10500 X31.150 Y74.637
G1 F1920 X84.062 Y127.550 E1566.56028
G0 F10500 X83.693 Y127.887
G1 F1920 X30.814 Y75.008 E1568.78754
G0 F10500 X30.478 Y75.379
G1 F1920 X83.323 Y128.224 E1571.01338
G0 F10500 X82.953 Y128.561
G1 F1920 X30.142 Y75.750 E1573.23778
G0 F10500 X29.805 Y76.121
G1 F1920 X82.583 Y128.899 E1575.46079
G0 F10500 X82.213 Y129.236
G1 F1920 X29.470 Y76.492 E1577.68235
G0 F10500 X29.134 Y76.863
G1 F1920 X81.844 Y129.573 E1579.90250
G0 F10500 X81.474 Y129.911
G1 F1920 X28.798 Y77.235 E1582.12122
G0 F10500 X28.461 Y77.605
G1 F1920 X81.104 Y130.248 E1584.33854
G0 F10500 X80.734 Y130.585
G1 F1920 X28.125 Y77.976 E1586.55444
G0 F10500 X27.790 Y78.348
G1 F1920 X80.352 Y130.910 E1588.76835
G0 F10500 X79.927 Y131.192
G1 F1920 X27.454 Y78.719 E1590.97852
G0 F10500 X27.118 Y79.091
G1 F1920 X79.500 Y131.473 E1593.18485
G0 F10500 X79.075 Y131.754
G1 F1920 X26.828 Y79.507 E1595.38550
G0 F10500 X26.537 Y79.924
G1 F1920 X78.648 Y132.035 E1597.58042
G0 F10500 X78.222 Y132.316
G1 F1920 X26.246 Y80.340 E1599.76965
G0 F10500 X25.955 Y80.756
G1 F1920 X77.797 Y132.598 E1601.95324
G0 F10500 X77.370 Y132.878
G1 F1920 X25.665 Y81.173 E1604.13106
G0 F10500 X25.374 Y81.589
G1 F1920 X76.945 Y133.160 E1606.30323
G0 F10500 X76.519 Y133.441
G1 F1920 X25.083 Y82.005 E1608.46972
G0 F10500 X24.792 Y82.421
G1 F1920 X76.093 Y133.722 E1610.63052
G0 F10500 X75.667 Y134.003
G1 F1920 X24.501 Y82.838 E1612.78561
G0 F10500 X24.210 Y83.254
G1 F1920 X75.241 Y134.284 E1614.93502
G0 F10500 X74.815 Y134.565
G1 F1920 X23.920 Y83.670 E1617.07872
G0 F10500 X23.629 Y84.087
G1 F1920 X74.389 Y134.847 E1619.21674
G0 F10500 X73.963 Y135.128
G1 F1920 X23.338 Y84.503 E1621.34906
G0 F10500 X23.047 Y84.919
G1 F1920 X73.537 Y135.409 E1623.47571
G0 F10500 X73.112 Y135.690
G1 F1920 X22.756 Y85.335 E1625.59668
G0 F10500 X22.466 Y85.752
G1 F1920 X72.685 Y135.971 E1627.71191
G0 F10500 X72.259 Y136.253
G1 F1920 X22.174 Y86.168 E1629.82149
G0 F10500 X21.884 Y86.584
G1 F1920 X71.833 Y136.533 E1631.92535
G0 F10500 X71.407 Y136.815
G1 F1920 X21.593 Y87.001 E1634.02352
G0 F10500 X21.303 Y87.417
G1 F1920 X70.982 Y137.096 E1636.11600
G0 F10500 X70.555 Y137.377
G1 F1920 X21.011 Y87.833 E1638.20280
G0 F10500 X20.721 Y88.249
G1 F1920 X70.124 Y137.653 E1640.28367
G0 F10500 X69.652 Y137.888
G1 F1920 X20.430 Y88.666 E1642.35691
G0 F10500 X20.141 Y89.084
G1 F1920 X69.181 Y138.124 E1644.42248
G0 F10500 X68.710 Y138.360
G1 F1920 X19.896 Y89.546 E1646.47852
G0 F10500 X19.651 Y90.009
G1 F1920 X68.238 Y138.595 E1648.52499
G0 F10500 X67.767 Y138.831
G1 F1920 X19.407 Y90.471 E1650.56192
G0 F10500 X19.161 Y90.933
G1 F1920 X67.296 Y139.067 E1652.58934
G0 F10500 X66.825 Y139.303
G1 F1920 X18.917 Y91.395 E1654.60723
G0 F10500 X18.672 Y91.858
G1 F1920 X66.353 Y139.539 E1656.61556
G0 F10500 X65.882 Y139.775
G1 F1920 X18.427 Y92.319 E1658.61439
G0 F10500 X18.182 Y92.782
G1 F1920 X65.410 Y140.010 E1660.60363
G0 F10500 X64.939 Y140.246
G1 F1920 X17.937 Y93.244 E1662.58336
G0 F10500 X17.693 Y93.707
G1 F1920 X64.468 Y140.482 E1664.55353
G0 F10500 X63.996 Y140.717
G1 F1920 X17.447 Y94.168 E1666.51417
G0 F10500 X17.203 Y94.631
G1 F1920 X63.525 Y140.953 E1668.46526
G0 F10500 X63.054 Y141.189
G1 F1920 X16.958 Y95.093 E1670.40683
G0 F10500 X16.713 Y95.556
G1 F1920 X62.583 Y141.425 E1672.33885
G0 F10500 X62.111 Y141.661
G1 F1920 X16.468 Y96.018 E1674.26134
G0 F10500 X16.223 Y96.480
G1 F1920 X61.640 Y141.897 E1676.17430
G0 F10500 X61.168 Y142.132
G1 F1920 X15.979 Y96.942 E1678.07769
G0 F10500 X15.734 Y97.405
G1 F1920 X60.698 Y142.368 E1679.97155
G0 F10500 X60.226 Y142.604
G1 F1920 X15.489 Y97.867 E1681.85588
G0 F10500 X15.244 Y98.329
G1 F1920 X59.716 Y142.801 E1683.72904
G0 F10500 X59.173 Y142.965
G1 F1920 X14.999 Y98.792 E1685.58963
G0 F10500 X14.804 Y99.303
G1 F1920 X58.631 Y143.130 E1687.43563
G0 F10500 X58.088 Y143.295
G1 F1920 X14.632 Y99.839 E1689.26600
G0 F10500 X14.461 Y100.374
G1 F1920 X57.545 Y143.459 E1691.08072
G0 F10500 X57.003 Y143.623
G1 F1920 X14.289 Y100.909 E1692.87984
G0 F10500 X14.117 Y101.445
G1 F1920 X56.461 Y143.788 E1694.66335
G0 F10500 X55.918 Y143.953
G1 F1920 X13.945 Y101.980 E1696.43125
G0 F10500 X13.773 Y102.515
G1 F1920 X55.375 Y144.117 E1698.18353
G0 F10500 X54.833 Y144.282
G1 F1920 X13.601 Y103.050 E1699.92023
G0 F10500 X13.430 Y103.586
G1 F1920 X54.290 Y144.447 E1701.64127
G0 F10500 X53.747 Y144.611
G1 F1920 X13.258 Y104.121 E1703.34669
G0 F10500 X13.086 Y104.656
G1 F1920 X53.205 Y144.775 E1705.03651
G0 F10500 X52.663 Y144.940
G1 F1920 X12.914 Y105.192 E1706.71072
G0 F10500 X12.742 Y105.727
G1 F1920 X52.120 Y145.105 E1708.36932
G0 F10500 X51.577 Y145.269
G1 F1920 X12.570 Y106.262 E1710.01230
G0 F10500 X12.399 Y106.797
G1 F1920 X51.035 Y145.434 E1711.63967
G0 F10500 X50.493 Y145.598
G1 F1920 X12.227 Y107.333 E1713.25142
G0 F10500 X12.055 Y107.868
G1 F1920 X49.950 Y145.762 E1714.84753
G0 F10500 X49.378 Y145.898
G1 F1920 X11.883 Y108.403 E1716.42683
G0 F10500 X11.711 Y108.938
G1 F1920 X48.776 Y146.003 E1717.98801
G0 F10500 X48.173 Y146.107
G1 F1920 X11.597 Y109.532 E1719.52857
G0 F10500 X11.488 Y110.129
G1 F1920 X47.569 Y146.211 E1721.04832
G0 F10500 X46.967 Y146.315
G1 F1920 X11.378 Y110.727 E1722.54731
G0 F10500 X11.269 Y111.325
G1 F1920 X46.364 Y146.419 E1724.02550
G0 F10500 X45.761 Y146.523
G1 F1920 X11.160 Y111.922 E1725.48289
G0 F10500 X11.050 Y112.520
G1 F1920 X45.158 Y146.628 E1726.91952
G0 F10500 X44.555 Y146.732
G1 F1920 X10.941 Y113.117 E1728.33537
G0 F10500 X10.832 Y113.716
G1 F1920 X43.952 Y146.836 E1729.73038
G0 F10500 X43.349 Y146.941
G1 F1920 X10.722 Y114.313 E1731.10466
G0 F10500 X10.612 Y114.911
G1 F1920 X42.746 Y147.044 E1732.45812
G0 F10500 X42.144 Y147.149
G1 F1920 X10.504 Y115.509 E1733.79080
G0 F10500 X10.394 Y116.106
G1 F1920 X41.541 Y147.253 E1735.10271
G0 F10500 X40.937 Y147.357
G1 F1920 X10.284 Y116.704 E1736.39382
G0 F10500 X10.175 Y117.302
G1 F1920 X40.335 Y147.462 E1737.66416
G0 F10500 X39.732 Y147.566
G1 F1920 X10.066 Y117.900 E1738.91370
G0 F10500 X9.956 Y118.497
G1 F1920 X38.979 Y147.520 E1740.13615
G0 F10500 X38.224 Y147.472
G1 F1920 X9.969 Y119.217 E1741.32625
G0 F10500 X10.021 Y119.976
G1 F1920 X37.468 Y147.423 E1742.48232
G0 F10500 X36.712 Y147.374
G1 F1920 X10.074 Y120.736 E1743.60431
G0 F10500 X10.125 Y121.495
G1 F1920 X35.956 Y147.325 E1744.69229
G0 F10500 X35.200 Y147.276
G1 F1920 X10.178 Y122.254 E1745.74622
G0 F10500 X10.230 Y123.013
G1 F1920 X34.444 Y147.228 E1746.76614
G0 F10500 X33.688 Y147.179
G1 F1920 X10.282 Y123.773 E1747.75200
G0 F10500 X10.334 Y124.532
G1 F1920 X32.932 Y147.130 E1748.70383
G0 F10500 X32.176 Y147.081
G1 F1920 X10.386 Y125.291 E1749.62163
G0 F10500 X10.439 Y126.050
G1 F1920 X31.420 Y147.032 E1750.50537
G0 F10500 X30.512 Y146.831
G1 F1920 X10.490 Y126.809 E1751.34870
G0 F10500 X10.757 Y127.784
G1 F1920 X29.494 Y146.520 E1752.13788
G0 F10500 X28.475 Y146.209
G1 F1920 X11.095 Y128.829 E1752.86992
G0 F10500 X11.433 Y129.873
G1 F1920 X27.457 Y145.898 E1753.54488
G0 F10500 X26.439 Y145.586
G1 F1920 X11.770 Y130.917 E1754.16274
G0 F10500 X12.108 Y131.963
G1 F1920 X25.421 Y145.275 E1754.72346
G0 F10500 X24.402 Y144.963
G1 F1920 X12.445 Y133.007 E1755.22707
G0 F10500 X12.783 Y134.051
G1 F1920 X23.384 Y144.652 E1755.67358
G0 F10500 X19.441 Y141.417
G1 F1920 X15.448 Y137.424 E1755.84177
G0 F10500 X62.050 Y44.018
G1 F1920 X114.479 Y96.448 E1758.05010
G0 F10500 X114.833 Y96.095
G1 F1920 X61.524 Y42.786 E1760.29548
G0 F10500 X61.880 Y42.434
G1 F1920 X115.380 Y95.934 E1762.54890
G0 F10500 X115.734 Y95.582
G1 F1920 X62.236 Y42.083 E1764.80226
G0 F10500 X62.590 Y41.731
G1 F1920 X116.090 Y95.231 E1767.05569
G0 F10500 X116.446 Y94.879
G1 F1920 X62.946 Y41.379 E1769.30911
G0 F10500 X63.302 Y41.028
G1 F1920 X116.802 Y94.528 E1771.56253
G0 F10500 X117.156 Y94.176
G1 F1920 X63.657 Y40.677 E1773.81592
G0 F10500 X64.012 Y40.324
G1 F1920 X117.512 Y93.824 E1776.06934
G0 F10500 X117.868 Y93.473
G1 F1920 X64.368 Y39.973 E1778.32276
G0 F10500 X64.724 Y39.622
G1 F1920 X118.224 Y93.121 E1780.57616
G0 F10500 X118.578 Y92.769
G1 F1920 X65.079 Y39.270 E1782.82955
G0 F10500 X65.434 Y38.918
G1 F1920 X118.934 Y92.418 E1785.08297
G0 F10500 X119.290 Y92.066
G1 F1920 X65.790 Y38.567 E1787.33637
G0 F10500 X66.146 Y38.215
G1 F1920 X119.646 Y91.715 E1789.58979
G0 F10500 X120.000 Y91.363
G1 F1920 X66.501 Y37.864 E1791.84318
G0 F10500 X66.856 Y37.512
G1 F1920 X120.356 Y91.011 E1794.09658
G0 F10500 X120.712 Y90.660
G1 F1920 X67.212 Y37.160 E1796.35000
G0 F10500 X67.568 Y36.809
G1 F1920 X121.067 Y90.308 E1798.60338
G0 F10500 X121.422 Y89.956
G1 F1920 X67.923 Y36.457 E1800.85676
G0 F10500 X68.278 Y36.105
G1 F1920 X121.778 Y89.605 E1803.11019
G0 F10500 X122.134 Y89.253
G1 F1920 X68.634 Y35.754 E1805.36359
G0 F10500 X68.990 Y35.402
G1 F1920 X122.489 Y88.902 E1807.61699
G0 F10500 X122.844 Y88.550
G1 F1920 X69.345 Y35.051 E1809.87037
G0 F10500 X69.701 Y34.699
G1 F1920 X123.200 Y88.198 E1812.12375
G0 F10500 X123.556 Y87.847
G1 F1920 X70.056 Y34.347 E1814.37718
G0 F10500 X70.412 Y33.996
G1 F1920 X123.911 Y87.495 E1816.63056
G0 F10500 X124.266 Y87.143
G1 F1920 X70.767 Y33.644 E1818.88394
G0 F10500 X71.123 Y33.293
G1 F1920 X124.622 Y86.792 E1821.13732
G0 F10500 X124.978 Y86.440
G1 F1920 X71.478 Y32.941 E1823.39072
G0 F10500 X71.834 Y32.589
G1 F1920 X125.333 Y86.089 E1825.64412
G0 F10500 X125.688 Y85.737
G1 F1920 X72.189 Y32.238 E1827.89751
G0 F10500 X72.545 Y31.886
G1 F1920 X126.044 Y85.385 E1830.15089
G0 F10500 X126.400 Y85.034
G1 F1920 X72.900 Y31.534 E1832.40431
G0 F10500 X73.256 Y31.183
G1 F1920 X126.755 Y84.683 E1834.65771
G0 F10500 X127.111 Y84.331
G1 F1920 X73.611 Y30.831 E1836.91114
G0 F10500 X73.967 Y30.480
G1 F1920 X127.466 Y83.979 E1839.16452
G0 F10500 X127.822 Y83.628
G1 F1920 X74.322 Y30.128 E1841.41794
G0 F10500 X74.678 Y29.776
G1 F1920 X128.177 Y83.276 E1843.67134
G0 F10500 X128.533 Y82.925
G1 F1920 X75.033 Y29.425 E1845.92477
G0 F10500 X75.389 Y29.074
G1 F1920 X128.888 Y82.573 E1848.17815
G0 F10500 X129.244 Y82.221
G1 F1920 X75.744 Y28.721 E1850.43157
G0 F10500 X76.100 Y28.370
G1 F1920 X129.599 Y81.870 E1852.68497
G0 F10500 X129.955 Y81.518
G1 F1920 X76.455 Y28.019 E1854.93837
G0 F10500 X76.811 Y27.667
G1 F1920 X130.310 Y81.166 E1857.19176
G0 F10500 X130.666 Y80.815
G1 F1920 X77.166 Y27.315 E1859.44518
G0 F10500 X77.522 Y26.964
G1 F1920 X131.021 Y80.463 E1861.69856
G0 F10500 X131.377 Y80.112
G1 F1920 X77.877 Y26.612 E1863.95198
G0 F10500 X78.233 Y26.261
G1 F1920 X131.732 Y79.760 E1866.20536
G0 F10500 X132.088 Y79.408
G1 F1920 X78.588 Y25.909 E1868.45877
G0 F10500 X78.944 Y25.557
G1 F1920 X132.443 Y79.057 E1870.71217
G0 F10500 X132.799 Y78.705
G1 F1920 X79.299 Y25.206 E1872.96557
G0 F10500 X79.655 Y24.854
G1 F1920 X133.154 Y78.353 E1875.21895
G0 F10500 X133.510 Y78.002
G1 F1920 X80.010 Y24.502 E1877.47238
G0 F10500 X80.366 Y24.151
G1 F1920 X133.865 Y77.650 E1879.72576
G0 F10500 X134.221 Y77.299
G1 F1920 X80.721 Y23.799 E1881.97918
G0 F10500 X81.077 Y23.448
G1 F1920 X134.576 Y76.947 E1884.23256
G0 F10500 X134.932 Y76.595
G1 F1920 X81.432 Y23.096 E1886.48596
G0 F10500 X81.788 Y22.744
G1 F1920 X135.287 Y76.244 E1888.73937
G0 F10500 X135.643 Y75.893
G1 F1920 X82.143 Y22.393 E1890.99279
G0 F10500 X82.499 Y22.041
G1 F1920 X135.998 Y75.540 E1893.24617
G0 F10500 X136.354 Y75.189
G1 F1920 X82.854 Y21.689 E1895.49959
G0 F10500 X83.210 Y21.338
G1 F1920 X136.709 Y74.838 E1897.75300
G0 F10500 X137.065 Y74.486
G1 F1920 X83.565 Y20.986 E1900.00642
G0 F10500 X83.921 Y20.635
G1 F1920 X137.420 Y74.134 E1902.25980
G0 F10500 X137.776 Y73.783
G1 F1920 X84.277 Y20.284 E1904.51318
G0 F10500 X84.632 Y19.931
G1 F1920 X138.131 Y73.431 E1906.76658
G0 F10500 X138.487 Y73.080
G1 F1920 X84.987 Y19.580 E1909.02001
G0 F10500 X85.343 Y19.229
G1 F1920 X138.842 Y72.728 E1911.27339
G0 F10500 X139.198 Y72.376
G1 F1920 X85.699 Y18.877 E1913.52677
G0 F10500 X86.054 Y18.525
G1 F1920 X139.553 Y72.025 E1915.78017
G0 F10500 X139.909 Y71.673
G1 F1920 X86.409 Y18.174 E1918.03357
G0 F10500 X86.765 Y17.822
G1 F1920 X140.264 Y71.321 E1920.28696
G0 F10500 X140.620 Y70.970
G1 F1920 X87.121 Y17.471 E1922.54034
G0 F10500 X87.476 Y17.119
G1 F1920 X140.975 Y70.618 E1924.79372
G0 F10500 X141.331 Y70.267
G1 F1920 X87.831 Y16.767 E1927.04714
G0 F10500 X88.187 Y16.416
G1 F1920 X141.687 Y69.915 E1929.30054
G0 F10500 X142.042 Y69.563
G1 F1920 X88.543 Y16.064 E1931.55392
G0 F10500 X88.898 Y15.712
G1 F1920 X142.397 Y69.212 E1933.80733
G0 F10500 X142.753 Y68.860
G1 F1920 X89.253 Y15.361 E1936.06073
G0 F10500 X89.609 Y15.009
G1 F1920 X143.109 Y68.509 E1938.31415
G0 F10500 X143.464 Y68.157
G1 F1920 X89.965 Y14.658 E1940.56753
G0 F10500 X90.320 Y14.306
G1 F1920 X143.819 Y67.805 E1942.82091
G0 F10500 X144.175 Y67.454
G1 F1920 X90.675 Y13.954 E1945.07434
G0 F10500 X91.031 Y13.603
G1 F1920 X144.531 Y67.103 E1947.32776
G0 F10500 X144.886 Y66.750
G1 F1920 X91.387 Y13.251 E1949.58114
G0 F10500 X91.742 Y12.899
G1 F1920 X145.241 Y66.399 E1951.83454
G0 F10500 X145.597 Y66.048
G1 F1920 X92.097 Y12.548 E1954.08797
G0 F10500 X92.453 Y12.196
G1 F1920 X145.953 Y65.696 E1956.34139
G0 F10500 X146.308 Y65.344
G1 F1920 X92.809 Y11.845 E1958.59477
G0 F10500 X93.164 Y11.493
G1 F1920 X146.663 Y64.993 E1960.84817
G0 F10500 X147.019 Y64.641
G1 F1920 X93.519 Y11.141 E1963.10160
G0 F10500 X93.875 Y10.790
G1 F1920 X147.375 Y64.290 E1965.35502
G0 F10500 X147.730 Y63.938
G1 F1920 X94.231 Y10.439 E1967.60840
G0 F10500 X94.586 Y10.086
G1 F1920 X148.085 Y63.586 E1969.86180
G0 F10500 X148.441 Y63.235
G1 F1920 X94.941 Y9.735 E1972.11523
G0 F10500 X95.297 Y9.384
G1 F1920 X148.797 Y62.883 E1974.36863
G0 F10500 X149.152 Y62.531
G1 F1920 X95.653 Y9.032 E1976.62201
G0 F10500 X117.895 Y30.567
G1 F1920 X149.507 Y62.180 E1977.95353
;LAYER:3
G0 F10500 X149.934 Y62.007 Z1.565
;TYPE:WALL-INNER
G1 F1740 X115.114 Y96.444 E1979.41211
G1 X114.923 Y96.254 E1979.42013
G1 X88.346 Y122.830 E1980.53954
G1 X88.905 Y123.372 E1980.56273
G1 X80.552 Y130.991 E1980.89945
G1 X70.275 Y137.775 E1981.26621
G1 X60.083 Y142.875 E1981.60565
G1 X49.709 Y146.020 E1981.92850
G1 X39.728 Y147.746 E1982.23018
G1 X31.070 Y147.186 E1982.48859
G1 X23.281 Y144.806 E1982.73116
G1 X17.442 Y139.997 E1982.95645
G1 X12.775 Y134.597 E1983.16903
G1 X10.331 Y127.035 E1983.40572
G1 X9.755 Y118.634 E1983.65652
G1 X11.528 Y108.941 E1983.95000
G1 X14.761 Y98.869 E1984.26505
G1 X20.003 Y88.974 E1984.59856
G1 X26.992 Y78.970 E1984.96202
G1 X34.591 Y70.580 E1985.29916
G1 X34.921 Y70.902 E1985.31289
G1 X61.093 Y44.731 E1986.41524
G1 X61.952 Y43.869 E1986.45148
G1 X61.067 Y42.993 E1986.48857
G1 X95.887 Y8.554 E1987.94719
G1 X149.934 Y62.007 E1990.21117
G0 F10500 X119.063 Y89.360
G1 F1740 X103.860 Y74.156 E1990.85155
G1 X103.358 Y74.656 E1990.87265
G1 X92.861 Y64.157 E1991.31483
G1 X92.719 Y64.299 E1991.32081
G1 X82.988 Y54.568 E1991.73068
G1 X83.061 Y54.493 E1991.73379
G1 X68.859 Y40.444 E1992.32877
G1 X63.674 Y45.573 E1992.54599
G1 X63.265 Y45.168 E1992.56313
G1 X62.575 Y44.483 E1992.59209
G1 X35.548 Y71.511 E1993.73049
G1 X87.720 Y122.220 E1995.89738
G1 X114.299 Y95.642 E1997.01687
G1 X113.535 Y94.886 E1997.04888
G1 X119.063 Y89.360 E1997.28168
G0 F10500 X118.356 Y89.360
;TYPE:WALL-OUTER
G1 F1500 X103.859 Y74.863 E1997.89229
G1 X103.358 Y75.362 E1997.91335
G1 X92.860 Y64.863 E1998.35555
G1 X92.718 Y65.004 E1998.36151
G1 X82.284 Y54.570 E1998.80099
G1 X82.354 Y54.498 E1998.80398
G1 X68.859 Y41.147 E1999.36937
G1 X63.674 Y46.275 E1999.58656
G1 X62.576 Y45.189 E1999.63256
G1 X36.260 Y71.506 E2000.74101
G1 X87.715 Y121.518 E2002.87813
G1 X113.590 Y95.644 E2003.96796
G1 X112.827 Y94.888 E2003.99995
G1 X118.356 Y89.360 E2004.23281
G0 F10500 X118.602 Y89.607
G0 X115.171 Y96.713
G0 X114.924 Y96.960
G1 F1500 X89.059 Y122.825 E2005.32225
G1 X89.634 Y123.383 E2005.34611
G1 X80.861 Y131.385 E2005.69977
G1 X70.521 Y138.211 E2006.06878
G1 X60.266 Y143.342 E2006.41031
G1 X49.826 Y146.508 E2006.73523
G1 X39.756 Y148.249 E2007.03960
G1 X30.981 Y147.681 E2007.30149
G1 X23.039 Y145.255 E2007.54882
G1 X17.089 Y140.355 E2007.77839
G1 X12.331 Y134.848 E2007.99515
G1 X9.836 Y127.130 E2008.23673
G1 X9.251 Y118.606 E2008.49120
G1 X11.042 Y108.819 E2008.78753
G1 X14.299 Y98.674 E2009.10487
G1 X19.577 Y88.710 E2009.44070
G1 X26.600 Y78.657 E2009.80593
G1 X34.568 Y69.860 E2010.15944
G1 X34.916 Y70.199 E2010.17391
G1 X61.243 Y43.872 E2011.28280
G1 X60.356 Y42.994 E2011.31997
G1 X95.887 Y7.852 E2012.80837
G1 X150.644 Y62.007 E2015.10210
G1 X115.112 Y97.148 E2016.59049
G1 X114.924 Y96.960 E2016.59841
G0 F10500 X114.303 Y96.625
;TYPE:FILL
G1 F1980 X113.932 Y96.254 E2016.61404
G0 F10500 X110.397 Y99.790
G1 F1980 X110.767 Y100.160 E2016.62962
G0 F10500 X107.232 Y103.696
G1 F1980 X106.861 Y103.325 E2016.64525
G0 F10500 X103.325 Y106.861
G1 F1980 X103.696 Y107.232 E2016.66088
G0 F10500 X100.160 Y110.767
G1 F1980 X99.790 Y110.397 E2016.67646
G0 F10500 X96.254 Y113.932
G1 F1980 X96.625 Y114.303 E2016.69209
G0 F10500 X93.089 Y117.838
G1 F1980 X92.719 Y117.468 E2016.70767
G0 F10500 X87.719 Y122.069
G0 X83.328 Y118.196
G1 F1980 X58.289 Y143.235 E2017.76232
G0 F10500 X55.647 Y144.036
G1 F1980 X13.859 Y102.247 E2019.52245
G0 F10500 X13.593 Y103.079
G1 F1980 X40.300 Y76.372 E2020.64735
G0 F10500 X43.885 Y79.857
G1 F1980 X11.012 Y112.731 E2022.03199
G0 F10500 X10.885 Y113.416
G1 F1980 X44.254 Y146.784 E2023.43747
G0 F10500 X48.383 Y146.071
G1 F1980 X79.743 Y114.711 E2024.75835
G0 F10500 X76.157 Y111.225
G1 F1980 X39.834 Y147.549 E2026.28830
G0 F10500 X37.846 Y147.448
G1 F1980 X9.995 Y119.597 E2027.46139
G0 F10500 X12.141 Y107.600
G1 F1980 X50.221 Y145.680 E2029.06532
G0 F10500 X60.934 Y142.251
G1 F1980 X15.856 Y97.174 E2030.96399
G0 F10500 X18.304 Y92.551
G1 F1980 X65.647 Y139.893 E2032.95806
G0 F10500 X70.342 Y137.518
G1 F1980 X20.866 Y88.041 E2035.04201
G0 F10500 X23.775 Y83.879
G1 F1980 X74.602 Y134.706 E2037.18285
G0 F10500 X72.503 Y136.092
G1 F1980 X86.915 Y121.681 E2037.78986
G0 F10500 X87.719 Y122.069
G0 X89.183 Y121.003
G1 F1980 X89.554 Y121.374 E2037.80549
G0 F10500 X86.466 Y125.357
G1 F1980 X33.335 Y72.226 E2040.04337
G0 F10500 X36.714 Y72.887
G1 F1980 X19.719 Y89.881 E2040.75918
G0 F10500 X26.682 Y79.715
G1 F1980 X78.862 Y131.895 E2042.95700
G0 F10500 X82.768 Y128.730
G1 F1980 X29.974 Y75.936 E2045.18069
G0 F10500 X37.123 Y68.943
G1 F1980 X37.495 Y69.315 E2045.19636
G0 F10500 X41.031 Y65.780
G1 F1980 X40.659 Y65.408 E2045.21202
G0 F10500 X44.194 Y61.872
G1 F1980 X44.566 Y62.244 E2045.22769
G0 F10500 X48.102 Y58.708
G1 F1980 X47.730 Y58.337 E2045.24334
G0 F10500 X51.265 Y54.801
G1 F1980 X51.637 Y55.173 E2045.25901
G0 F10500 X55.173 Y51.637
G1 F1980 X54.801 Y51.265 E2045.27468
G0 F10500 X58.337 Y47.730
G1 F1980 X58.708 Y48.102 E2045.29033
G0 F10500 X62.244 Y44.566
G1 F1980 X61.872 Y44.194 E2045.30599
G0 F10500 X64.546 Y39.798
G1 F1980 X66.891 Y42.142 E2045.40474
G0 F10500 X69.133 Y40.468
G1 F1980 X98.357 Y11.243 E2046.63568
G0 F10500 X92.986 Y11.669
G1 F1980 X146.486 Y65.169 E2048.88911
G0 F10500 X148.128 Y60.468
G1 F1980 X119.273 Y89.323 E2050.10448
G0 F10500 X116.709 Y91.960
G1 F1980 X118.045 Y93.297 E2050.16077
G0 F10500 X118.909 Y89.360
G0 X115.737 Y85.787
G1 F1980 X144.573 Y56.951 E2051.37535
G0 F10500 X141.018 Y53.436
G1 F1980 X112.202 Y82.252 E2052.58908
G0 F10500 X108.666 Y78.716
G1 F1980 X137.463 Y49.919 E2053.80201
G0 F10500 X133.908 Y46.403
G1 F1980 X105.131 Y75.181 E2055.01412
G0 F10500 X101.095 Y72.145
G1 F1980 X130.353 Y42.888 E2056.24645
G0 F10500 X126.798 Y39.371
G1 F1980 X97.560 Y68.609 E2057.47796
G0 F10500 X94.025 Y65.073
G1 F1980 X123.243 Y35.855 E2058.70862
G0 F10500 X119.687 Y32.340
G1 F1980 X90.347 Y61.680 E2059.94442
G0 F10500 X86.812 Y58.144
G1 F1980 X116.133 Y28.823 E2061.17942
G0 F10500 X112.577 Y25.308
G1 F1980 X83.276 Y54.609 E2062.41358
G0 F10500 X79.796 Y51.018
G1 F1980 X109.023 Y21.791 E2063.64463
G0 F10500 X105.467 Y18.275
G1 F1980 X76.241 Y47.502 E2064.87565
G0 F10500 X72.687 Y43.985
G1 F1980 X101.912 Y14.760 E2066.10661
G0 F10500 X89.431 Y15.185
G1 F1980 X142.931 Y68.684 E2068.36001
G0 F10500 X139.376 Y72.201
G1 F1980 X85.876 Y18.701 E2070.61343
G0 F10500 X82.321 Y22.217
G1 F1980 X135.821 Y75.716 E2072.86684
G0 F10500 X132.265 Y79.232
G1 F1980 X78.766 Y25.733 E2075.12022
G0 F10500 X75.211 Y29.249
G1 F1980 X128.711 Y82.749 E2077.37364
G0 F10500 X125.155 Y86.264
G1 F1980 X71.656 Y32.765 E2079.62702
G0 F10500 X68.101 Y36.281
G1 F1980 X121.601 Y89.781 E2081.88044
G0 F10500 X87.719 Y122.069
G0 X72.571 Y107.740
G1 F1980 X33.166 Y147.146 E2083.54021
G0 F10500 X30.003 Y146.675
G1 F1980 X10.588 Y127.261 E2084.35795
G0 F10500 X10.598 Y127.287
G1 F1980 X51.057 Y86.828 E2086.06208
G0 F10500 X54.643 Y90.313
G1 F1980 X12.324 Y132.632 E2087.84456
G0 F10500 X15.057 Y136.970
G1 F1980 X58.228 Y93.799 E2089.66293
G0 F10500 X47.471 Y83.343
G1 F1980 X10.074 Y120.739 E2091.23807
G0 F10500 X18.476 Y140.622
G1 F1980 X61.814 Y97.284 E2093.06347
G0 F10500 X65.400 Y100.769
G1 F1980 X22.353 Y143.816 E2094.87661
G0 F10500 X27.369 Y145.871
G1 F1980 X68.986 Y104.255 E2096.62950
;LAYER:4
G0 F10500 X87.720 Y122.220 Z1.945
;TYPE:WALL-INNER
G1 F2100 X114.299 Y95.642 E2097.74899
G1 X113.535 Y94.886 E2097.78100
G1 X119.063 Y89.360 E2098.01380
G1 X103.860 Y74.156 E2098.65417
G1 X103.358 Y74.656 E2098.67527
G1 X92.861 Y64.157 E2099.11745
G1 X92.719 Y64.299 E2099.12343
G1 X82.988 Y54.568 E2099.53330
G1 X83.061 Y54.493 E2099.53642
G1 X68.859 Y40.444 E2100.13139
G1 X63.673 Y45.572 E2100.34861
G1 X62.574 Y44.484 E2100.39467
G1 X35.548 Y71.511 E2101.53303
G1 X87.720 Y122.220 E2103.69992
G0 F10500 X88.346 Y122.830
G1 F2100 X88.905 Y123.373 E2103.72313
G1 X80.556 Y130.988 E2104.05969
G1 X70.275 Y137.775 E2104.42660
G1 X60.081 Y142.875 E2104.76609
G1 X49.710 Y146.020 E2105.08886
G1 X39.729 Y147.746 E2105.39054
G1 X31.070 Y147.186 E2105.64897
G1 X23.281 Y144.806 E2105.89154
G1 X17.441 Y139.997 E2106.11686
G1 X12.775 Y134.597 E2106.32941
G1 X10.331 Y127.035 E2106.56611
G1 X9.755 Y118.635 E2106.81687
G1 X11.529 Y108.940 E2107.11042
G1 X14.761 Y98.869 E2107.42543
G1 X20.003 Y88.974 E2107.75894
G1 X26.992 Y78.970 E2108.12240
G1 X34.591 Y70.580 E2108.45954
G1 X34.921 Y70.902 E2108.47328
G1 X61.093 Y44.731 E2109.57562
G1 X61.952 Y43.869 E2109.61186
G1 X61.066 Y42.994 E2109.64895
G1 X95.887 Y8.554 E2111.10761
G1 X149.934 Y62.007 E2113.37160
G1 X115.114 Y96.444 E2114.83018
G1 X114.923 Y96.254 E2114.83820
G1 X88.346 Y122.830 E2115.95761
G0 F10500 X89.059 Y122.825
;TYPE:WALL-OUTER
G1 F1800 X89.635 Y123.384 E2115.98151
G1 X80.865 Y131.383 E2116.33504
G1 X70.521 Y138.211 E2116.70419
G1 X60.265 Y143.343 E2117.04575
G1 X49.827 Y146.508 E2117.37061
G1 X39.756 Y148.249 E2117.67501
G1 X30.981 Y147.681 E2117.93690
G1 X23.039 Y145.255 E2118.18423
G1 X17.092 Y140.357 E2118.41369
G1 X12.330 Y134.847 E2118.63059
G1 X9.836 Y127.130 E2118.87214
G1 X9.251 Y118.606 E2119.12661
G1 X11.042 Y108.819 E2119.42294
G1 X14.299 Y98.674 E2119.74028
G1 X19.577 Y88.710 E2120.07611
G1 X26.600 Y78.657 E2120.44134
G1 X34.568 Y69.860 E2120.79485
G1 X34.916 Y70.199 E2120.80932
G1 X61.244 Y43.872 E2121.91823
G1 X60.356 Y42.994 E2121.95542
G1 X95.887 Y7.852 E2123.44382
G1 X150.644 Y62.007 E2125.73755
G1 X115.112 Y97.148 E2127.22595
G1 X114.924 Y96.960 E2127.23386
G1 X89.059 Y122.825 E2128.32330
G0 F10500 X88.813 Y122.577
G0 X87.473 Y121.769
G0 X87.715 Y121.518
G1 F1800 X113.590 Y95.644 E2129.41314
G1 X112.827 Y94.888 E2129.44513
G1 X118.356 Y89.360 E2129.67799
G1 X103.859 Y74.863 E2130.28860
G1 X103.358 Y75.362 E2130.30966
G1 X92.860 Y64.863 E2130.75186
G1 X92.718 Y65.004 E2130.75782
G1 X82.284 Y54.570 E2131.19730
G1 X82.354 Y54.498 E2131.20029
G1 X68.859 Y41.147 E2131.76568
G1 X63.674 Y46.275 E2131.98287
G1 X62.576 Y45.189 E2132.02887
G1 X36.260 Y71.506 E2133.13732
G1 X87.715 Y121.518 E2135.27443
G0 F10500 X86.915 Y121.681
;TYPE:FILL
G1 F2400 X72.503 Y136.092 E2135.88145
G0 F10500 X74.602 Y134.706
G1 F2400 X23.775 Y83.879 E2138.02228
G0 F10500 X20.866 Y88.041
G1 F2400 X70.342 Y137.518 E2140.10624
G0 F10500 X65.646 Y139.892
G1 F2400 X18.304 Y92.551 E2142.10026
G0 F10500 X19.719 Y89.881
G1 F2400 X36.714 Y72.887 E2142.81607
G0 F10500 X33.335 Y72.226
G1 F2400 X86.467 Y125.358 E2145.05400
G0 F10500 X82.769 Y128.731
G1 F2400 X29.974 Y75.936 E2147.27773
G0 F10500 X26.682 Y79.715
G1 F2400 X78.862 Y131.895 E2149.47555
G0 F10500 X83.328 Y118.196
G1 F2400 X58.291 Y143.234 E2150.53013
G0 F10500 X55.647 Y144.035
G1 F2400 X13.860 Y102.248 E2152.29020
G0 F10500 X13.594 Y103.078
G1 F2400 X40.300 Y76.372 E2153.41506
G0 F10500 X43.885 Y79.857
G1 F2400 X11.013 Y112.730 E2154.79965
G0 F10500 X10.887 Y113.417
G1 F2400 X44.254 Y146.784 E2156.20507
G0 F10500 X48.382 Y146.071
G1 F2400 X79.743 Y114.711 E2157.52598
G0 F10500 X76.157 Y111.225
G1 F2400 X39.833 Y147.549 E2159.05595
G0 F10500 X37.846 Y147.448
G1 F2400 X9.996 Y119.597 E2160.22901
G0 F10500 X12.141 Y107.601
G1 F2400 X50.221 Y145.680 E2161.83292
G0 F10500 X60.933 Y142.250
G1 F2400 X15.856 Y97.174 E2163.73155
G0 F10500 X10.075 Y120.739
G1 F2400 X47.471 Y83.343 E2165.30667
G0 F10500 X51.057 Y86.828
G1 F2400 X10.598 Y127.287 E2167.01081
G0 F10500 X10.588 Y127.261
G1 F2400 X30.003 Y146.675 E2167.82855
G0 F10500 X27.369 Y145.871
G1 F2400 X68.986 Y104.255 E2169.58144
G0 F10500 X72.571 Y107.740
G1 F2400 X33.166 Y147.146 E2171.24120
G0 F10500 X22.353 Y143.816
G1 F2400 X65.400 Y100.769 E2173.05434
G0 F10500 X61.814 Y97.284
G1 F2400 X18.475 Y140.623 E2174.87978
G0 F10500 X15.057 Y136.970
G1 F2400 X58.228 Y93.799 E2176.69815
G0 F10500 X54.643 Y90.313
G1 F2400 X12.324 Y132.632 E2178.48063
G0 F10500 X35.704 Y71.509
G0 X37.495 Y69.315
G1 F2400 X37.124 Y68.944 E2178.49625
G0 F10500 X40.660 Y65.408
G1 F2400 X41.031 Y65.780 E2178.51190
G0 F10500 X44.566 Y62.244
G1 F2400 X44.195 Y61.873 E2178.52753
G0 F10500 X47.731 Y58.337
G1 F2400 X48.102 Y58.708 E2178.54315
G0 F10500 X51.637 Y55.173
G1 F2400 X51.266 Y54.802 E2178.55878
G0 F10500 X54.802 Y51.266
G1 F2400 X55.173 Y51.637 E2178.57441
G0 F10500 X58.708 Y48.102
G1 F2400 X58.337 Y47.731 E2178.59003
G0 F10500 X61.873 Y44.195
G1 F2400 X62.244 Y44.566 E2178.60566
G0 F10500 X66.890 Y42.142
G1 F2400 X64.546 Y39.798 E2178.70439
G0 F10500 X68.101 Y36.281
G1 F2400 X121.601 Y89.781 E2180.95781
G0 F10500 X125.155 Y86.264
G1 F2400 X71.656 Y32.765 E2183.21119
G0 F10500 X75.211 Y29.249
G1 F2400 X128.711 Y82.749 E2185.46462
G0 F10500 X132.265 Y79.232
G1 F2400 X78.766 Y25.733 E2187.71800
G0 F10500 X82.321 Y22.217
G1 F2400 X135.821 Y75.716 E2189.97140
G0 F10500 X139.376 Y72.201
G1 F2400 X85.876 Y18.701 E2192.22482
G0 F10500 X89.431 Y15.185
G1 F2400 X142.931 Y68.684 E2194.47822
G0 F10500 X146.486 Y65.169
G1 F2400 X92.986 Y11.669 E2196.73165
G0 F10500 X98.357 Y11.243
G1 F2400 X69.133 Y40.468 E2197.96259
G0 F10500 X72.687 Y43.985
G1 F2400 X101.912 Y14.760 E2199.19354
G0 F10500 X105.467 Y18.275
G1 F2400 X76.241 Y47.502 E2200.42457
G0 F10500 X79.796 Y51.018
G1 F2400 X109.023 Y21.791 E2201.65561
G0 F10500 X112.577 Y25.308
G1 F2400 X83.276 Y54.609 E2202.88977
G0 F10500 X86.812 Y58.144
G1 F2400 X116.133 Y28.823 E2204.12477
G0 F10500 X119.687 Y32.340
G1 F2400 X90.347 Y61.680 E2205.36057
G0 F10500 X94.025 Y65.073
G1 F2400 X123.243 Y35.855 E2206.59124
G0 F10500 X126.798 Y39.371
G1 F2400 X97.560 Y68.609 E2207.82274
G0 F10500 X101.095 Y72.145
G1 F2400 X130.353 Y42.888 E2209.05507
G0 F10500 X133.908 Y46.403
G1 F2400 X105.131 Y75.181 E2210.26718
G0 F10500 X108.666 Y78.716
G1 F2400 X137.463 Y49.919 E2211.48011
G0 F10500 X141.018 Y53.436
G1 F2400 X112.202 Y82.252 E2212.69385
G0 F10500 X115.737 Y85.787
G1 F2400 X144.573 Y56.951 E2213.90842
G0 F10500 X148.128 Y60.468
G1 F2400 X119.273 Y89.323 E2215.12379
G0 F10500 X116.709 Y91.960
G1 F2400 X118.045 Y93.297 E2215.18009
G0 F10500 X114.303 Y96.625
G1 F2400 X113.932 Y96.254 E2215.19571
G0 F10500 X110.397 Y99.790
G1 F2400 X110.767 Y100.160 E2215.21130
G0 F10500 X107.232 Y103.696
G1 F2400 X106.861 Y103.325 E2215.22692
G0 F10500 X103.325 Y106.861
G1 F2400 X103.696 Y107.232 E2215.24255
G0 F10500 X100.160 Y110.767
G1 F2400 X99.790 Y110.397 E2215.25814
G0 F10500 X96.254 Y113.932
G1 F2400 X96.625 Y114.303 E2215.27376
G0 F10500 X93.089 Y117.838
G1 F2400 X92.719 Y117.468 E2215.28935
G0 F10500 X89.183 Y121.003
G1 F2400 X89.554 Y121.374 E2215.30497
G0 F10500 X87.719 Y122.069
G0 X35.704 Y71.509
G0 X36.611 Y70.199
;TYPE:SKIN
G1 F3000 X36.063 Y70.004 E2215.32056
G1 X36.081 Y70.729 E2215.33616
G1 X35.356 Y70.711 E2215.35175
G1 X35.551 Y71.260 E2215.36911
;LAYER:5
G0 F10500 X35.548 Y71.511 Z2.325
;TYPE:WALL-INNER
G1 F2100 X87.720 Y122.220 E2217.53600
G1 X114.300 Y95.642 E2218.65551
G1 X113.535 Y94.886 E2218.68754
G1 X119.063 Y89.360 E2218.92034
G1 X103.860 Y74.156 E2219.56071
G1 X103.358 Y74.656 E2219.58182
G1 X92.861 Y64.157 E2220.02399
G1 X92.719 Y64.299 E2220.02997
G1 X82.988 Y54.568 E2220.43984
G1 X83.061 Y54.493 E2220.44296
G1 X68.859 Y40.444 E2221.03794
G1 X63.674 Y45.573 E2221.25515
G1 X62.574 Y44.484 E2221.30125
G1 X35.548 Y71.511 E2222.43961
G0 F10500 X34.921 Y70.902
G1 F2100 X61.093 Y44.731 E2223.54196
G1 X61.952 Y43.869 E2223.57820
G1 X61.066 Y42.994 E2223.61529
G1 X95.887 Y8.554 E2225.07395
G1 X149.934 Y62.007 E2227.33794
G1 X115.114 Y96.444 E2228.79652
G1 X114.923 Y96.254 E2228.80454
G1 X88.346 Y122.830 E2229.92394
G1 X88.905 Y123.373 E2229.94715
G1 X80.556 Y130.988 E2230.28371
G1 X70.275 Y137.775 E2230.65062
G1 X60.083 Y142.875 E2230.99005
G1 X49.707 Y146.021 E2231.31298
G1 X39.729 Y147.746 E2231.61456
G1 X31.070 Y147.186 E2231.87300
G1 X23.281 Y144.806 E2232.11557
G1 X17.441 Y139.997 E2232.34089
G1 X12.775 Y134.597 E2232.55344
G1 X10.331 Y127.035 E2232.79013
G1 X9.755 Y118.635 E2233.04090
G1 X11.529 Y108.940 E2233.33444
G1 X14.761 Y98.869 E2233.64946
G1 X20.003 Y88.974 E2233.98297
G1 X26.992 Y78.970 E2234.34643
G1 X34.591 Y70.580 E2234.68357
G1 X34.921 Y70.902 E2234.69730
G0 F10500 X34.916 Y70.199
;TYPE:WALL-OUTER
G1 F1800 X61.244 Y43.872 E2235.80622
G1 X60.356 Y42.994 E2235.84341
G1 X95.887 Y7.852 E2237.33181
G1 X150.644 Y62.007 E2239.62553
G1 X115.112 Y97.148 E2241.11393
G1 X114.924 Y96.960 E2241.12185
G1 X89.059 Y122.825 E2242.21129
G1 X89.635 Y123.384 E2242.23519
G1 X80.865 Y131.383 E2242.58872
G1 X70.521 Y138.211 E2242.95787
G1 X60.266 Y143.342 E2243.29939
G1 X49.825 Y146.508 E2243.62434
G1 X39.756 Y148.249 E2243.92868
G1 X30.981 Y147.681 E2244.19058
G1 X23.039 Y145.255 E2244.43791
G1 X17.092 Y140.357 E2244.66737
G1 X12.330 Y134.847 E2244.88427
G1 X9.836 Y127.130 E2245.12581
G1 X9.251 Y118.606 E2245.38028
G1 X11.042 Y108.819 E2245.67661
G1 X14.299 Y98.674 E2245.99396
G1 X19.577 Y88.710 E2246.32978
G1 X26.600 Y78.657 E2246.69502
G1 X34.568 Y69.860 E2247.04852
G1 X34.916 Y70.199 E2247.06299
G0 F10500 X35.162 Y70.447
G0 X36.016 Y71.755
G0 X36.260 Y71.506
G1 F1800 X87.715 Y121.518 E2249.20011
G1 X113.591 Y95.644 E2250.28996
G1 X112.827 Y94.888 E2250.32197
G1 X118.356 Y89.360 E2250.55483
G1 X103.859 Y74.863 E2251.16545
G1 X103.358 Y75.362 E2251.18651
G1 X92.860 Y64.863 E2251.62871
G1 X92.718 Y65.004 E2251.63467
G1 X82.284 Y54.570 E2252.07415
G1 X82.354 Y54.498 E2252.07714
G1 X68.859 Y41.147 E2252.64252
G1 X63.674 Y46.275 E2252.85972
G1 X62.576 Y45.189 E2252.90572
G1 X36.260 Y71.506 E2254.01417
G0 F10500 X36.714 Y72.887
;TYPE:FILL
G1 F2400 X19.719 Y89.881 E2254.72998
G0 F10500 X18.304 Y92.551
G1 F2400 X65.647 Y139.893 E2256.72405
G0 F10500 X70.342 Y137.518
G1 F2400 X20.866 Y88.041 E2258.80800
G0 F10500 X23.775 Y83.879
G1 F2400 X74.602 Y134.706 E2260.94884
G0 F10500 X72.503 Y136.092
G1 F2400 X86.915 Y121.681 E2261.55585
G0 F10500 X87.719 Y122.069
G0 X89.183 Y121.003
G1 F2400 X89.554 Y121.374 E2261.57148
G0 F10500 X86.467 Y125.358
G1 F2400 X33.335 Y72.226 E2263.80940
G0 F10500 X29.974 Y75.936
G1 F2400 X82.769 Y128.731 E2266.03313
G0 F10500 X78.862 Y131.895
G1 F2400 X26.682 Y79.715 E2268.23095
G0 F10500 X37.124 Y68.944
G1 F2400 X37.495 Y69.315 E2268.24658
G0 F10500 X41.031 Y65.780
G1 F2400 X40.660 Y65.408 E2268.26223
G0 F10500 X44.195 Y61.873
G1 F2400 X44.566 Y62.244 E2268.27785
G0 F10500 X35.704 Y71.509
G0 X40.300 Y76.372
G1 F2400 X13.594 Y103.078 E2269.40271
G0 F10500 X13.860 Y102.248
G1 F2400 X55.647 Y144.036 E2271.16280
G0 F10500 X58.289 Y143.235
G1 F2400 X83.328 Y118.196 E2272.21745
G0 F10500 X87.719 Y122.069
G0 X92.719 Y117.468
G1 F2400 X93.089 Y117.838 E2272.23303
G0 F10500 X96.625 Y114.303
G1 F2400 X96.254 Y113.932 E2272.24866
G0 F10500 X99.790 Y110.397
G1 F2400 X100.160 Y110.767 E2272.26424
G0 F10500 X103.696 Y107.232
G1 F2400 X103.326 Y106.862 E2272.27983
G0 F10500 X106.862 Y103.326
G1 F2400 X107.232 Y103.696 E2272.29541
G0 F10500 X110.767 Y100.160
G1 F2400 X110.397 Y99.791 E2272.31097
G0 F10500 X113.933 Y96.255
G1 F2400 X114.303 Y96.625 E2272.32656
G0 F10500 X118.045 Y93.297
G1 F2400 X116.709 Y91.960 E2272.38285
G0 F10500 X119.273 Y89.323
G1 F2400 X148.128 Y60.468 E2273.59823
G0 F10500 X146.486 Y65.169
G1 F2400 X92.986 Y11.669 E2275.85165
G0 F10500 X89.431 Y15.185
G1 F2400 X142.931 Y68.684 E2278.10505
G0 F10500 X139.376 Y72.201
G1 F2400 X85.876 Y18.701 E2280.35848
G0 F10500 X98.357 Y11.243
G1 F2400 X69.133 Y40.468 E2281.58941
G0 F10500 X66.891 Y42.142
G1 F2400 X64.546 Y39.798 E2281.68816
G0 F10500 X68.101 Y36.281
G1 F2400 X121.601 Y89.781 E2283.94159
G0 F10500 X125.155 Y86.264
G1 F2400 X71.656 Y32.765 E2286.19497
G0 F10500 X75.211 Y29.249
G1 F2400 X128.711 Y82.749 E2288.44839
G0 F10500 X132.265 Y79.232
G1 F2400 X78.766 Y25.733 E2290.70177
G0 F10500 X82.321 Y22.217
G1 F2400 X135.821 Y75.716 E2292.95518
G0 F10500 X144.573 Y56.951
G1 F2400 X115.737 Y85.787 E2294.16975
G0 F10500 X112.202 Y82.252
G1 F2400 X141.018 Y53.436 E2295.38348
G0 F10500 X137.463 Y49.919
G1 F2400 X108.666 Y78.716 E2296.59641
G0 F10500 X105.131 Y75.181
G1 F2400 X133.908 Y46.403 E2297.80852
G0 F10500 X130.353 Y42.888
G1 F2400 X101.095 Y72.145 E2299.04085
G0 F10500 X97.560 Y68.609
G1 F2400 X126.798 Y39.371 E2300.27236
G0 F10500 X123.243 Y35.855
G1 F2400 X94.025 Y65.073 E2301.50302
G0 F10500 X90.347 Y61.680
G1 F2400 X119.687 Y32.340 E2302.73882
G0 F10500 X116.133 Y28.823
G1 F2400 X86.812 Y58.144 E2303.97383
G0 F10500 X83.276 Y54.609
G1 F2400 X112.577 Y25.308 E2305.20799
G0 F10500 X109.023 Y21.791
G1 F2400 X79.796 Y51.018 E2306.43903
G0 F10500 X76.241 Y47.502
G1 F2400 X105.467 Y18.275 E2307.67005
G0 F10500 X101.912 Y14.760
G1 F2400 X72.687 Y43.985 E2308.90101
G0 F10500 X68.859 Y40.596
G0 X62.244 Y44.566
G1 F2400 X61.873 Y44.195 E2308.91664
G0 F10500 X58.337 Y47.731
G1 F2400 X58.708 Y48.102 E2308.93226
G0 F10500 X55.173 Y51.637
G1 F2400 X54.802 Y51.266 E2308.94789
G0 F10500 X51.266 Y54.802
G1 F2400 X51.637 Y55.173 E2308.96352
G0 F10500 X48.102 Y58.708
G1 F2400 X47.731 Y58.337 E2308.97914
G0 F10500 X35.704 Y71.509
G0 X43.885 Y79.857
G1 F2400 X11.013 Y112.730 E2310.36373
G0 F10500 X10.887 Y113.417
G1 F2400 X44.254 Y146.784 E2311.76915
G0 F10500 X48.382 Y146.071
G1 F2400 X79.743 Y114.711 E2313.09006
G0 F10500 X76.157 Y111.225
G1 F2400 X39.833 Y147.549 E2314.62003
G0 F10500 X37.846 Y147.448
G1 F2400 X9.996 Y119.597 E2315.79309
G0 F10500 X12.141 Y107.601
G1 F2400 X50.221 Y145.680 E2317.39700
G0 F10500 X60.934 Y142.251
G1 F2400 X15.856 Y97.174 E2319.29567
G0 F10500 X10.075 Y120.739
G1 F2400 X47.471 Y83.343 E2320.87079
G0 F10500 X51.057 Y86.828
G1 F2400 X10.598 Y127.287 E2322.57493
G0 F10500 X10.588 Y127.261
G1 F2400 X30.003 Y146.675 E2323.39267
G0 F10500 X27.369 Y145.871
G1 F2400 X68.986 Y104.255 E2325.14556
G0 F10500 X72.571 Y107.740
G1 F2400 X33.166 Y147.146 E2326.80532
G0 F10500 X22.353 Y143.816
G1 F2400 X65.400 Y100.769 E2328.61846
G0 F10500 X61.814 Y97.284
G1 F2400 X18.475 Y140.623 E2330.44390
G0 F10500 X15.057 Y136.970
G1 F2400 X58.228 Y93.799 E2332.26227
G0 F10500 X54.643 Y90.313
G1 F2400 X12.324 Y132.632 E2334.04475
G0 F10500 X35.172 Y71.247
;TYPE:SKIN
G1 F3000 X38.060 Y68.358 E2334.16641
G0 F10500 X35.704 Y71.509
G0 X87.719 Y122.069
G0 X90.033 Y120.331
G1 F3000 X87.882 Y122.482 E2334.25701
;LAYER:6
G0 F10500 X87.720 Y122.220 Z2.705
;TYPE:WALL-INNER
G1 F2100 X114.300 Y95.642 E2335.37652
G1 X113.535 Y94.886 E2335.40855
G1 X119.063 Y89.360 E2335.64135
G1 X103.860 Y74.156 E2336.28172
G1 X103.358 Y74.656 E2336.30283
G1 X92.861 Y64.157 E2336.74500
G1 X92.719 Y64.299 E2336.75098
G1 X82.988 Y54.568 E2337.16085
G1 X83.061 Y54.493 E2337.16397
G1 X68.859 Y40.444 E2337.75895
G1 X63.674 Y45.573 E2337.97616
G1 X62.574 Y44.484 E2338.02226
G1 X35.548 Y71.511 E2339.16062
G1 X87.720 Y122.220 E2341.32752
G0 F10500 X88.346 Y122.830
G1 F2100 X88.905 Y123.373 E2341.35073
G1 X80.556 Y130.988 E2341.68729
G1 X70.275 Y137.775 E2342.05419
G1 X60.081 Y142.875 E2342.39368
G1 X49.711 Y146.020 E2342.71643
G1 X39.728 Y147.746 E2343.01817
G1 X31.070 Y147.186 E2343.27657
G1 X23.281 Y144.806 E2343.51914
G1 X17.441 Y139.997 E2343.74446
G1 X12.776 Y134.597 E2343.95699
G1 X10.330 Y127.034 E2344.19373
G1 X9.755 Y118.635 E2344.44447
G1 X11.529 Y108.940 E2344.73801
G1 X14.761 Y98.869 E2345.05303
G1 X20.003 Y88.974 E2345.38653
G1 X26.992 Y78.970 E2345.75000
G1 X34.591 Y70.580 E2346.08714
G1 X34.921 Y70.902 E2346.10087
G1 X61.093 Y44.731 E2347.20321
G1 X61.952 Y43.869 E2347.23946
G1 X61.066 Y42.994 E2347.27654
G1 X95.887 Y8.554 E2348.73521
G1 X149.934 Y62.007 E2350.99919
G1 X115.114 Y96.444 E2352.45777
G1 X114.923 Y96.254 E2352.46579
G1 X88.346 Y122.830 E2353.58520
G0 F10500 X89.059 Y122.825
;TYPE:WALL-OUTER
G1 F1800 X89.635 Y123.384 E2353.60910
G1 X80.865 Y131.383 E2353.96263
G1 X70.521 Y138.211 E2354.33178
G1 X60.265 Y143.343 E2354.67334
G1 X49.828 Y146.507 E2354.99816
G1 X39.756 Y148.249 E2355.30260
G1 X30.981 Y147.681 E2355.56449
G1 X23.039 Y145.255 E2355.81182
G1 X17.092 Y140.357 E2356.04128
G1 X12.330 Y134.847 E2356.25818
G1 X9.836 Y127.130 E2356.49973
G1 X9.251 Y118.606 E2356.75420
G1 X11.042 Y108.819 E2357.05053
G1 X14.299 Y98.674 E2357.36787
G1 X19.577 Y88.710 E2357.70370
G1 X26.600 Y78.657 E2358.06893
G1 X34.568 Y69.860 E2358.42244
G1 X34.916 Y70.199 E2358.43691
G1 X61.244 Y43.872 E2359.54582
G1 X60.356 Y42.994 E2359.58301
G1 X95.887 Y7.852 E2361.07141
G1 X150.644 Y62.007 E2363.36514
G1 X115.112 Y97.148 E2364.85354
G1 X114.924 Y96.960 E2364.86145
G1 X89.059 Y122.825 E2365.95089
G0 F10500 X88.813 Y122.577
G0 X87.473 Y121.769
G0 X87.715 Y121.518
G1 F1800 X113.591 Y95.644 E2367.04075
G1 X112.827 Y94.888 E2367.07276
G1 X118.356 Y89.360 E2367.30562
G1 X103.859 Y74.863 E2367.91623
G1 X103.358 Y75.362 E2367.93729
G1 X92.860 Y64.863 E2368.37949
G1 X92.718 Y65.004 E2368.38545
G1 X82.284 Y54.570 E2368.82493
G1 X82.354 Y54.498 E2368.82792
G1 X68.859 Y41.147 E2369.39331
G1 X63.674 Y46.275 E2369.61050
G1 X62.576 Y45.189 E2369.65650
G1 X36.260 Y71.506 E2370.76495
G1 X87.715 Y121.518 E2372.90207
G0 F10500 X86.915 Y121.681
;TYPE:FILL
G1 F2400 X72.503 Y136.092 E2373.50908
G0 F10500 X74.602 Y134.706
G1 F2400 X23.775 Y83.879 E2375.64992
G0 F10500 X20.866 Y88.041
G1 F2400 X70.342 Y137.518 E2377.73387
G0 F10500 X65.646 Y139.892
G1 F2400 X18.304 Y92.551 E2379.72790
G0 F10500 X19.719 Y89.881
G1 F2400 X36.714 Y72.887 E2380.44371
G0 F10500 X33.335 Y72.226
G1 F2400 X86.467 Y125.358 E2382.68163
G0 F10500 X82.769 Y128.731
G1 F2400 X29.974 Y75.936 E2384.90536
G0 F10500 X26.682 Y79.715
G1 F2400 X78.862 Y131.895 E2387.10318
G0 F10500 X83.328 Y118.196
G1 F2400 X58.291 Y143.234 E2388.15776
G0 F10500 X55.647 Y144.035
G1 F2400 X13.860 Y102.248 E2389.91783
G0 F10500 X13.594 Y103.078
G1 F2400 X40.300 Y76.372 E2391.04269
G0 F10500 X43.885 Y79.857
G1 F2400 X11.013 Y112.730 E2392.42728
G0 F10500 X10.887 Y113.417
G1 F2400 X44.254 Y146.784 E2393.83270
G0 F10500 X48.382 Y146.071
G1 F2400 X79.743 Y114.711 E2395.15361
G0 F10500 X76.157 Y111.225
G1 F2400 X39.834 Y147.549 E2396.68356
G0 F10500 X37.846 Y147.448
G1 F2400 X9.996 Y119.597 E2397.85662
G0 F10500 X12.141 Y107.601
G1 F2400 X50.221 Y145.680 E2399.46053
G0 F10500 X60.933 Y142.250
G1 F2400 X15.856 Y97.174 E2401.35916
G0 F10500 X10.074 Y120.739
G1 F2400 X47.471 Y83.343 E2402.93430
G0 F10500 X51.057 Y86.828
G1 F2400 X10.597 Y127.288 E2404.63848
G0 F10500 X10.587 Y127.260
G1 F2400 X30.003 Y146.675 E2405.45626
G0 F10500 X27.369 Y145.871
G1 F2400 X68.986 Y104.255 E2407.20915
G0 F10500 X72.571 Y107.740
G1 F2400 X33.166 Y147.146 E2408.86891
G0 F10500 X22.353 Y143.816
G1 F2400 X65.400 Y100.769 E2410.68206
G0 F10500 X61.814 Y97.284
G1 F2400 X18.475 Y140.623 E2412.50750
G0 F10500 X15.057 Y136.970
G1 F2400 X58.228 Y93.799 E2414.32586
G0 F10500 X54.643 Y90.313
G1 F2400 X12.324 Y132.632 E2416.10834
G0 F10500 X35.704 Y71.509
G0 X37.495 Y69.315
G1 F2400 X37.124 Y68.944 E2416.12397
G0 F10500 X40.660 Y65.408
G1 F2400 X41.031 Y65.780 E2416.13962
G0 F10500 X44.566 Y62.244
G1 F2400 X44.195 Y61.873 E2416.15524
G0 F10500 X47.731 Y58.337
G1 F2400 X48.102 Y58.708 E2416.17087
G0 F10500 X51.637 Y55.173
G1 F2400 X51.266 Y54.802 E2416.18650
G0 F10500 X54.802 Y51.266
G1 F2400 X55.173 Y51.637 E2416.20212
G0 F10500 X58.708 Y48.102
G1 F2400 X58.337 Y47.731 E2416.21775
G0 F10500 X61.873 Y44.195
G1 F2400 X62.244 Y44.566 E2416.23337
G0 F10500 X66.891 Y42.142
G1 F2400 X64.546 Y39.798 E2416.33213
G0 F10500 X68.101 Y36.281
G1 F2400 X121.601 Y89.781 E2418.58555
G0 F10500 X125.155 Y86.264
G1 F2400 X71.656 Y32.765 E2420.83893
G0 F10500 X75.211 Y29.249
G1 F2400 X128.711 Y82.749 E2423.09235
G0 F10500 X132.265 Y79.232
G1 F2400 X78.766 Y25.733 E2425.34573
G0 F10500 X82.321 Y22.217
G1 F2400 X135.821 Y75.716 E2427.59914
G0 F10500 X139.376 Y72.201
G1 F2400 X85.876 Y18.701 E2429.85256
G0 F10500 X89.431 Y15.185
G1 F2400 X142.931 Y68.684 E2432.10596
G0 F10500 X146.486 Y65.169
G1 F2400 X92.986 Y11.669 E2434.35939
G0 F10500 X98.357 Y11.243
G1 F2400 X69.133 Y40.468 E2435.59032
G0 F10500 X72.687 Y43.985
G1 F2400 X101.912 Y14.760 E2436.82128
G0 F10500 X105.467 Y18.275
G1 F2400 X76.241 Y47.502 E2438.05230
G0 F10500 X79.796 Y51.018
G1 F2400 X109.023 Y21.791 E2439.28335
G0 F10500 X112.577 Y25.308
G1 F2400 X83.276 Y54.609 E2440.51751
G0 F10500 X86.812 Y58.144
G1 F2400 X116.133 Y28.823 E2441.75251
G0 F10500 X119.687 Y32.340
G1 F2400 X90.347 Y61.680 E2442.98831
G0 F10500 X94.025 Y65.073
G1 F2400 X123.243 Y35.855 E2444.21898
G0 F10500 X126.798 Y39.371
G1 F2400 X97.560 Y68.609 E2445.45048
G0 F10500 X101.095 Y72.145
G1 F2400 X130.353 Y42.888 E2446.68281
G0 F10500 X133.908 Y46.403
G1 F2400 X105.131 Y75.181 E2447.89492
G0 F10500 X108.666 Y78.716
G1 F2400 X137.463 Y49.919 E2449.10785
G0 F10500 X141.018 Y53.436
G1 F2400 X112.202 Y82.252 E2450.32158
G0 F10500 X115.737 Y85.787
G1 F2400 X144.573 Y56.951 E2451.53616
G0 F10500 X148.128 Y60.468
G1 F2400 X119.273 Y89.323 E2452.75153
G0 F10500 X116.709 Y91.960
G1 F2400 X118.045 Y93.297 E2452.80782
G0 F10500 X114.303 Y96.625
G1 F2400 X113.933 Y96.255 E2452.82341
G0 F10500 X110.397 Y99.791
G1 F2400 X110.767 Y100.160 E2452.83897
G0 F10500 X107.232 Y103.696
G1 F2400 X106.862 Y103.326 E2452.85456
G0 F10500 X103.326 Y106.862
G1 F2400 X103.696 Y107.232 E2452.87014
G0 F10500 X100.160 Y110.767
G1 F2400 X99.790 Y110.397 E2452.88573
G0 F10500 X96.254 Y113.932
G1 F2400 X96.625 Y114.303 E2452.90135
G0 F10500 X93.089 Y117.838
G1 F2400 X92.719 Y117.468 E2452.91694
G0 F10500 X89.183 Y121.003
G1 F2400 X89.465 Y121.462 E2452.93253
G1 X89.182 Y121.002 E2452.94814
G1 X89.907 Y121.020 E2452.96377
G1 X89.890 Y120.295 E2452.97937
G1 X90.614 Y120.313 E2452.99494
G1 X90.597 Y119.588 E2453.01054
G1 X91.321 Y119.606 E2453.02615
G1 X91.127 Y119.058 E2453.04347
G0 F10500 X88.652 Y121.533
;TYPE:SKIN
G1 F3000 X88.847 Y122.081 E2453.05909
G1 X88.122 Y122.063 E2453.07473
G1 X88.316 Y122.611 E2453.09204
G0 F10500 X35.704 Y71.509
G0 X36.258 Y70.552
G1 F3000 X36.063 Y70.004 E2453.10764
G1 X36.788 Y70.022 E2453.12323
G1 X36.770 Y69.297 E2453.13883
G1 X37.495 Y69.315 E2453.15442
G1 X37.477 Y68.590 E2453.17002
G1 X38.202 Y68.608 E2453.18565
G1 X38.184 Y67.883 E2453.20125
G1 X38.909 Y67.901 E2453.21689
G1 X38.892 Y67.176 E2453.23248
G1 X39.440 Y67.371 E2453.24980
G0 F10500 X35.904 Y70.906
G1 F3000 X35.356 Y70.711 E2453.26540
G1 X35.551 Y71.260 E2453.28275
;LAYER:7
G0 F10500 X34.591 Y70.580 Z3.085
;TYPE:WALL-INNER
G1 F2100 X87.720 Y122.220 E2455.48941
G1 X114.299 Y95.642 E2456.60890
G1 X113.535 Y94.886 E2456.64091
G1 X119.062 Y89.360 E2456.87369
G1 X103.860 Y74.156 E2457.51404
G1 X103.358 Y74.656 E2457.53514
G1 X92.861 Y64.157 E2457.97732
G1 X92.719 Y64.299 E2457.98330
G1 X82.988 Y54.568 E2458.39317
G1 X83.061 Y54.493 E2458.39628
G1 X68.859 Y40.444 E2458.99126
G1 X63.674 Y45.573 E2459.20848
G1 X62.574 Y44.484 E2459.25458
G1 X36.975 Y70.084 E2460.33283
G1 X36.357 Y69.465 E2460.35888
G1 X61.093 Y44.731 E2461.40072
G1 X61.952 Y43.869 E2461.43696
G1 X61.066 Y42.994 E2461.47405
G1 X95.887 Y8.554 E2462.93271
G1 X149.934 Y62.007 E2465.19670
G1 X115.114 Y96.444 E2466.65528
G1 X114.923 Y96.254 E2466.66330
G1 X88.346 Y122.830 E2467.78271
G1 X88.905 Y123.373 E2467.80592
G1 X80.556 Y130.988 E2468.14247
G1 X70.275 Y137.775 E2468.50938
G1 X60.083 Y142.875 E2468.84882
G1 X49.709 Y146.020 E2469.17167
G1 X39.728 Y147.746 E2469.47335
G1 X31.070 Y147.186 E2469.73176
G1 X23.281 Y144.806 E2469.97433
G1 X17.442 Y139.997 E2470.19962
G1 X12.775 Y134.597 E2470.41220
G1 X10.330 Y127.034 E2470.64893
G1 X9.755 Y118.635 E2470.89966
G1 X11.529 Y108.940 E2471.19321
G1 X14.761 Y98.869 E2471.50822
G1 X20.003 Y88.974 E2471.84173
G1 X26.992 Y78.970 E2472.20519
G1 X34.591 Y70.580 E2472.54233
G0 F10500 X34.569 Y69.859
;TYPE:WALL-OUTER
G1 F1800 X87.715 Y121.518 E2474.74975
G1 X113.590 Y95.644 E2475.83959
G1 X112.827 Y94.888 E2475.87158
G1 X118.355 Y89.360 E2476.10442
G1 X103.859 Y74.863 E2476.71501
G1 X103.358 Y75.362 E2476.73607
G1 X92.860 Y64.863 E2477.17827
G1 X92.718 Y65.004 E2477.18423
G1 X82.284 Y54.570 E2477.62371
G1 X82.354 Y54.498 E2477.62670
G1 X68.859 Y41.147 E2478.19208
G1 X63.674 Y46.275 E2478.40928
G1 X62.576 Y45.189 E2478.45528
G1 X36.975 Y70.790 E2479.53359
G1 X35.652 Y69.464 E2479.58938
G1 X61.244 Y43.872 E2480.66732
G1 X60.356 Y42.994 E2480.70451
G1 X95.887 Y7.852 E2482.19291
G1 X150.644 Y62.007 E2484.48663
G1 X115.112 Y97.148 E2485.97503
G1 X114.924 Y96.960 E2485.98295
G1 X89.059 Y122.825 E2487.07238
G1 X89.635 Y123.384 E2487.09629
G1 X80.865 Y131.383 E2487.44982
G1 X70.521 Y138.211 E2487.81896
G1 X60.266 Y143.342 E2488.16049
G1 X49.826 Y146.508 E2488.48541
G1 X39.756 Y148.249 E2488.78978
G1 X30.981 Y147.681 E2489.05168
G1 X23.039 Y145.255 E2489.29901
G1 X17.089 Y140.355 E2489.52857
G1 X12.331 Y134.848 E2489.74533
G1 X9.836 Y127.130 E2489.98691
G1 X9.251 Y118.606 E2490.24138
G1 X11.042 Y108.819 E2490.53771
G1 X14.299 Y98.674 E2490.85505
G1 X19.577 Y88.710 E2491.19088
G1 X26.600 Y78.657 E2491.55612
G1 X34.569 Y69.859 E2491.90966
G0 F10500 X34.518 Y70.297
G0 X33.335 Y72.226
;TYPE:FILL
G1 F2400 X86.467 Y125.358 E2494.14759
G0 F10500 X86.915 Y121.681
G1 F2400 X72.503 Y136.092 E2494.75460
G0 F10500 X74.602 Y134.706
G1 F2400 X23.775 Y83.879 E2496.89543
G0 F10500 X20.866 Y88.041
G1 F2400 X70.342 Y137.518 E2498.97939
G0 F10500 X65.647 Y139.893
G1 F2400 X18.304 Y92.551 E2500.97346
G0 F10500 X19.719 Y89.881
G1 F2400 X36.715 Y72.886 E2501.68931
G0 F10500 X87.719 Y122.069
G0 X114.145 Y95.643
G0 X118.909 Y89.360
G0 X103.860 Y74.309
G0 X92.860 Y64.310
G0 X68.859 Y40.596
G0 X62.575 Y44.637
G0 X37.495 Y69.314
G1 F2400 X37.124 Y68.944 E2501.70491
G0 F10500 X62.575 Y44.637
G0 X68.859 Y40.596
G0 X103.860 Y74.309
G0 X118.909 Y89.360
G0 X114.145 Y95.643
G0 X87.719 Y122.069
G0 X29.974 Y75.936
G1 F2400 X82.769 Y128.731 E2503.92864
G0 F10500 X89.554 Y121.374
G1 F2400 X89.183 Y121.003 E2503.94427
G0 F10500 X92.719 Y117.468
G1 F2400 X93.089 Y117.838 E2503.95985
G0 F10500 X96.625 Y114.303
G1 F2400 X96.254 Y113.932 E2503.97548
G0 F10500 X99.790 Y110.397
G1 F2400 X100.160 Y110.767 E2503.99106
G0 F10500 X103.696 Y107.232
G1 F2400 X103.325 Y106.861 E2504.00669
G0 F10500 X106.861 Y103.325
G1 F2400 X107.232 Y103.696 E2504.02232
G0 F10500 X110.767 Y100.160
G1 F2400 X110.397 Y99.790 E2504.03790
G0 F10500 X113.932 Y96.254
G1 F2400 X114.303 Y96.625 E2504.05353
G0 F10500 X118.045 Y93.297
G1 F2400 X116.708 Y91.959 E2504.10986
G0 F10500 X119.273 Y89.323
G1 F2400 X148.128 Y60.468 E2505.32524
G0 F10500 X146.486 Y65.169
G1 F2400 X92.986 Y11.669 E2507.57866
G0 F10500 X89.431 Y15.185
G1 F2400 X142.931 Y68.684 E2509.83206
G0 F10500 X139.376 Y72.201
G1 F2400 X85.876 Y18.701 E2512.08549
G0 F10500 X98.357 Y11.243
G1 F2400 X69.133 Y40.468 E2513.31643
G0 F10500 X66.891 Y42.142
G1 F2400 X64.546 Y39.798 E2513.41518
G0 F10500 X68.101 Y36.281
G1 F2400 X121.601 Y89.781 E2515.66860
G0 F10500 X125.155 Y86.264
G1 F2400 X71.656 Y32.765 E2517.92198
G0 F10500 X75.211 Y29.249
G1 F2400 X128.711 Y82.749 E2520.17540
G0 F10500 X132.265 Y79.232
G1 F2400 X78.766 Y25.733 E2522.42878
G0 F10500 X82.321 Y22.217
G1 F2400 X135.821 Y75.716 E2524.68219
G0 F10500 X144.573 Y56.951
G1 F2400 X115.737 Y85.787 E2525.89676
G0 F10500 X112.202 Y82.252
G1 F2400 X141.018 Y53.436 E2527.11049
G0 F10500 X137.463 Y49.919
G1 F2400 X108.666 Y78.716 E2528.32342
G0 F10500 X105.131 Y75.181
G1 F2400 X133.908 Y46.403 E2529.53553
G0 F10500 X130.353 Y42.888
G1 F2400 X101.095 Y72.145 E2530.76786
G0 F10500 X97.560 Y68.609
G1 F2400 X126.798 Y39.371 E2531.99937
G0 F10500 X123.243 Y35.855
G1 F2400 X94.025 Y65.073 E2533.23003
G0 F10500 X90.347 Y61.680
G1 F2400 X119.687 Y32.340 E2534.46583
G0 F10500 X116.133 Y28.823
G1 F2400 X86.812 Y58.144 E2535.70084
G0 F10500 X83.276 Y54.609
G1 F2400 X112.577 Y25.308 E2536.93500
G0 F10500 X109.023 Y21.791
G1 F2400 X79.796 Y51.018 E2538.16604
G0 F10500 X76.241 Y47.502
G1 F2400 X105.467 Y18.275 E2539.39706
G0 F10500 X101.912 Y14.760
G1 F2400 X72.687 Y43.985 E2540.62802
G0 F10500 X68.859 Y40.596
G0 X62.243 Y44.566
G1 F2400 X61.873 Y44.195 E2540.64363
G0 F10500 X58.337 Y47.731
G1 F2400 X58.708 Y48.101 E2540.65923
G0 F10500 X55.172 Y51.637
G1 F2400 X54.802 Y51.266 E2540.67484
G0 F10500 X51.266 Y54.802
G1 F2400 X51.637 Y55.172 E2540.69044
G0 F10500 X48.101 Y58.708
G1 F2400 X47.731 Y58.337 E2540.70605
G0 F10500 X44.195 Y61.873
G1 F2400 X44.566 Y62.243 E2540.72165
G0 F10500 X41.030 Y65.779
G1 F2400 X40.660 Y65.408 E2540.73726
G0 F10500 X62.575 Y44.637
G0 X68.859 Y40.596
G0 X103.860 Y74.309
G0 X118.909 Y89.360
G0 X114.145 Y95.643
G0 X87.719 Y122.069
G0 X40.300 Y76.371
G1 F2400 X13.594 Y103.078 E2541.86214
G0 F10500 X13.860 Y102.248
G1 F2400 X55.647 Y144.036 E2543.62223
G0 F10500 X58.289 Y143.235
G1 F2400 X83.329 Y118.195 E2544.67692
G0 F10500 X79.743 Y114.710
G1 F2400 X48.383 Y146.071 E2545.99782
G0 F10500 X50.221 Y145.680
G1 F2400 X12.141 Y107.601 E2547.60173
G0 F10500 X11.013 Y112.730
G1 F2400 X43.886 Y79.857 E2548.98635
G0 F10500 X47.472 Y83.342
G1 F2400 X10.074 Y120.739 E2550.56153
G0 F10500 X10.587 Y127.260
G1 F2400 X30.003 Y146.675 E2551.37931
G0 F10500 X27.369 Y145.871
G1 F2400 X68.986 Y104.254 E2553.13222
G0 F10500 X65.401 Y100.769
G1 F2400 X22.353 Y143.816 E2554.94539
G0 F10500 X33.166 Y147.146
G1 F2400 X72.572 Y107.739 E2556.60519
G0 F10500 X76.158 Y111.225
G1 F2400 X39.834 Y147.549 E2558.13516
G0 F10500 X37.846 Y147.448
G1 F2400 X9.996 Y119.597 E2559.30823
G0 F10500 X10.887 Y113.417
G1 F2400 X44.254 Y146.784 E2560.71365
G0 F10500 X60.934 Y142.251
G1 F2400 X15.856 Y97.174 E2562.61231
G0 F10500 X26.682 Y79.715
G1 F2400 X78.862 Y131.895 E2564.81014
G0 F10500 X61.815 Y97.283
G1 F2400 X18.476 Y140.622 E2566.63558
G0 F10500 X15.057 Y136.970
G1 F2400 X58.229 Y93.798 E2568.45399
G0 F10500 X54.643 Y90.313
G1 F2400 X12.324 Y132.632 E2570.23647
G0 F10500 X10.597 Y127.288
G1 F2400 X51.058 Y86.827 E2571.94069
G0 F10500 X87.719 Y122.069
G0 X114.145 Y95.643
G0 X118.909 Y89.360
G0 X103.860 Y74.309
G0 X92.860 Y64.310
G0 X68.859 Y40.596
G0 X62.575 Y44.637
G0 X36.780 Y69.639
;TYPE:SKIN
G1 F3000 X40.761 Y65.657 E2572.10839
G0 F10500 X62.575 Y44.637
G0 X68.859 Y40.596
G0 X103.860 Y74.309
G0 X118.909 Y89.360
G0 X114.145 Y95.643
G0 X92.735 Y117.628
G1 F3000 X87.882 Y122.482 E2572.31282
;LAYER:8
G1 F600 E2570.81282
G1 Z3.185
G0 F10500 X89.301 Y119.708 Z3.465
;TYPE:WALL-INNER
G1 Z3.465
G1 F600 E2572.31282
G1 F2100 X88.927 Y119.334 E2572.32857
G1 X118.983 Y89.279 E2573.59451
G1 X103.860 Y74.156 E2574.23149
G1 X103.358 Y74.656 E2574.25259
G1 X92.861 Y64.157 E2574.69477
G1 X92.719 Y64.299 E2574.70075
G1 X82.988 Y54.568 E2575.11062
G1 X83.061 Y54.493 E2575.11374
G1 X68.859 Y40.444 E2575.70871
G1 X63.674 Y45.573 E2575.92593
G1 X63.418 Y45.319 E2575.93667
G1 X39.165 Y69.573 E2576.95823
G1 X37.709 Y68.113 E2577.01964
G1 X61.093 Y44.731 E2578.00453
G1 X61.952 Y43.869 E2578.04078
G1 X61.066 Y42.994 E2578.07787
G1 X95.887 Y8.554 E2579.53653
G1 X149.934 Y62.007 E2581.80051
G1 X115.114 Y96.444 E2583.25909
G1 X114.923 Y96.254 E2583.26711
G1 X90.386 Y120.791 E2584.30061
G1 X89.301 Y119.708 E2584.34627
G0 F10500 X88.221 Y119.334
;TYPE:WALL-OUTER
G1 F1800 X118.276 Y89.279 E2585.61219
G1 X103.859 Y74.863 E2586.21942
G1 X103.358 Y75.362 E2586.24048
G1 X92.860 Y64.863 E2586.68267
G1 X92.718 Y65.004 E2586.68863
G1 X82.284 Y54.570 E2587.12811
G1 X82.354 Y54.498 E2587.13110
G1 X68.859 Y41.147 E2587.69649
G1 X63.674 Y46.275 E2587.91369
G1 X63.420 Y46.024 E2587.92432
G1 X39.165 Y70.279 E2588.94594
G1 X37.004 Y68.112 E2589.03709
G1 X61.244 Y43.872 E2590.05808
G1 X60.356 Y42.994 E2590.09527
G1 X95.887 Y7.852 E2591.58367
G1 X150.644 Y62.007 E2593.87740
G1 X115.112 Y97.148 E2595.36580
G1 X114.924 Y96.960 E2595.37371
G1 X90.386 Y121.497 E2596.40724
G1 X88.221 Y119.334 E2596.49838
G0 F10500 X88.652 Y119.397
G0 X95.725 Y113.402
;TYPE:FILL
G1 F2400 X96.625 Y114.303 E2596.53631
G0 F10500 X100.160 Y110.767
G1 F2400 X99.260 Y109.867 E2596.57422
G0 F10500 X102.796 Y106.331
G1 F2400 X103.696 Y107.232 E2596.61215
G0 F10500 X107.232 Y103.696
G1 F2400 X106.331 Y102.796 E2596.65008
G0 F10500 X109.867 Y99.260
G1 F2400 X110.767 Y100.160 E2596.68799
G0 F10500 X114.303 Y96.625
G1 F2400 X113.402 Y95.725 E2596.72592
G0 F10500 X113.216 Y95.379
G1 F2400 X148.128 Y60.468 E2598.19639
G0 F10500 X146.486 Y65.169
G1 F2400 X92.986 Y11.669 E2600.44981
G0 F10500 X89.431 Y15.185
G1 F2400 X142.931 Y68.684 E2602.70322
G0 F10500 X139.376 Y72.201
G1 F2400 X85.876 Y18.701 E2604.95664
G0 F10500 X98.357 Y11.243
G1 F2400 X69.133 Y40.468 E2606.18758
G0 F10500 X66.891 Y42.142
G1 F2400 X64.546 Y39.798 E2606.28633
G0 F10500 X68.101 Y36.281
G1 F2400 X121.601 Y89.781 E2608.53975
G0 F10500 X125.155 Y86.264
G1 F2400 X71.656 Y32.765 E2610.79313
G0 F10500 X75.211 Y29.249
G1 F2400 X128.711 Y82.749 E2613.04655
G0 F10500 X132.265 Y79.232
G1 F2400 X78.766 Y25.733 E2615.29994
G0 F10500 X82.321 Y22.217
G1 F2400 X135.821 Y75.716 E2617.55334
G0 F10500 X144.573 Y56.951
G1 F2400 X115.737 Y85.787 E2618.76791
G0 F10500 X112.202 Y82.252
G1 F2400 X141.018 Y53.436 E2619.98164
G0 F10500 X137.463 Y49.919
G1 F2400 X108.666 Y78.716 E2621.19458
G0 F10500 X105.131 Y75.181
G1 F2400 X133.908 Y46.403 E2622.40669
G0 F10500 X130.353 Y42.888
G1 F2400 X101.095 Y72.145 E2623.63901
G0 F10500 X97.560 Y68.609
G1 F2400 X126.798 Y39.371 E2624.87052
G0 F10500 X123.243 Y35.855
G1 F2400 X94.025 Y65.073 E2626.10118
G0 F10500 X90.347 Y61.680
G1 F2400 X119.687 Y32.340 E2627.33699
G0 F10500 X116.133 Y28.823
G1 F2400 X86.812 Y58.144 E2628.57199
G0 F10500 X83.276 Y54.609
G1 F2400 X112.577 Y25.308 E2629.80615
G0 F10500 X109.023 Y21.791
G1 F2400 X79.796 Y51.018 E2631.03719
G0 F10500 X76.241 Y47.502
G1 F2400 X105.467 Y18.275 E2632.26821
G0 F10500 X101.912 Y14.760
G1 F2400 X72.687 Y43.985 E2633.49917
G0 F10500 X68.859 Y40.596
G0 X63.083 Y45.405
G1 F2400 X61.873 Y44.195 E2633.55014
G0 F10500 X58.337 Y47.731
G1 F2400 X59.239 Y48.632 E2633.58811
G0 F10500 X55.703 Y52.168
G1 F2400 X54.802 Y51.266 E2633.62608
G0 F10500 X51.266 Y54.802
G1 F2400 X52.168 Y55.703 E2633.66405
G0 F10500 X48.632 Y59.239
G1 F2400 X47.731 Y58.337 E2633.70202
G0 F10500 X44.195 Y61.873
G1 F2400 X45.097 Y62.774 E2633.73999
G0 F10500 X63.419 Y45.472
G0 X68.859 Y40.596
G0 X103.859 Y74.309
G0 X118.829 Y89.279
G0 X116.628 Y91.880
G1 F2400 X118.045 Y93.297 E2633.79968
G0 F10500 X114.392 Y95.653
;TYPE:SKIN
G1 F3000 X113.623 Y94.885 E2633.83205
G0 F10500 X113.270 Y95.238
G1 F3000 X114.038 Y96.007 E2633.86442
G0 F10500 X113.685 Y96.360
G1 F3000 X112.916 Y95.592 E2633.89679
G0 F10500 X112.562 Y95.945
G1 F3000 X113.331 Y96.714 E2633.92918
G0 F10500 X112.977 Y97.068
G1 F3000 X112.209 Y96.299 E2633.96155
G0 F10500 X111.855 Y96.653
G1 F3000 X112.624 Y97.421 E2633.99391
G0 F10500 X112.270 Y97.775
G1 F3000 X111.502 Y97.006 E2634.02628
G0 F10500 X111.148 Y97.360
G1 F3000 X111.917 Y98.128 E2634.05865
G0 F10500 X111.563 Y98.482
G1 F3000 X110.795 Y97.713 E2634.09102
G0 F10500 X110.441 Y98.067
G1 F3000 X111.210 Y98.835 E2634.12339
G0 F10500 X110.856 Y99.189
G1 F3000 X110.088 Y98.420 E2634.15576
G0 F10500 X109.734 Y98.774
G1 F3000 X110.503 Y99.542 E2634.18813
G0 F10500 X110.149 Y99.896
G1 F3000 X109.380 Y99.127 E2634.22052
G0 F10500 X109.027 Y99.481
G1 F3000 X109.796 Y100.250 E2634.25291
G0 F10500 X109.442 Y100.603
G1 F3000 X108.673 Y99.834 E2634.28530
G0 F10500 X108.320 Y100.188
G1 F3000 X109.088 Y100.957 E2634.31767
G0 F10500 X108.735 Y101.310
G1 F3000 X107.966 Y100.542 E2634.35004
G0 F10500 X107.613 Y100.895
G1 F3000 X108.381 Y101.664 E2634.38241
G0 F10500 X108.028 Y102.017
G1 F3000 X107.259 Y101.249 E2634.41478
G0 F10500 X106.906 Y101.602
G1 F3000 X107.674 Y102.371 E2634.44715
G0 F10500 X107.321 Y102.724
G1 F3000 X106.552 Y101.956 E2634.47952
G0 F10500 X106.198 Y102.309
G1 F3000 X106.967 Y103.078 E2634.51191
G0 F10500 X106.614 Y103.432
G1 F3000 X105.845 Y102.663 E2634.54430
G0 F10500 X105.491 Y103.016
G1 F3000 X106.260 Y103.785 E2634.57669
G0 F10500 X105.906 Y104.139
G1 F3000 X105.138 Y103.370 E2634.60906
G0 F10500 X104.784 Y103.724
G1 F3000 X105.553 Y104.492 E2634.64143
G0 F10500 X105.199 Y104.846
G1 F3000 X104.431 Y104.077 E2634.67380
G0 F10500 X104.077 Y104.431
G1 F3000 X104.846 Y105.199 E2634.70616
G0 F10500 X104.492 Y105.553
G1 F3000 X103.724 Y104.784 E2634.73853
G0 F10500 X103.370 Y105.138
G1 F3000 X104.139 Y105.906 E2634.77090
