;This Gcode has been generated specifically for the LulzBot Mini
;Basic settings: Layer height: 0.38 Walls: 1 Fill: 20
;Filament Diameter: 2.85
;Nozzle Size: 0.5
G26                          ; clear potential 'probe fail' condition
G21                          ; metric values
G90                          ; absolute positioning
M82                          ; set extruder to absolute mode
M107                         ; start with the fan off
G92 E0                       ; set extruder position to 0
M140 S60; get bed heating up
G28                          ; home all
M109 R140                    ; set to cleaning temp and wait
G1 Z150 E-30 F75             ; suck up XXmm of filament
M109 R140                    ; heat up rest of way
G1 X45 Y174 F11520           ; move behind scraper
G1 Z0  F1200                 ; CRITICAL: set Z to height of top of scraper
G1 X45 Y174 Z-.5 F4000       ; wiping ; plunge into wipe pad
G1 X55 Y172 Z-.5 F4000       ; wiping
G1 X45 Y174 Z0 F4000         ; wiping
G1 X55 Y172 F4000            ; wiping
G1 X45 Y174 F4000            ; wiping
G1 X55 Y172 F4000            ; wiping
G1 X45 Y174 F4000            ; wiping
G1 X55 Y172 F4000            ; wiping
G1 X60 Y174 F4000            ; wiping
G1 X80 Y172 F4000            ; wiping
G1 X60 Y174 F4000            ; wiping
G1 X80 Y172 F4000            ; wiping
G1 X60 Y174 F4000            ; wiping
G1 X90 Y172 F4000            ; wiping
G1 X80 Y174 F4000            ; wiping
G1 X100 Y172 F4000           ; wiping
G1 X80 Y174 F4000            ; wiping
G1 X100 Y172 F4000           ; wiping
G1 X80 Y174 F4000            ; wiping
G1 X100 Y172 F4000           ; wiping
G1 X110 Y174 F4000           ; wiping
G1 X100 Y172 F4000           ; wiping
G1 X110 Y174 F4000           ; wiping
G1 X100 Y172 F4000           ; wiping
G1 X110 Y174 F4000           ; wiping
G1 X115 Y172 Z-0.5 F1000     ; wipe slower and bury noz in cleanish area
G1 Z10                       ; raise z
G28 X0 Y0                    ; home x and y
M109 R140                    ; set to probing temp
M204 S300                    ; Set probing acceleration
G29                          ; Probe
M204 S2000                   ; Restore standard acceleration
G1 X5 Y15 Z10 F5000          ; get out the way
G4 S1                        ; pause
M400                         ; clear buffer
M109 R205    ; set extruder temp and wait
G4 S15                       ; wait for bed to temp up
G1 Z2 E0 F75                 ; extrude filament back into nozzle
M140 S60; get bed temping up during first layer

;Layer count: 39
;LAYER:0
M107
G0 F10500 X31.685 Y29.685 Z0.425
;TYPE:SKIRT
G1 F900 X42.040 Y21.188 E0.55774
G1 X53.222 Y15.211 E1.08567
G1 X53.853 Y14.873 E1.11548
G1 X65.879 Y11.226 E1.63874
G1 X66.671 Y10.985 E1.67321
G1 X67.735 Y10.881 E1.71772
G1 X79.995 Y9.673 E2.23067
G1 X92.265 Y10.879 E2.74403
G1 X93.332 Y10.985 E2.78868
G1 X105.642 Y14.719 E3.32430
G1 X106.153 Y14.876 E3.34656
G1 X117.960 Y21.188 E3.90402
G1 X118.985 Y22.027 E3.95918
G1 X128.316 Y29.685 E4.46180
G1 X129.155 Y30.709 E4.51692
G1 X136.814 Y40.040 E5.01956
G1 X142.813 Y51.268 E5.54962
G1 X142.814 Y51.268 E5.54966
G1 X143.126 Y51.852 E5.57723
G1 X146.613 Y63.350 E6.07751
G1 X146.614 Y63.350 E6.07755
G1 X147.015 Y64.670 E6.13500
G1 X147.193 Y66.487 E6.21102
G1 X148.328 Y77.999 E6.69268
G1 X148.150 Y79.816 E6.76869
G1 X147.015 Y91.330 E7.25044
G1 X143.572 Y102.681 E7.74433
G1 X143.127 Y104.147 E7.80812
G1 X142.703 Y104.942 E7.84564
G1 X137.167 Y115.302 E8.33473
G1 X136.813 Y115.963 E8.36596
G1 X129.156 Y125.291 E8.86845
G1 X128.316 Y126.316 E8.92363
G1 X118.986 Y133.973 E9.42619
G1 X117.960 Y134.815 E9.48145
G1 X117.095 Y135.277 E9.52229
G1 X106.740 Y140.811 E10.01116
G1 X106.151 Y141.127 E10.03899
G1 X94.207 Y144.749 E10.55868
G1 X94.207 Y144.750 E10.55872
G1 X93.330 Y145.016 E10.59688
G1 X92.012 Y145.145 E10.65202
G1 X80.001 Y146.328 E11.15455
G1 X78.684 Y146.199 E11.20965
G1 X66.671 Y145.016 E11.71227
G1 X54.735 Y141.396 E12.23161
G1 X53.852 Y141.127 E12.27005
G1 X42.608 Y135.118 E12.80089
G1 X42.038 Y134.812 E12.82782
G1 X32.401 Y126.904 E13.34689
G1 X31.684 Y126.316 E13.38550
G1 X23.775 Y116.678 E13.90463
G1 X23.187 Y115.961 E13.94324
G1 X16.873 Y104.147 E14.50100
G1 X13.305 Y92.381 E15.01294
G1 X13.304 Y92.381 E15.01299
G1 X12.985 Y91.330 E15.05872
G1 X12.858 Y90.029 E15.11315
G1 X11.714 Y78.421 E15.59882
G1 X11.664 Y78.085 E15.61297
G1 X12.857 Y65.965 E16.12006
G1 X12.985 Y64.670 E16.17424
G1 X16.663 Y52.545 E16.70182
G1 X16.874 Y51.852 E16.73198
G1 X22.740 Y40.876 E17.25017
G1 X23.188 Y40.039 E17.28970
G1 X31.685 Y29.685 E17.84741
G1 F600 E16.34741
G1 Z0.525
G0 F10500 X34.703 Y32.703
;TYPE:WALL-INNER
G1 Z0.425
G1 F600 E17.84741
G1 F900 X44.410 Y24.739 E18.37021
G1 X55.485 Y18.819 E18.89310
G1 X67.117 Y15.290 E19.39923
G1 X67.500 Y15.173 E19.41590
G1 X68.151 Y15.110 E19.44314
G1 X79.990 Y13.943 E19.93848
G1 X91.847 Y15.108 E20.43456
G1 X92.493 Y15.172 E20.46159
G1 X104.401 Y18.783 E20.97971
G1 X104.515 Y18.818 E20.98467
G1 X115.587 Y24.737 E21.50743
G1 X125.296 Y32.704 E22.03038
G1 X133.267 Y42.416 E22.55352
G1 X139.068 Y53.274 E23.06611
G1 X139.181 Y53.485 E23.07607
G1 X142.827 Y65.503 E23.59900
G1 X144.058 Y78.000 E24.12187
G1 X142.827 Y90.498 E24.64478
G1 X139.182 Y102.514 E25.16761
G1 X133.421 Y113.296 E25.67662
G1 X133.262 Y113.592 E25.69061
G1 X125.297 Y123.298 E26.21341
G1 X115.592 Y131.262 E26.73614
G1 X104.737 Y137.064 E27.24864
G1 X104.515 Y137.183 E27.25912
G1 X92.498 Y140.828 E27.78200
G1 X80.000 Y142.058 E28.30490
G1 X67.503 Y140.828 E28.82777
G1 X55.970 Y137.330 E29.32958
G1 X55.488 Y137.184 E29.35055
G1 X44.614 Y131.373 E29.86392
G1 X44.413 Y131.265 E29.87342
G1 X34.703 Y123.298 E30.39640
G1 X26.738 Y113.591 E30.91923
G1 X20.819 Y102.516 E31.44209
G1 X17.173 Y90.498 E31.96502
G1 X15.942 Y77.993 E32.48822
G1 X17.172 Y65.508 E33.01059
G1 X20.729 Y53.780 E33.52088
G1 X20.817 Y53.488 E33.53358
G1 X26.738 Y42.410 E34.05660
G1 X34.703 Y32.703 E34.57943
G0 F10500 X110.732 Y60.312
G1 F900 X110.348 Y61.840 E34.64503
G1 X110.296 Y62.042 E34.65371
G1 X110.149 Y63.842 E34.72891
G1 X110.278 Y65.433 E34.79537
G1 X110.296 Y65.639 E34.80398
G1 X110.483 Y66.382 E34.83588
G1 X110.315 Y66.550 E34.84578
G1 X109.467 Y67.796 E34.90853
G1 X109.350 Y67.969 E34.91723
G1 X108.722 Y69.388 E34.98184
G1 X108.639 Y69.577 E34.99044
G1 X108.203 Y71.310 E35.06484
G1 X108.058 Y73.105 E35.13983
G1 X108.186 Y74.697 E35.20633
G1 X108.204 Y74.904 E35.21498
G1 X108.588 Y76.436 E35.28074
G1 X108.640 Y76.638 E35.28943
G1 X109.350 Y78.241 E35.36243
G1 X110.153 Y79.421 E35.42186
G1 X109.468 Y80.430 E35.47264
G1 X109.350 Y80.602 E35.48132
G1 X108.639 Y82.209 E35.55449
G1 X108.256 Y83.736 E35.62004
G1 X108.204 Y83.938 E35.62873
G1 X108.058 Y85.737 E35.70388
G1 X108.186 Y87.329 E35.77038
G1 X108.204 Y87.536 E35.77903
G1 X108.588 Y89.068 E35.84480
G1 X108.640 Y89.270 E35.85348
G1 X109.349 Y90.874 E35.92650
G1 X110.197 Y92.120 E35.98926
G1 X110.317 Y92.296 E35.99813
G1 X110.948 Y92.921 E36.03511
G1 X110.864 Y93.957 E36.07839
G1 X110.847 Y94.156 E36.08670
G1 X110.975 Y95.751 E36.15333
G1 X110.993 Y95.958 E36.16198
G1 X111.378 Y97.490 E36.22775
G1 X111.430 Y97.691 E36.23640
G1 X112.053 Y99.102 E36.30062
G1 X112.139 Y99.295 E36.30942
G1 X112.986 Y100.541 E36.37215
G1 X113.106 Y100.717 E36.38102
G1 X114.139 Y101.741 E36.44159
G1 X114.293 Y101.894 E36.45062
G1 X115.482 Y102.664 E36.50961
G1 X115.667 Y102.784 E36.51879
G1 X116.463 Y103.075 E36.55408
G1 X116.553 Y104.173 E36.59995
G1 X116.571 Y104.378 E36.60852
G1 X116.954 Y105.912 E36.67435
G1 X117.006 Y106.114 E36.68304
G1 X117.717 Y107.717 E36.75605
G1 X118.560 Y108.958 E36.81852
G1 X118.680 Y109.136 E36.82746
G1 X119.754 Y110.202 E36.89047
G1 X119.869 Y110.316 E36.89721
G1 X121.140 Y111.136 E36.96019
G1 X121.234 Y111.200 E36.96492
G1 X122.619 Y111.709 E37.02636
G1 X122.748 Y111.759 E37.03212
G1 X124.334 Y111.948 E37.09863
G1 X125.792 Y111.775 E37.15976
G1 X125.923 Y111.757 E37.16527
G1 X127.400 Y111.213 E37.23081
G1 X128.797 Y110.318 E37.29989
G1 X129.908 Y109.217 E37.36502
G1 X129.989 Y109.136 E37.36978
G1 X130.955 Y107.717 E37.44126
G1 X131.654 Y106.135 E37.51328
G1 X132.100 Y104.378 E37.58875
G1 X132.234 Y102.714 E37.65826
G1 X132.247 Y102.597 E37.66316
G1 X132.100 Y100.786 E37.73882
G1 X131.673 Y99.080 E37.81204
G1 X130.967 Y97.470 E37.88524
G1 X130.004 Y96.047 E37.95679
G1 X128.799 Y94.845 E38.02766
G1 X127.573 Y94.055 E38.08838
G1 X127.424 Y93.958 E38.09579
G1 X126.628 Y93.666 E38.13109
G1 X126.540 Y92.569 E38.17691
G1 X126.522 Y92.362 E38.18557
G1 X126.138 Y90.830 E38.25133
G1 X126.086 Y90.629 E38.25997
G1 X125.463 Y89.216 E38.32427
G1 X125.377 Y89.023 E38.33307
G1 X124.411 Y87.602 E38.40461
G1 X123.779 Y86.976 E38.44165
G1 X123.864 Y85.939 E38.48498
G1 X123.881 Y85.740 E38.49329
G1 X123.751 Y84.145 E38.55993
G1 X123.733 Y83.939 E38.56854
G1 X123.349 Y82.408 E38.63426
G1 X123.297 Y82.206 E38.64294
G1 X122.588 Y80.604 E38.71589
G1 X121.786 Y79.421 E38.77540
G1 X122.588 Y78.240 E38.83484
G1 X123.298 Y76.635 E38.90791
G1 X123.681 Y75.107 E38.97351
G1 X123.733 Y74.905 E38.98219
G1 X123.864 Y73.314 E39.04866
G1 X123.881 Y73.106 E39.05735
G1 X123.734 Y71.310 E39.13238
G1 X123.547 Y70.564 E39.16441
G1 X123.714 Y70.397 E39.17424
G1 X124.562 Y69.151 E39.23700
G1 X124.679 Y68.978 E39.24569
G1 X125.307 Y67.559 E39.31030
G1 X125.390 Y67.370 E39.31890
G1 X125.773 Y65.842 E39.38449
G1 X125.825 Y65.640 E39.39317
G1 X125.903 Y64.681 E39.43324
G1 X126.611 Y64.597 E39.46292
G1 X127.920 Y64.117 E39.52098
G1 X128.122 Y64.043 E39.52993
G1 X129.396 Y63.220 E39.59309
G1 X129.532 Y63.119 E39.60014
G1 X130.685 Y61.976 E39.66774
G1 X131.636 Y60.577 E39.73818
G1 X132.362 Y58.949 E39.81240
G1 X132.797 Y57.215 E39.88684
G1 X132.931 Y55.553 E39.95626
G1 X132.944 Y55.436 E39.96116
G1 X132.797 Y53.624 E40.03686
G1 X132.370 Y51.917 E40.11013
G1 X131.663 Y50.309 E40.18327
G1 X130.686 Y48.864 E40.25589
G1 X129.584 Y47.772 E40.32049
G1 X129.496 Y47.685 E40.32564
G1 X128.237 Y46.873 E40.38802
G1 X128.133 Y46.801 E40.39329
G1 X126.611 Y46.242 E40.46080
G1 X125.176 Y46.071 E40.52098
G1 X125.039 Y46.052 E40.52673
G1 X123.574 Y46.227 E40.58817
G1 X123.443 Y46.244 E40.59367
G1 X121.943 Y46.796 E40.66022
G1 X120.588 Y47.670 E40.72736
G1 X119.379 Y48.862 E40.79805
G1 X118.528 Y50.115 E40.86112
G1 X118.413 Y50.286 E40.86970
G1 X117.703 Y51.890 E40.94274
G1 X117.320 Y53.419 E41.00837
G1 X117.268 Y53.620 E41.01701
G1 X117.189 Y54.579 E41.05708
G1 X116.480 Y54.664 E41.08681
G1 X115.172 Y55.142 E41.14480
G1 X114.970 Y55.217 E41.15377
G1 X113.771 Y55.992 E41.21321
G1 X113.595 Y56.107 E41.22197
G1 X112.553 Y57.140 E41.28306
G1 X112.406 Y57.287 E41.29172
G1 X111.556 Y58.537 E41.35466
G1 X111.440 Y58.708 E41.36326
G1 X110.815 Y60.123 E41.42767
G1 X110.732 Y60.312 E41.43627
G0 F10500 X111.325 Y60.516
;TYPE:WALL-OUTER
G1 F900 X110.953 Y61.996 E41.49981
G1 X110.914 Y62.146 E41.50626
G1 X110.776 Y63.842 E41.57711
G1 X110.901 Y65.381 E41.64140
G1 X110.914 Y65.536 E41.64788
G1 X111.176 Y66.575 E41.69250
G1 X110.799 Y66.950 E41.71464
G1 X109.898 Y68.274 E41.78132
G1 X109.232 Y69.781 E41.84992
G1 X108.822 Y71.412 E41.91995
G1 X108.685 Y73.105 E41.99067
G1 X108.809 Y74.646 E42.05504
G1 X108.822 Y74.801 E42.06152
G1 X109.194 Y76.282 E42.12510
G1 X109.232 Y76.432 E42.13154
G1 X109.898 Y77.936 E42.20003
G1 X110.799 Y79.260 E42.26671
G1 X110.961 Y79.421 E42.27622
G1 X110.799 Y79.582 E42.28573
G1 X109.898 Y80.908 E42.35249
G1 X109.232 Y82.413 E42.42101
G1 X108.861 Y83.892 E42.48450
G1 X108.822 Y84.042 E42.49096
G1 X108.685 Y85.737 E42.56176
G1 X108.809 Y87.278 E42.62614
G1 X108.822 Y87.433 E42.63261
G1 X109.194 Y88.914 E42.69619
G1 X109.232 Y89.064 E42.70264
G1 X109.898 Y90.569 E42.77116
G1 X110.799 Y91.893 E42.83785
G1 X111.594 Y92.682 E42.88448
G1 X111.487 Y94.006 E42.93979
G1 X111.474 Y94.158 E42.94614
G1 X111.598 Y95.700 E43.01056
G1 X111.611 Y95.855 E43.01703
G1 X111.984 Y97.336 E43.08062
G1 X112.022 Y97.486 E43.08707
G1 X112.687 Y98.990 E43.15554
G1 X113.588 Y100.314 E43.22222
G1 X114.581 Y101.299 E43.28046
G1 X114.688 Y101.405 E43.28673
G1 X115.824 Y102.141 E43.34309
G1 X115.948 Y102.222 E43.34926
G1 X117.054 Y102.626 E43.39829
G1 X117.176 Y104.121 E43.46074
G1 X117.189 Y104.275 E43.46718
G1 X117.560 Y105.758 E43.53083
G1 X117.598 Y105.908 E43.53727
G1 X118.265 Y107.412 E43.60578
G1 X119.078 Y108.609 E43.66603
G1 X119.163 Y108.736 E43.67239
G1 X120.196 Y109.760 E43.73295
G1 X120.264 Y109.827 E43.73693
G1 X121.479 Y110.610 E43.79711
G1 X121.523 Y110.640 E43.79933
G1 X122.842 Y111.126 E43.85786
G1 X122.899 Y111.147 E43.86039
G1 X124.334 Y111.318 E43.92056
G1 X125.712 Y111.155 E43.97834
G1 X125.771 Y111.147 E43.98082
G1 X127.121 Y110.650 E44.04072
G1 X128.404 Y109.828 E44.10417
G1 X129.467 Y108.774 E44.16650
G1 X129.505 Y108.736 E44.16873
G1 X130.406 Y107.412 E44.23542
G1 X131.061 Y105.930 E44.30288
G1 X131.481 Y104.275 E44.37398
G1 X131.613 Y102.643 E44.44215
G1 X131.619 Y102.586 E44.44454
G1 X131.481 Y100.888 E44.51547
G1 X131.079 Y99.283 E44.58437
G1 X130.417 Y97.774 E44.65298
G1 X129.520 Y96.447 E44.71967
G1 X128.405 Y95.335 E44.78524
G1 X127.232 Y94.578 E44.84337
G1 X127.143 Y94.520 E44.84779
G1 X126.038 Y94.115 E44.89679
G1 X125.917 Y92.620 E44.95925
G1 X125.904 Y92.465 E44.96572
G1 X125.532 Y90.984 E45.02930
G1 X125.494 Y90.834 E45.03575
G1 X124.829 Y89.328 E45.10430
G1 X123.928 Y88.004 E45.17098
G1 X123.133 Y87.215 E45.21762
G1 X123.241 Y85.890 E45.27297
G1 X123.254 Y85.738 E45.27932
G1 X123.128 Y84.197 E45.34370
G1 X123.115 Y84.042 E45.35018
G1 X122.743 Y82.562 E45.41372
G1 X122.705 Y82.412 E45.42016
G1 X122.039 Y80.908 E45.48865
G1 X121.140 Y79.581 E45.55539
G1 X120.978 Y79.421 E45.56487
G1 X121.140 Y79.260 E45.57438
G1 X122.039 Y77.936 E45.64101
G1 X122.705 Y76.431 E45.70954
G1 X123.076 Y74.951 E45.77307
G1 X123.115 Y74.801 E45.77953
G1 X123.241 Y73.261 E45.84386
G1 X123.254 Y73.105 E45.85038
G1 X123.115 Y71.412 E45.92111
G1 X122.854 Y70.371 E45.96580
G1 X123.230 Y69.997 E45.98788
G1 X124.131 Y68.673 E46.05456
G1 X124.797 Y67.166 E46.12316
G1 X125.168 Y65.686 E46.18670
G1 X125.207 Y65.536 E46.19315
G1 X125.321 Y64.122 E46.25222
G1 X126.464 Y63.985 E46.30015
G1 X127.840 Y63.481 E46.36117
G1 X129.040 Y62.706 E46.42065
G1 X129.124 Y62.643 E46.42502
G1 X130.202 Y61.574 E46.48823
G1 X131.088 Y60.271 E46.55384
G1 X131.769 Y58.744 E46.62346
G1 X132.178 Y57.113 E46.69347
G1 X132.310 Y55.482 E46.76160
G1 X132.316 Y55.425 E46.76399
G1 X132.178 Y53.726 E46.83497
G1 X131.776 Y52.120 E46.90390
G1 X131.113 Y50.613 E46.97245
G1 X130.202 Y49.265 E47.04020
G1 X129.141 Y48.213 E47.10241
G1 X129.101 Y48.174 E47.10474
G1 X127.888 Y47.391 E47.16485
G1 X127.844 Y47.361 E47.16707
G1 X126.464 Y46.854 E47.22828
G1 X125.090 Y46.690 E47.28590
G1 X125.034 Y46.682 E47.28826
G1 X123.654 Y46.846 E47.34612
G1 X123.595 Y46.854 E47.34860
G1 X122.224 Y47.359 E47.40943
G1 X120.981 Y48.160 E47.47101
G1 X119.861 Y49.264 E47.53649
G1 X119.046 Y50.465 E47.59692
G1 X118.962 Y50.590 E47.60319
G1 X118.296 Y52.094 E47.67168
G1 X117.925 Y53.575 E47.73525
G1 X117.886 Y53.725 E47.74171
G1 X117.770 Y55.140 E47.80082
G1 X116.770 Y55.258 E47.84275
G1 X116.627 Y55.276 E47.84875
G1 X115.252 Y55.779 E47.90971
G1 X114.112 Y56.516 E47.96624
G1 X113.990 Y56.596 E47.97231
G1 X112.994 Y57.583 E48.03069
G1 X112.890 Y57.687 E48.03682
G1 X112.074 Y58.887 E48.09724
G1 X111.990 Y59.012 E48.10351
G1 X111.325 Y60.516 E48.17198
G0 F10500 X110.925 Y60.415
G0 X111.649 Y58.601
G0 X113.833 Y56.087
G0 X116.710 Y54.749
G0 X118.621 Y50.179
G0 X120.659 Y47.759
G0 X123.589 Y46.338
G0 X126.584 Y46.353
G0 X133.441 Y42.293
G0 X133.787 Y42.063
G1 F900 X139.761 Y53.244 E48.69982
G1 X143.443 Y65.381 E49.22793
G1 X144.686 Y78.000 E49.75590
G1 X143.443 Y90.619 E50.28387
G1 X139.761 Y102.757 E50.81201
G1 X133.787 Y113.938 E51.33985
G1 X125.740 Y123.741 E51.86794
G1 X115.938 Y131.787 E52.39597
G1 X104.758 Y137.762 E52.92379
G1 X92.619 Y141.444 E53.45197
G1 X80.000 Y142.686 E53.97994
G1 X67.382 Y141.444 E54.50787
G1 X55.244 Y137.762 E55.03601
G1 X44.063 Y131.787 E55.56387
G1 X34.260 Y123.741 E56.09193
G1 X26.214 Y113.938 E56.61998
G1 X20.239 Y102.757 E57.14784
G1 X16.557 Y90.619 E57.67599
G1 X15.314 Y77.991 E58.20433
G1 X16.556 Y65.386 E58.73172
G1 X20.239 Y53.244 E59.26003
G1 X26.214 Y42.063 E59.78789
G1 X34.260 Y32.260 E60.31595
G1 X44.063 Y24.215 E60.84398
G1 X55.244 Y18.239 E61.37186
G1 X67.382 Y14.557 E61.90001
G1 X79.995 Y13.315 E62.42773
G1 X92.621 Y14.557 E62.95598
G1 X104.757 Y18.239 E63.48405
G1 X115.938 Y24.215 E64.01193
G1 X125.740 Y32.260 E64.53993
G1 X133.787 Y42.063 E65.06801
G0 F10500 X132.851 Y42.253
;TYPE:SKIN
G1 F900 X115.756 Y25.158 E66.07465
G0 F10500 X113.678 Y23.964
G1 F900 X134.039 Y44.326 E67.27364
G0 F10500 X135.053 Y46.223
G1 F900 X111.779 Y22.949 E68.64412
G0 F10500 X109.880 Y21.934
G1 F900 X136.066 Y48.120 E70.18609
G0 F10500 X137.079 Y50.017
G1 F900 X107.981 Y20.919 E71.89952
G0 F10500 X106.082 Y19.905
G1 F900 X138.093 Y51.915 E73.78446
G0 F10500 X139.024 Y53.730
G1 F900 X104.263 Y18.969 E75.83136
G0 F10500 X102.998 Y18.588
G1 F900 X139.410 Y55.000 E77.97548
G0 F10500 X139.795 Y56.268
G1 F900 X101.729 Y18.203 E80.21696
G0 F10500 X100.460 Y17.818
G1 F900 X140.180 Y57.537 E82.55584
G0 F10500 X140.565 Y58.806
G1 F900 X131.630 Y49.872 E83.08195
G0 F10500 X132.464 Y51.589
G1 F900 X140.950 Y60.075 E83.58165
G0 F10500 X141.335 Y61.344
G1 F900 X132.823 Y52.832 E84.08288
G0 F10500 X133.040 Y53.933
G1 F900 X141.720 Y62.613 E84.59400
G0 F10500 X142.105 Y63.882
G1 F900 X133.119 Y54.896 E85.12314
G0 F10500 X133.129 Y55.790
G1 F900 X142.490 Y65.151 E85.67436
G0 F10500 X142.677 Y66.222
G1 F900 X133.064 Y56.608 E86.24045
G0 F10500 X132.974 Y57.402
G1 F900 X142.774 Y67.203 E86.81755
G0 F10500 X142.870 Y68.183
G1 F900 X132.796 Y58.109 E87.41076
G0 F10500 X132.619 Y58.815
G1 F900 X142.967 Y69.164 E88.02013
G0 F10500 X143.063 Y70.144
G1 F900 X132.374 Y59.454 E88.64958
G0 F10500 X132.831 Y55.434
G0 X132.262 Y51.954
G0 X130.598 Y48.937
G0 X128.614 Y46.856
G1 F900 X99.191 Y17.433 E90.38215
G0 F10500 X97.922 Y17.048
G1 F900 X127.043 Y46.168 E92.09691
G0 F10500 X125.931 Y45.940
G1 F900 X96.654 Y16.663 E93.82089
G0 F10500 X95.385 Y16.278
G1 F900 X124.948 Y45.841 E95.56170
G0 F10500 X124.158 Y45.935
G1 F900 X94.116 Y15.893 E97.33072
G0 F10500 X92.847 Y15.508
G1 F900 X123.374 Y46.035 E99.12831
G0 F10500 X122.728 Y46.273
G1 F900 X91.776 Y15.321 E100.95091
G0 F10500 X90.796 Y15.225
G1 F900 X122.081 Y46.510 E102.79313
G0 F10500 X121.504 Y46.816
G1 F900 X89.816 Y15.129 E104.65905
G0 F10500 X88.836 Y15.033
G1 F900 X120.967 Y47.164 E106.55108
G0 F10500 X120.433 Y47.513
G1 F900 X87.855 Y14.936 E108.46940
G0 F10500 X86.875 Y14.840
G1 F900 X119.988 Y47.952 E110.41923
G0 F10500 X119.543 Y48.391
G1 F900 X85.895 Y14.743 E112.40059
G0 F10500 X84.915 Y14.647
G1 F900 X119.121 Y48.853 E114.41481
G0 F10500 X118.763 Y49.379
G1 F900 X83.935 Y14.551 E116.46566
G0 F10500 X82.954 Y14.454
G1 F900 X118.405 Y49.905 E118.55319
G0 F10500 X118.089 Y50.473
G1 F900 X81.974 Y14.358 E120.67982
G0 F10500 X80.994 Y14.262
G1 F900 X117.818 Y51.086 E122.84820
G0 F10500 X117.547 Y51.698
G1 F900 X80.014 Y14.166 E125.05830
G0 F10500 X79.205 Y14.241
G1 F900 X117.352 Y52.387 E127.30455
G0 F10500 X117.174 Y53.093
G1 F900 X78.401 Y14.320 E129.58770
G0 F10500 X77.596 Y14.399
G1 F900 X117.031 Y53.834 E131.90982
G0 F10500 X116.726 Y54.413
G1 F900 X76.791 Y14.478 E134.26140
G0 F10500 X75.987 Y14.557
G1 F900 X116.025 Y54.596 E136.61906
G0 F10500 X115.378 Y54.833
G1 F900 X75.182 Y14.637 E138.98600
G0 F10500 X74.377 Y14.716
G1 F900 X114.754 Y55.093 E141.36360
G0 F10500 X114.218 Y55.441
G1 F900 X73.573 Y14.795 E143.75701
G0 F10500 X72.768 Y14.874
G1 F900 X113.682 Y55.788 E146.16623
G0 F10500 X113.199 Y56.189
G1 F900 X71.963 Y14.953 E148.59441
G0 F10500 X71.158 Y15.033
G1 F900 X112.755 Y56.629 E151.04381
G0 F10500 X112.311 Y57.069
G1 F900 X70.354 Y15.112 E153.51445
G0 F10500 X69.549 Y15.191
G1 F900 X111.939 Y57.581 E156.01058
G0 F10500 X111.582 Y58.107
G1 F900 X68.744 Y15.270 E158.53307
G0 F10500 X67.940 Y15.349
G1 F900 X111.230 Y58.639 E161.08220
G0 F10500 X110.959 Y59.252
G1 F900 X67.199 Y15.493 E163.65897
G0 F10500 X66.521 Y15.699
G1 F900 X110.689 Y59.866 E166.25977
G0 F10500 X110.454 Y60.515
G1 F900 X65.843 Y15.904 E168.88669
G0 F10500 X65.165 Y16.110
G1 F900 X110.276 Y61.222 E171.54308
G0 F10500 X110.098 Y61.927
G1 F900 X64.487 Y16.316 E174.22888
G0 F10500 X63.809 Y16.522
G1 F900 X110.020 Y62.733 E176.95001
G0 F10500 X109.953 Y63.550
G1 F900 X63.131 Y16.728 E179.70712
G0 F10500 X62.453 Y16.933
G1 F900 X109.980 Y64.461 E182.50578
G0 F10500 X110.058 Y65.422
G1 F900 X61.774 Y17.139 E185.34895
G0 F10500 X61.097 Y17.346
G1 F900 X110.153 Y66.401 E188.23758
G0 F10500 X109.793 Y66.926
G1 F900 X60.419 Y17.551 E191.14500
G0 F10500 X59.741 Y17.757
G1 F900 X109.436 Y67.452 E194.07129
G0 F10500 X109.097 Y67.997
G1 F900 X59.063 Y17.963 E197.01753
G0 F10500 X58.385 Y18.169
G1 F900 X108.826 Y68.610 E199.98775
G0 F10500 X108.556 Y69.224
G1 F900 X57.706 Y18.374 E202.98205
G0 F10500 X57.028 Y18.580
G1 F900 X108.335 Y69.886 E206.00323
G0 F10500 X108.157 Y70.593
G1 F900 X56.350 Y18.786 E209.05388
G0 F10500 X55.672 Y18.992
G1 F900 X107.984 Y71.303 E212.13424
G0 F10500 X107.917 Y72.121
G1 F900 X55.080 Y19.284 E215.24555
G0 F10500 X54.504 Y19.591
G1 F900 X107.852 Y72.939 E218.38694
G0 F10500 X107.900 Y73.872
G1 F900 X53.928 Y19.899 E221.56511
G0 F10500 X53.352 Y20.207
G1 F900 X107.978 Y74.833 E224.78176
G0 F10500 X108.250 Y75.989
G1 F900 X52.776 Y20.515 E228.04835
G0 F10500 X52.200 Y20.822
G1 F900 X108.705 Y77.328 E231.37567
G0 F10500 X109.827 Y79.334
G1 F900 X51.624 Y21.131 E234.80295
G0 F10500 X51.048 Y21.438
G1 F900 X109.540 Y79.931 E238.24728
G0 F10500 X109.182 Y80.456
G1 F900 X50.471 Y21.746 E241.70444
G0 F10500 X49.896 Y22.054
G1 F900 X108.905 Y81.064 E245.17922
G0 F10500 X108.634 Y81.677
G1 F900 X49.319 Y22.362 E248.67198
G0 F10500 X48.743 Y22.669
G1 F900 X108.387 Y82.313 E252.18411
G0 F10500 X108.209 Y83.019
G1 F900 X48.168 Y22.978 E255.71962
G0 F10500 X47.591 Y23.285
G1 F900 X108.031 Y83.724 E259.27860
G0 F10500 X107.937 Y84.515
G1 F900 X47.015 Y23.593 E262.86599
G0 F10500 X46.439 Y23.901
G1 F900 X107.871 Y85.332 E266.48338
G0 F10500 X107.877 Y86.223
G1 F900 X45.863 Y24.209 E270.13507
G0 F10500 X45.287 Y24.516
G1 F900 X107.956 Y87.185 E273.82533
G0 F10500 X108.164 Y88.277
G1 F900 X44.711 Y24.825 E277.56173
G0 F10500 X44.197 Y25.194
G1 F900 X108.501 Y89.498 E281.34827
G0 F10500 X109.274 Y91.155
G1 F900 X43.712 Y25.593 E285.20888
G0 F10500 X43.226 Y25.991
G1 F900 X110.684 Y93.449 E289.18114
G0 F10500 X110.638 Y94.287
G1 F900 X42.741 Y26.389 E293.17929
G0 F10500 X42.255 Y26.788
G1 F900 X110.716 Y95.249 E297.21061
G0 F10500 X110.843 Y96.259
G1 F900 X41.770 Y27.186 E301.27797
G0 F10500 X41.285 Y27.585
G1 F900 X111.140 Y97.441 E305.39141
G0 F10500 X111.730 Y98.915
G1 F900 X40.799 Y27.983 E309.56821
G0 F10500 X40.313 Y28.381
G1 F900 X116.356 Y104.424 E314.04599
G0 F10500 X116.274 Y103.458
G1 F900 X115.928 Y103.113 E314.06634
G0 F10500 X116.652 Y105.604
G1 F900 X39.828 Y28.780 E318.59012
G0 F10500 X39.342 Y29.178
G1 F900 X117.154 Y106.990 E323.17207
G0 F10500 X118.409 Y109.129
G1 F900 X38.857 Y29.577 E327.85649
G0 F10500 X38.371 Y29.975
G1 F900 X128.024 Y119.628 E333.13570
G0 F10500 X128.423 Y119.143
G1 F900 X119.837 Y110.557 E333.64129
G0 F10500 X121.809 Y111.645
G1 F900 X128.822 Y118.658 E334.05425
G0 F10500 X129.220 Y118.172
G1 F900 X123.066 Y112.018 E334.41663
G0 F10500 X124.069 Y112.137
G1 F900 X129.619 Y117.687 E334.74344
G0 F10500 X130.017 Y117.201
G1 F900 X124.915 Y112.099 E335.04387
G0 F10500 X125.705 Y112.005
G1 F900 X130.415 Y116.716 E335.32125
G0 F10500 X130.814 Y116.230
G1 F900 X126.398 Y111.814 E335.58128
G0 F10500 X127.044 Y111.577
G1 F900 X131.212 Y115.745 E335.82671
G0 F10500 X131.610 Y115.259
G1 F900 X127.658 Y111.307 E336.05943
G0 F10500 X128.197 Y110.962
G1 F900 X132.009 Y114.774 E336.28390
G0 F10500 X132.407 Y114.288
G1 F900 X128.736 Y110.617 E336.50006
G0 F10500 X129.215 Y110.212
G1 F900 X132.806 Y113.803 E336.71152
G0 F10500 X133.176 Y113.289
G1 F900 X129.659 Y109.772 E336.91862
G0 F10500 X130.102 Y109.332
G1 F900 X133.484 Y112.713 E337.11774
G0 F10500 X133.792 Y112.137
G1 F900 X130.470 Y108.815 E337.31335
G0 F10500 X130.828 Y108.290
G1 F900 X134.099 Y111.561 E337.50597
G0 F10500 X134.407 Y110.985
G1 F900 X131.176 Y107.754 E337.69622
G0 F10500 X131.447 Y107.141
G1 F900 X134.715 Y110.409 E337.88866
G0 F10500 X135.023 Y109.833
G1 F900 X131.717 Y106.527 E338.08333
G0 F10500 X131.945 Y105.871
G1 F900 X135.331 Y109.257 E338.28272
G0 F10500 X135.638 Y108.680
G1 F900 X132.124 Y105.166 E338.48964
G0 F10500 X132.303 Y104.461
G1 F900 X135.946 Y108.104 E338.70416
G0 F10500 X136.254 Y107.529
G1 F900 X132.376 Y103.651 E338.93251
G0 F10500 X132.442 Y102.833
G1 F900 X136.562 Y106.952 E339.17509
G0 F10500 X136.869 Y106.376
G1 F900 X132.409 Y101.916 E339.43772
G0 F10500 X132.331 Y100.954
G1 F900 X137.177 Y105.800 E339.72307
G0 F10500 X137.485 Y105.224
G1 F900 X132.083 Y99.822 E340.04117
G0 F10500 X131.666 Y98.521
G1 F900 X137.793 Y104.648 E340.40196
G0 F10500 X138.100 Y104.071
G1 F900 X130.669 Y96.640 E340.83953
G0 F10500 X128.274 Y94.246
G1 F900 X126.771 Y92.742 E340.92807
G0 F10500 X126.569 Y91.657
G1 F900 X138.409 Y103.496 E341.62523
G0 F10500 X138.716 Y102.920
G1 F900 X126.245 Y90.448 E342.35962
G0 F10500 X125.511 Y88.830
G1 F900 X139.008 Y102.328 E343.15442
G0 F10500 X139.214 Y101.650
G1 F900 X124.038 Y86.474 E344.04806
G0 F10500 X124.090 Y85.641
G1 F900 X139.420 Y100.972 E344.95079
G0 F10500 X139.625 Y100.293
G1 F900 X124.011 Y84.679 E345.87022
G0 F10500 X123.891 Y83.675
G1 F900 X139.831 Y99.615 E346.80885
G0 F10500 X140.036 Y98.936
G1 F900 X123.595 Y82.495 E347.77697
G0 F10500 X123.016 Y81.033
G1 F900 X140.242 Y98.258 E348.79130
G0 F10500 X140.448 Y97.580
G1 F900 X122.146 Y79.278 E349.86901
G0 F10500 X122.504 Y78.752
G1 F900 X140.654 Y96.902 E350.93777
G0 F10500 X140.859 Y96.224
G1 F900 X122.841 Y78.206 E351.99876
G0 F10500 X123.112 Y77.592
G1 F900 X141.065 Y95.546 E353.05595
G0 F10500 X141.271 Y94.868
G1 F900 X123.383 Y76.979 E354.10932
G0 F10500 X123.602 Y76.315
G1 F900 X141.477 Y94.190 E355.16188
G0 F10500 X141.682 Y93.512
G1 F900 X123.780 Y75.609 E356.21607
G0 F10500 X123.951 Y74.896
G1 F900 X141.888 Y92.833 E357.27229
G0 F10500 X142.094 Y92.155
G1 F900 X124.018 Y74.080 E358.33667
G0 F10500 X124.085 Y73.262
G1 F900 X142.300 Y91.477 E359.40926
G0 F10500 X142.506 Y90.799
G1 F900 X124.035 Y72.328 E360.49692
G0 F10500 X123.956 Y71.366
G1 F900 X142.650 Y90.059 E361.59769
G0 F10500 X142.729 Y89.255
G1 F900 X123.933 Y70.459 E362.70449
G0 F10500 X124.292 Y69.934
G1 F900 X142.808 Y88.450 E363.79480
G0 F10500 X142.887 Y87.645
G1 F900 X124.650 Y69.408 E364.86869
G0 F10500 X124.974 Y68.848
G1 F900 X142.967 Y86.841 E365.92820
G0 F10500 X143.046 Y86.036
G1 F900 X125.245 Y68.235 E366.97641
G0 F10500 X125.516 Y67.622
G1 F900 X143.125 Y85.231 E368.01332
G0 F10500 X143.204 Y84.427
G1 F900 X125.721 Y66.943 E369.04283
G0 F10500 X125.898 Y66.237
G1 F900 X143.283 Y83.622 E370.06655
G0 F10500 X143.363 Y82.817
G1 F900 X126.053 Y65.508 E371.08582
G0 F10500 X126.286 Y64.857
G1 F900 X143.442 Y82.013 E372.09605
G0 F10500 X143.522 Y81.209
G1 F900 X127.000 Y64.687 E373.06895
G0 F10500 X127.647 Y64.450
G1 F900 X143.601 Y80.404 E374.00840
G0 F10500 X143.680 Y79.599
G1 F900 X128.281 Y64.201 E374.91514
G0 F10500 X128.818 Y63.853
G1 F900 X143.759 Y78.795 E375.79497
G0 F10500 X143.836 Y77.988
G1 F900 X129.355 Y63.507 E376.64768
G0 F10500 X129.848 Y63.115
G1 F900 X143.739 Y77.007 E377.46568
G0 F10500 X143.643 Y76.027
G1 F900 X130.291 Y62.675 E378.25191
G0 F10500 X130.735 Y62.235
G1 F900 X143.546 Y75.046 E379.00629
G0 F10500 X143.450 Y74.066
G1 F900 X131.115 Y61.731 E379.73263
G0 F10500 X131.473 Y61.205
G1 F900 X143.353 Y73.085 E380.43219
G0 F10500 X143.257 Y72.105
G1 F900 X131.830 Y60.678 E381.10506
G0 F10500 X132.102 Y60.066
G1 F900 X143.160 Y71.125 E381.75624
G0 F10500 X128.797 Y37.316
G1 F900 X120.688 Y29.207 E382.23374
G0 F10500 X37.886 Y30.374
G1 F900 X127.626 Y120.114 E387.51808
G0 F10500 X127.227 Y120.599
G1 F900 X37.400 Y30.772 E392.80754
G0 F10500 X36.915 Y31.170
G1 F900 X126.829 Y121.084 E398.10212
G0 F10500 X126.430 Y121.570
G1 F900 X36.430 Y31.569 E403.40179
G0 F10500 X35.944 Y31.967
G1 F900 X126.032 Y122.055 E408.70662
G0 F10500 X125.633 Y122.540
G1 F900 X35.459 Y32.366 E414.01651
G0 F10500 X34.973 Y32.764
G1 F900 X125.235 Y123.026 E419.33159
G0 F10500 X124.770 Y123.445
G1 F900 X34.553 Y33.228 E424.64401
G0 F10500 X34.155 Y33.714
G1 F900 X124.284 Y123.843 E429.95125
G0 F10500 X123.799 Y124.242
G1 F900 X33.757 Y34.199 E435.25340
G0 F10500 X33.358 Y34.685
G1 F900 X123.313 Y124.640 E440.55040
G0 F10500 X122.828 Y125.039
G1 F900 X32.960 Y35.170 E445.84230
G0 F10500 X32.561 Y35.655
G1 F900 X122.342 Y125.437 E451.12908
G0 F10500 X121.857 Y125.836
G1 F900 X32.163 Y36.141 E456.41074
G0 F10500 X31.764 Y36.626
G1 F900 X121.372 Y126.234 E461.68730
G0 F10500 X120.886 Y126.632
G1 F900 X31.366 Y37.112 E466.95868
G0 F10500 X30.967 Y37.597
G1 F900 X120.401 Y127.031 E472.22500
G0 F10500 X119.916 Y127.429
G1 F900 X30.569 Y38.083 E477.48616
G0 F10500 X30.170 Y38.568
G1 F900 X119.430 Y127.827 E482.74220
G0 F10500 X118.945 Y128.226
G1 F900 X29.772 Y39.054 E487.99312
G0 F10500 X29.373 Y39.539
G1 F900 X118.459 Y128.624 E493.23892
G0 F10500 X117.974 Y129.023
G1 F900 X28.975 Y40.025 E498.47959
G0 F10500 X28.577 Y40.510
G1 F900 X117.488 Y129.421 E503.71511
G0 F10500 X117.003 Y129.820
G1 F900 X28.178 Y40.995 E508.94557
G0 F10500 X27.780 Y41.481
G1 F900 X116.517 Y130.218 E514.17084
G0 F10500 X116.032 Y130.617
G1 F900 X27.382 Y41.966 E519.39102
G0 F10500 X26.983 Y42.452
G1 F900 X115.546 Y131.015 E524.60605
G0 F10500 X114.985 Y131.338
G1 F900 X26.661 Y43.014 E529.80700
G0 F10500 X26.353 Y43.589
G1 F900 X114.409 Y131.645 E534.99218
G0 F10500 X113.833 Y131.953
G1 F900 X26.045 Y44.165 E540.16157
G0 F10500 X25.737 Y44.742
G1 F900 X113.257 Y132.261 E545.31515
G0 F10500 X112.681 Y132.569
G1 F900 X25.429 Y45.317 E550.45298
G0 F10500 X25.122 Y45.894
G1 F900 X112.105 Y132.877 E555.57497
G0 F10500 X111.529 Y133.184
G1 F900 X24.814 Y46.470 E560.68115
G0 F10500 X24.506 Y47.045
G1 F900 X110.953 Y133.493 E565.77161
G0 F10500 X110.377 Y133.800
G1 F900 X24.198 Y47.622 E570.84622
G0 F10500 X23.891 Y48.198
G1 F900 X109.800 Y134.108 E575.90500
G0 F10500 X109.225 Y134.416
G1 F900 X23.582 Y48.774 E580.94806
G0 F10500 X23.275 Y49.350
G1 F900 X108.649 Y134.724 E585.97530
G0 F10500 X108.073 Y135.032
G1 F900 X22.967 Y49.926 E590.98676
G0 F10500 X22.659 Y50.502
G1 F900 X107.497 Y135.340 E595.98245
G0 F10500 X106.920 Y135.647
G1 F900 X22.351 Y51.078 E600.96229
G0 F10500 X22.044 Y51.654
G1 F900 X106.345 Y135.956 E605.92638
G0 F10500 X105.769 Y136.263
G1 F900 X21.735 Y52.230 E610.87469
G0 F10500 X21.428 Y52.806
G1 F900 X105.192 Y136.571 E615.80715
G0 F10500 X104.617 Y136.879
G1 F900 X21.120 Y53.383 E620.72384
G0 F10500 X20.881 Y54.027
G1 F900 X103.971 Y137.117 E625.61659
G0 F10500 X103.293 Y137.323
G1 F900 X20.675 Y54.706 E630.48152
G0 F10500 X20.470 Y55.384
G1 F900 X102.615 Y137.529 E635.31863
G0 F10500 X101.936 Y137.734
G1 F900 X20.264 Y56.062 E640.12788
G0 F10500 X20.059 Y56.741
G1 F900 X101.258 Y137.940 E644.90928
G0 F10500 X100.580 Y138.146
G1 F900 X19.853 Y57.419 E649.66288
G0 F10500 X19.647 Y58.097
G1 F900 X99.902 Y138.351 E654.38867
G0 F10500 X99.224 Y138.557
G1 F900 X19.441 Y58.775 E659.08665
G0 F10500 X19.236 Y59.454
G1 F900 X98.545 Y138.763 E663.75676
G0 F10500 X97.867 Y138.969
G1 F900 X19.031 Y60.132 E668.39904
G0 F10500 X18.825 Y60.810
G1 F900 X97.189 Y139.174 E673.01351
G0 F10500 X96.510 Y139.379
G1 F900 X18.619 Y61.488 E677.60011
G0 F10500 X18.413 Y62.166
G1 F900 X95.832 Y139.585 E682.15893
G0 F10500 X95.154 Y139.791
G1 F900 X18.207 Y62.844 E686.68995
G0 F10500 X18.002 Y63.523
G1 F900 X94.476 Y139.997 E691.19312
G0 F10500 X93.798 Y140.203
G1 F900 X17.797 Y64.201 E695.66846
G0 F10500 X17.591 Y64.879
G1 F900 X93.120 Y140.408 E700.11598
G0 F10500 X92.440 Y140.613
G1 F900 X17.386 Y65.558 E704.53556
G0 F10500 X17.307 Y66.363
G1 F900 X91.636 Y140.692 E708.91242
G0 F10500 X90.831 Y140.771
G1 F900 X17.227 Y67.168 E713.24656
G0 F10500 X17.148 Y67.972
G1 F900 X90.026 Y140.850 E717.53798
G0 F10500 X89.222 Y140.929
G1 F900 X17.069 Y68.777 E721.78668
G0 F10500 X16.989 Y69.581
G1 F900 X88.417 Y141.009 E725.99271
G0 F10500 X87.612 Y141.088
G1 F900 X16.910 Y70.386 E730.15600
G0 F10500 X16.831 Y71.190
G1 F900 X86.807 Y141.167 E734.27656
G0 F10500 X86.003 Y141.246
G1 F900 X16.752 Y71.995 E738.35440
G0 F10500 X16.672 Y72.800
G1 F900 X85.198 Y141.325 E742.38952
G0 F10500 X84.393 Y141.405
G1 F900 X16.593 Y73.604 E746.38195
G0 F10500 X16.514 Y74.409
G1 F900 X83.589 Y141.484 E750.33166
G0 F10500 X82.784 Y141.563
G1 F900 X16.435 Y75.214 E754.23862
G0 F10500 X16.355 Y76.018
G1 F900 X81.979 Y141.642 E758.10288
G0 F10500 X81.175 Y141.721
G1 F900 X16.276 Y76.822 E761.92446
G0 F10500 X16.196 Y77.627
G1 F900 X80.370 Y141.801 E765.70334
G0 F10500 X79.471 Y141.785
G1 F900 X16.213 Y78.528 E769.42826
G0 F10500 X16.310 Y79.509
G1 F900 X78.490 Y141.688 E773.08969
G0 F10500 X77.510 Y141.592
G1 F900 X16.406 Y80.489 E776.68777
G0 F10500 X16.503 Y81.470
G1 F900 X76.529 Y141.495 E780.22237
G0 F10500 X75.549 Y141.399
G1 F900 X16.600 Y82.450 E783.69358
G0 F10500 X16.696 Y83.430
G1 F900 X74.568 Y141.302 E787.10137
G0 F10500 X73.588 Y141.206
G1 F900 X16.793 Y84.410 E790.44577
G0 F10500 X16.889 Y85.391
G1 F900 X72.608 Y141.110 E793.72678
G0 F10500 X71.627 Y141.013
G1 F900 X16.986 Y86.371 E796.94434
G0 F10500 X17.082 Y87.351
G1 F900 X70.647 Y140.917 E800.09854
G0 F10500 X69.666 Y140.820
G1 F900 X17.179 Y88.332 E803.18927
G0 F10500 X17.275 Y89.312
G1 F900 X68.686 Y140.724 E806.21663
G0 F10500 X67.706 Y140.627
G1 F900 X17.372 Y90.293 E809.18055
G0 F10500 X17.711 Y91.516
G1 F900 X66.482 Y140.287 E812.05242
G0 F10500 X65.214 Y139.903
G1 F900 X18.096 Y92.785 E814.82697
G0 F10500 X18.480 Y94.053
G1 F900 X63.945 Y139.518 E817.50417
G0 F10500 X62.677 Y139.133
G1 F900 X18.866 Y95.322 E820.08398
G0 F10500 X19.250 Y96.591
G1 F900 X61.408 Y138.749 E822.56645
G0 F10500 X60.139 Y138.363
G1 F900 X19.635 Y97.860 E824.95150
G0 F10500 X20.021 Y99.129
G1 F900 X58.870 Y137.979 E827.23915
G0 F10500 X57.602 Y137.594
G1 F900 X20.405 Y100.397 E829.42949
G0 F10500 X20.790 Y101.666
G1 F900 X56.333 Y137.209 E831.52244
G0 F10500 X54.814 Y136.574
G1 F900 X21.423 Y103.183 E833.48867
G0 F10500 X22.438 Y105.082
G1 F900 X52.917 Y135.560 E835.28339
G0 F10500 X51.018 Y134.546
G1 F900 X23.453 Y106.981 E836.90656
G0 F10500 X24.467 Y108.878
G1 F900 X49.120 Y133.532 E838.35828
G0 F10500 X47.222 Y132.518
G1 F900 X25.482 Y110.777 E839.63847
G0 F10500 X26.495 Y112.675
G1 F900 X45.324 Y131.503 E840.74718
G0 F10500 X41.656 Y128.719
G1 F900 X29.277 Y116.340 E841.47612
G0 F10500 X33.323 Y121.270
G1 F900 X36.727 Y124.674 E841.67656
;LAYER:1
M106 S191
G0 F10500 X34.571 Y123.430 Z0.805
;TYPE:WALL-INNER
G1 F1140 X26.578 Y113.689 E842.05185
G1 X20.646 Y102.590 E842.42667
G1 X20.493 Y102.084 E842.44241
G1 X16.987 Y90.530 E842.80202
G1 X15.754 Y77.994 E843.17719
G1 X16.987 Y65.471 E843.55197
G1 X20.645 Y53.413 E843.92726
G1 X26.579 Y42.310 E844.30221
G1 X34.571 Y32.571 E844.67743
G1 X44.310 Y24.580 E845.05264
G1 X55.413 Y18.645 E845.42760
G1 X67.471 Y14.987 E845.80289
G1 X80.004 Y13.754 E846.17797
G1 X92.531 Y14.987 E846.55287
G1 X104.139 Y18.508 E846.91415
G1 X104.584 Y18.643 E846.92800
G1 X115.691 Y24.580 E847.30310
G1 X125.429 Y32.571 E847.67828
G1 X133.420 Y42.308 E848.05344
G1 X139.356 Y53.416 E848.42855
G1 X143.013 Y65.470 E848.80371
G1 X144.247 Y78.000 E849.17870
G1 X143.013 Y90.531 E849.55372
G1 X139.355 Y102.587 E849.92896
G1 X133.422 Y113.691 E850.30392
G1 X125.429 Y123.430 E850.67916
G1 X115.691 Y131.422 E851.05436
G1 X104.589 Y137.356 E851.42929
G1 X92.530 Y141.014 E851.80461
G1 X80.000 Y142.247 E852.17959
G1 X67.470 Y141.014 E852.55458
G1 X55.416 Y137.357 E852.92975
G1 X44.308 Y131.420 E853.30487
G1 X34.571 Y123.430 E853.68001
G0 F10500 X111.606 Y97.628
G1 F1140 X112.302 Y99.203 E853.73130
G1 X113.030 Y100.274 E853.76987
G1 X113.250 Y100.596 E853.78148
G1 X114.412 Y101.748 E853.83022
G1 X115.432 Y102.408 E853.86640
G1 X115.751 Y102.616 E853.87774
G1 X116.640 Y102.941 E853.90593
G1 X116.756 Y104.346 E853.94792
G1 X117.085 Y105.663 E853.98835
G1 X117.182 Y106.050 E854.00023
G1 X117.720 Y107.265 E854.03981
G1 X117.881 Y107.626 E854.05158
G1 X118.825 Y109.017 E854.10165
G1 X119.989 Y110.171 E854.15047
G1 X121.212 Y110.960 E854.19381
G1 X121.331 Y111.037 E854.19804
G1 X122.661 Y111.526 E854.24024
G1 X122.797 Y111.576 E854.24456
G1 X124.334 Y111.759 E854.29066
G1 X125.730 Y111.593 E854.33253
G1 X125.873 Y111.576 E854.33682
G1 X127.282 Y111.057 E854.38154
G1 X128.678 Y110.173 E854.43075
G1 X129.744 Y109.115 E854.47548
G1 X129.842 Y109.020 E854.47955
G1 X130.790 Y107.626 E854.52976
G1 X131.447 Y106.140 E854.57815
G1 X131.915 Y104.346 E854.63337
G1 X132.048 Y102.710 E854.68225
G1 X132.059 Y102.583 E854.68605
G1 X131.915 Y100.817 E854.73882
G1 X131.520 Y99.238 E854.78730
G1 X131.486 Y99.111 E854.79121
G1 X130.844 Y97.657 E854.83855
G1 X130.789 Y97.534 E854.84257
G1 X129.843 Y96.145 E854.89262
G1 X128.681 Y94.991 E854.94139
G1 X127.339 Y94.126 E854.98895
G1 X126.451 Y93.800 E855.01712
G1 X126.371 Y92.793 E855.04721
G1 X126.337 Y92.394 E855.05913
G1 X125.910 Y90.693 E855.11137
G1 X125.214 Y89.115 E855.16273
G1 X124.266 Y87.722 E855.21292
G1 X123.586 Y87.048 E855.24143
G1 X123.694 Y85.737 E855.28061
G1 X123.548 Y83.971 E855.33339
G1 X123.218 Y82.656 E855.37377
G1 X123.121 Y82.269 E855.38565
G1 X122.424 Y80.695 E855.43692
G1 X121.560 Y79.421 E855.48277
G1 X122.424 Y78.149 E855.52856
G1 X122.961 Y76.933 E855.56815
G1 X123.121 Y76.575 E855.57983
G1 X123.548 Y74.872 E855.63212
G1 X123.694 Y73.105 E855.68493
G1 X123.548 Y71.341 E855.73765
G1 X123.340 Y70.505 E855.76331
G1 X123.569 Y70.278 E855.77291
G1 X124.297 Y69.206 E855.81150
G1 X124.515 Y68.887 E855.82301
G1 X125.053 Y67.668 E855.86270
G1 X125.213 Y67.310 E855.87438
G1 X125.641 Y65.606 E855.92670
G1 X125.729 Y64.514 E855.95933
G1 X126.567 Y64.414 E855.98447
G1 X127.690 Y64.003 E856.02008
G1 X128.037 Y63.875 E856.03110
G1 X129.203 Y63.122 E856.07244
G1 X129.377 Y63.009 E856.07862
G1 X130.540 Y61.856 E856.12739
G1 X131.486 Y60.465 E856.17750
G1 X132.185 Y58.887 E856.22890
G1 X132.612 Y57.184 E856.28119
G1 X132.745 Y55.549 E856.33005
G1 X132.756 Y55.422 E856.33384
G1 X132.612 Y53.655 E856.38664
G1 X132.217 Y52.075 E856.43515
G1 X132.183 Y51.948 E856.43907
G1 X131.527 Y50.467 E856.48731
G1 X131.433 Y50.296 E856.49312
G1 X130.540 Y48.983 E856.54041
G1 X129.474 Y47.926 E856.58512
G1 X129.374 Y47.829 E856.58927
G1 X128.156 Y47.041 E856.63248
G1 X128.035 Y46.964 E856.63675
G1 X126.567 Y46.425 E856.68333
G1 X125.176 Y46.259 E856.72505
G1 X125.033 Y46.241 E856.72934
G1 X123.636 Y46.408 E856.77125
G1 X123.493 Y46.425 E856.77553
G1 X122.027 Y46.965 E856.82207
G1 X120.794 Y47.761 E856.86578
G1 X120.673 Y47.842 E856.87011
G1 X119.784 Y48.724 E856.90741
G1 X119.522 Y48.984 E856.91840
G1 X118.577 Y50.376 E856.96851
G1 X118.040 Y51.592 E857.00810
G1 X117.880 Y51.951 E857.01981
G1 X117.550 Y53.269 E857.06028
G1 X117.453 Y53.654 E857.07210
G1 X117.363 Y54.746 E857.10473
G1 X116.524 Y54.847 E857.12990
G1 X115.403 Y55.257 E857.16545
G1 X115.055 Y55.385 E857.17650
G1 X114.027 Y56.050 E857.21296
G1 X113.714 Y56.253 E857.22407
G1 X112.551 Y57.406 E857.27285
G1 X111.605 Y58.798 E857.32298
G1 X110.909 Y60.373 E857.37426
G1 X110.481 Y62.075 E857.42653
G1 X110.337 Y63.842 E857.47933
G1 X110.448 Y65.208 E857.52015
G1 X110.481 Y65.607 E857.53207
G1 X110.690 Y66.440 E857.55765
G1 X110.460 Y66.670 E857.56734
G1 X109.732 Y67.741 E857.60591
G1 X109.514 Y68.060 E857.61742
G1 X108.976 Y69.279 E857.65710
G1 X108.816 Y69.637 E857.66878
G1 X108.388 Y71.341 E857.72111
G1 X108.246 Y73.105 E857.77382
G1 X108.355 Y74.472 E857.81466
G1 X108.389 Y74.872 E857.82661
G1 X108.816 Y76.574 E857.87888
G1 X109.353 Y77.789 E857.91844
G1 X109.514 Y78.150 E857.93021
G1 X110.379 Y79.421 E857.97600
G1 X109.513 Y80.695 E858.02188
G1 X108.976 Y81.911 E858.06147
G1 X108.816 Y82.269 E858.07315
G1 X108.486 Y83.586 E858.11359
G1 X108.389 Y83.971 E858.12542
G1 X108.246 Y85.737 E858.17818
G1 X108.355 Y87.104 E858.21903
G1 X108.389 Y87.504 E858.23098
G1 X108.816 Y89.206 E858.28325
G1 X109.353 Y90.422 E858.32284
G1 X109.514 Y90.783 E858.33461
G1 X110.241 Y91.853 E858.37314
G1 X110.461 Y92.175 E858.38475
G1 X111.141 Y92.849 E858.41327
G1 X111.035 Y94.159 E858.45241
G1 X111.144 Y95.526 E858.49326
G1 X111.178 Y95.926 E858.50521
G1 X111.606 Y97.628 E858.55748
G0 F10500 X112.081 Y97.465
;TYPE:WALL-OUTER
G1 F1080 X112.741 Y98.960 E858.60615
G1 X113.636 Y100.274 E858.65350
G1 X114.727 Y101.357 E858.69929
G1 X115.977 Y102.166 E858.74364
G1 X117.112 Y102.581 E858.77963
G1 X117.251 Y104.265 E858.82995
G1 X117.657 Y105.887 E858.87975
G1 X118.320 Y107.382 E858.92846
G1 X119.212 Y108.696 E858.97576
G1 X120.304 Y109.779 E859.02157
G1 X121.555 Y110.586 E859.06591
G1 X122.915 Y111.087 E859.10907
G1 X124.334 Y111.256 E859.15163
G1 X125.669 Y111.097 E859.19168
G1 X125.754 Y111.087 E859.19423
G1 X127.059 Y110.606 E859.23565
G1 X128.365 Y109.780 E859.28167
G1 X129.395 Y108.757 E859.32491
G1 X129.457 Y108.697 E859.32748
G1 X130.351 Y107.382 E859.37484
G1 X130.982 Y105.957 E859.42125
G1 X131.032 Y105.812 E859.42582
G1 X131.420 Y104.265 E859.47332
G1 X131.549 Y102.671 E859.52095
G1 X131.557 Y102.582 E859.52362
G1 X131.420 Y100.898 E859.57394
G1 X131.035 Y99.362 E859.62110
G1 X131.013 Y99.276 E859.62374
G1 X130.387 Y97.860 E859.66985
G1 X130.351 Y97.779 E859.67249
G1 X129.457 Y96.466 E859.71980
G1 X128.366 Y95.383 E859.76559
G1 X127.114 Y94.576 E859.80995
G1 X125.979 Y94.159 E859.84597
G1 X125.843 Y92.476 E859.89625
G1 X125.435 Y90.856 E859.94601
G1 X124.775 Y89.358 E859.99476
G1 X123.880 Y88.043 E860.04214
G1 X123.069 Y87.239 E860.07615
G1 X123.192 Y85.737 E860.12104
G1 X123.053 Y84.053 E860.17136
G1 X122.646 Y82.433 E860.22111
G1 X121.985 Y80.938 E860.26979
G1 X121.092 Y79.621 E860.31719
G1 X120.890 Y79.421 E860.32565
G1 X121.092 Y79.220 E860.33414
G1 X121.985 Y77.906 E860.38146
G1 X122.646 Y76.411 E860.43014
G1 X123.053 Y74.790 E860.47992
G1 X123.192 Y73.105 E860.53027
G1 X123.053 Y71.422 E860.58057
G1 X122.812 Y70.457 E860.61019
G1 X122.785 Y70.351 E860.61345
G1 X123.182 Y69.957 E860.63011
G1 X124.077 Y68.643 E860.67746
G1 X124.738 Y67.145 E860.72623
G1 X125.146 Y65.525 E860.77598
G1 X125.264 Y64.066 E860.81958
G1 X126.450 Y63.925 E860.85515
G1 X127.812 Y63.425 E860.89836
G1 X129.062 Y62.618 E860.94268
G1 X130.154 Y61.535 E860.98848
G1 X131.047 Y60.221 E861.03580
G1 X131.710 Y58.724 E861.08456
G1 X132.117 Y57.103 E861.13434
G1 X132.246 Y55.510 E861.18194
G1 X132.254 Y55.421 E861.18460
G1 X132.117 Y53.736 E861.23495
G1 X131.732 Y52.199 E861.28214
G1 X131.710 Y52.113 E861.28479
G1 X131.079 Y50.690 E861.33115
G1 X130.154 Y49.304 E861.38078
G1 X129.123 Y48.283 E861.42399
G1 X129.061 Y48.222 E861.42658
G1 X127.885 Y47.462 E861.46829
G1 X127.812 Y47.415 E861.47087
G1 X126.450 Y46.914 E861.51409
G1 X125.118 Y46.756 E861.55404
G1 X125.032 Y46.745 E861.55663
G1 X123.697 Y46.904 E861.59667
G1 X123.612 Y46.914 E861.59922
G1 X122.252 Y47.415 E861.64238
G1 X121.070 Y48.178 E861.68429
G1 X120.992 Y48.230 E861.68708
G1 X119.909 Y49.305 E861.73253
G1 X119.016 Y50.619 E861.77984
G1 X118.355 Y52.114 E861.82853
G1 X117.948 Y53.736 E861.87833
G1 X117.828 Y55.196 E861.92196
G1 X116.949 Y55.299 E861.94832
G1 X116.641 Y55.336 E861.95756
G1 X115.280 Y55.835 E862.00074
G1 X114.029 Y56.644 E862.04511
G1 X112.938 Y57.727 E862.09089
G1 X112.044 Y59.041 E862.13823
G1 X111.384 Y60.536 E862.18690
G1 X110.976 Y62.157 E862.23668
G1 X110.838 Y63.842 E862.28704
G1 X110.975 Y65.525 E862.33733
G1 X111.245 Y66.594 E862.37016
G1 X110.847 Y66.990 E862.38689
G1 X109.952 Y68.304 E862.43424
G1 X109.291 Y69.801 E862.48298
G1 X108.883 Y71.422 E862.53276
G1 X108.747 Y73.105 E862.58305
G1 X108.883 Y74.790 E862.63340
G1 X109.291 Y76.411 E862.68318
G1 X109.953 Y77.906 E862.73188
G1 X110.847 Y79.220 E862.77921
G1 X111.049 Y79.421 E862.78770
G1 X110.847 Y79.621 E862.79617
G1 X109.952 Y80.938 E862.84359
G1 X109.291 Y82.433 E862.89228
G1 X108.883 Y84.053 E862.94203
G1 X108.747 Y85.737 E862.99235
G1 X108.883 Y87.422 E863.04270
G1 X109.291 Y89.043 E863.09248
G1 X109.952 Y90.539 E863.14119
G1 X110.847 Y91.854 E863.18857
G1 X111.659 Y92.658 E863.22260
G1 X111.536 Y94.159 E863.26746
G1 X111.672 Y95.844 E863.31781
G1 X112.081 Y97.465 E863.36760
G0 F10500 X111.761 Y97.605
G0 X113.072 Y100.246
G0 X115.462 Y102.367
G0 X117.926 Y107.601
G0 X120.021 Y110.130
G0 X122.810 Y111.525
G0 X125.860 Y111.525
G0 X133.546 Y113.776
G0 X133.839 Y113.971
G1 F1080 X125.784 Y123.785 E863.74574
G1 X115.971 Y131.839 E864.12384
G1 X104.780 Y137.821 E864.50177
G1 X92.633 Y141.505 E864.87982
G1 X80.000 Y142.749 E865.25790
G1 X67.366 Y141.505 E865.63600
G1 X55.227 Y137.823 E866.01381
G1 X44.027 Y131.837 E866.39203
G1 X34.216 Y123.785 E866.77005
G1 X26.162 Y113.971 E867.14817
G1 X20.180 Y102.778 E867.52616
G1 X16.496 Y90.635 E867.90410
G1 X15.255 Y78.027 E868.28142
G1 X15.252 Y78.000 E868.28223
G1 X16.496 Y65.367 E868.66030
G1 X20.180 Y53.222 E869.03830
G1 X26.162 Y42.030 E869.41626
G1 X34.216 Y32.216 E869.79438
G1 X44.030 Y24.163 E870.17248
G1 X55.222 Y18.180 E870.55046
G1 X67.368 Y14.496 E870.92848
G1 X80.002 Y13.252 E871.30658
G1 X92.635 Y14.496 E871.68466
G1 X104.779 Y18.180 E872.06262
G1 X115.971 Y24.163 E872.44060
G1 X125.784 Y32.216 E872.81868
G1 X133.837 Y42.027 E873.19671
G1 X139.822 Y53.227 E873.57493
G1 X143.504 Y65.366 E873.95273
G1 X144.749 Y78.000 E874.33084
G1 X143.504 Y90.635 E874.70897
G1 X139.820 Y102.778 E875.08691
G1 X133.839 Y113.971 E875.46489
G0 F10500 X133.782 Y112.644
;TYPE:SKIN
G1 F1380 X114.643 Y131.782 E876.27100
G0 F10500 X113.124 Y132.595
G1 F1380 X134.593 Y111.126 E877.17528
G0 F10500 X135.405 Y109.607
G1 F1380 X111.605 Y133.407 E878.17773
G0 F10500 X110.085 Y134.219
G1 F1380 X136.217 Y108.088 E879.27839
G0 F10500 X137.028 Y106.569
G1 F1380 X108.567 Y135.031 E880.47719
G0 F10500 X107.047 Y135.843
G1 F1380 X137.839 Y105.051 E881.77415
G0 F10500 X138.651 Y103.532
G1 F1380 X105.528 Y136.655 E883.16930
G0 F10500 X104.179 Y137.297
G1 F1380 X139.295 Y102.181 E884.64839
G0 F10500 X139.602 Y101.167
G1 F1380 X103.164 Y137.605 E886.18316
G0 F10500 X102.150 Y137.912
G1 F1380 X139.910 Y100.151 E887.77363
G0 F10500 X140.526 Y98.121
G1 F1380 X130.946 Y107.702 E888.17716
G0 F10500 X131.507 Y106.434
G1 F1380 X140.834 Y97.106 E888.57004
G0 F10500 X141.142 Y96.092
G1 F1380 X131.814 Y105.419 E888.96291
G0 F10500 X132.063 Y104.463
G1 F1380 X141.450 Y95.076 E889.35829
G0 F10500 X141.757 Y94.062
G1 F1380 X132.144 Y103.675 E889.76319
G0 F10500 X132.208 Y102.904
G1 F1380 X142.066 Y93.046 E890.17841
G0 F10500 X142.373 Y92.032
G1 F1380 X132.203 Y102.202 E890.60677
G0 F10500 X132.150 Y101.548
G1 F1380 X142.681 Y91.017 E891.05034
G0 F10500 X142.876 Y90.115
G1 F1380 X132.096 Y100.894 E891.50437
G0 F10500 X131.969 Y100.315
G1 F1380 X142.953 Y89.330 E891.96704
G0 F10500 X143.031 Y88.546
G1 F1380 X131.828 Y99.749 E892.43891
G0 F10500 X131.686 Y99.183
G1 F1380 X143.108 Y87.761 E892.92001
G0 F10500 X143.185 Y86.977
G1 F1380 X131.485 Y98.678 E893.41283
G0 F10500 X131.268 Y98.188
G1 F1380 X143.262 Y86.193 E893.91804
G0 F10500 X143.340 Y85.408
G1 F1380 X131.051 Y97.697 E894.43566
G0 F10500 X130.800 Y97.241
G1 F1380 X143.417 Y84.624 E894.96708
G0 F10500 X143.494 Y83.840
G1 F1380 X130.514 Y96.820 E895.51380
G0 F10500 X130.227 Y96.399
G1 F1380 X143.571 Y83.056 E896.07583
G0 F10500 X143.649 Y82.271
G1 F1380 X129.932 Y95.988 E896.65359
G0 F10500 X129.578 Y95.635
G1 F1380 X143.726 Y81.486 E897.24953
G0 F10500 X143.803 Y80.702
G1 F1380 X129.223 Y95.283 E897.86366
G0 F10500 X128.868 Y94.930
G1 F1380 X143.880 Y79.918 E898.49597
G0 F10500 X143.958 Y79.133
G1 F1380 X128.455 Y94.637 E899.14898
G0 F10500 X128.024 Y94.360
G1 F1380 X144.035 Y78.349 E899.82336
G0 F10500 X144.034 Y77.643
G1 F1380 X127.594 Y94.083 E900.51581
G0 F10500 X127.113 Y93.857
G1 F1380 X143.971 Y76.999 E901.22587
G0 F10500 X143.908 Y76.355
G1 F1380 X126.613 Y93.649 E901.95432
G0 F10500 X126.560 Y92.996
G1 F1380 X143.844 Y75.712 E902.68232
G0 F10500 X143.780 Y75.068
G1 F1380 X126.504 Y92.345 E903.41001
G0 F10500 X126.362 Y91.780
G1 F1380 X143.718 Y74.424 E904.14104
G0 F10500 X143.654 Y73.780
G1 F1380 X126.220 Y91.214 E904.87537
G0 F10500 X126.079 Y90.648
G1 F1380 X143.590 Y73.137 E905.61293
G0 F10500 X143.527 Y72.493
G1 F1380 X125.864 Y90.156 E906.35690
G0 F10500 X125.647 Y89.666
G1 F1380 X143.464 Y71.849 E907.10735
G0 F10500 X143.401 Y71.205
G1 F1380 X125.431 Y89.175 E907.86425
G0 F10500 X125.166 Y88.733
G1 F1380 X143.337 Y70.562 E908.62961
G0 F10500 X143.273 Y69.918
G1 F1380 X124.880 Y88.312 E909.40435
G0 F10500 X124.593 Y87.891
G1 F1380 X143.211 Y69.274 E910.18852
G0 F10500 X143.147 Y68.631
G1 F1380 X124.283 Y87.494 E910.98305
G0 F10500 X123.928 Y87.142
G1 F1380 X143.083 Y67.987 E911.78986
G0 F10500 X143.020 Y67.343
G1 F1380 X123.801 Y86.562 E912.59936
G0 F10500 X123.865 Y85.791
G1 F1380 X142.957 Y66.699 E913.40352
G0 F10500 X142.894 Y66.055
G1 F1380 X123.819 Y85.130 E914.20696
G0 F10500 X123.764 Y84.478
G1 F1380 X142.816 Y65.426 E915.00943
G0 F10500 X142.651 Y64.884
G1 F1380 X123.694 Y83.840 E915.80788
G0 F10500 X123.553 Y83.275
G1 F1380 X142.486 Y64.341 E916.60536
G0 F10500 X142.322 Y63.798
G1 F1380 X123.411 Y82.710 E917.40191
G0 F10500 X123.260 Y82.153
G1 F1380 X142.158 Y63.256 E918.19788
G0 F10500 X141.993 Y62.714
G1 F1380 X123.043 Y81.663 E918.99603
G0 F10500 X122.827 Y81.173
G1 F1380 X141.828 Y62.171 E919.79638
G0 F10500 X141.664 Y61.628
G1 F1380 X122.610 Y80.683 E920.59895
G0 F10500 X122.334 Y80.251
G1 F1380 X141.499 Y61.086 E921.40618
G0 F10500 X141.335 Y60.543
G1 F1380 X122.048 Y79.830 E922.21855
G0 F10500 X121.812 Y79.359
G1 F1380 X141.170 Y60.001 E923.03391
G0 F10500 X141.006 Y59.458
G1 F1380 X122.853 Y77.611 E923.79852
G0 F10500 X123.340 Y76.417
G1 F1380 X140.841 Y58.916 E924.53566
G0 F10500 X140.676 Y58.373
G1 F1380 X123.576 Y75.473 E925.25592
G0 F10500 X123.745 Y74.598
G1 F1380 X140.512 Y57.831 E925.96214
G0 F10500 X140.347 Y57.288
G1 F1380 X123.809 Y73.826 E926.65872
G0 F10500 X123.866 Y73.062
G1 F1380 X140.183 Y56.746 E927.34598
G0 F10500 X140.018 Y56.203
G1 F1380 X123.811 Y72.410 E928.02862
G0 F10500 X123.757 Y71.757
G1 F1380 X139.853 Y55.661 E928.70658
G0 F10500 X139.689 Y55.118
G1 F1380 X123.675 Y71.132 E929.38109
G0 F10500 X123.535 Y70.565
G1 F1380 X139.524 Y54.575 E930.05457
G0 F10500 X139.360 Y54.033
G1 F1380 X124.864 Y68.529 E930.66514
G0 F10500 X125.399 Y67.287
G1 F1380 X139.195 Y53.491 E931.24623
G0 F10500 X138.950 Y53.028
G1 F1380 X131.803 Y60.175 E931.54726
G0 F10500 X129.344 Y62.969
G0 X127.849 Y64.130
G1 F1380 X125.635 Y66.344 E931.64052
G0 F10500 X125.828 Y65.444
G1 F1380 X126.732 Y64.539 E931.67861
G0 F10500 X129.344 Y62.969
G0 X131.441 Y60.440
G0 X132.357 Y58.914
G1 F1380 X138.703 Y52.568 E931.94591
G0 F10500 X138.457 Y52.107
G1 F1380 X132.593 Y57.971 E932.19290
G0 F10500 X132.796 Y57.061
G1 F1380 X138.211 Y51.646 E932.42098
G0 F10500 X137.965 Y51.185
G1 F1380 X132.860 Y56.290 E932.63600
G0 F10500 X132.924 Y55.519
G1 F1380 X137.718 Y50.725 E932.83793
G0 F10500 X137.472 Y50.263
G1 F1380 X132.885 Y54.851 E933.03115
G0 F10500 X132.831 Y54.198
G1 F1380 X137.226 Y49.802 E933.21629
G0 F10500 X136.980 Y49.342
G1 F1380 X132.767 Y53.555 E933.39374
G0 F10500 X132.625 Y52.989
G1 F1380 X136.733 Y48.881 E933.56677
G0 F10500 X136.487 Y48.420
G1 F1380 X132.484 Y52.424 E933.73540
G0 F10500 X132.336 Y51.864
G1 F1380 X136.241 Y47.960 E933.89986
G0 F10500 X135.995 Y47.499
G1 F1380 X132.119 Y51.374 E934.06309
G0 F10500 X131.902 Y50.884
G1 F1380 X135.748 Y47.038 E934.22509
G0 F10500 X135.502 Y46.577
G1 F1380 X131.685 Y50.394 E934.38586
G0 F10500 X131.414 Y49.958
G1 F1380 X135.256 Y46.116 E934.54769
G0 F10500 X135.010 Y45.655
G1 F1380 X131.128 Y49.537 E934.71120
G0 F10500 X130.842 Y49.116
G1 F1380 X134.763 Y45.194 E934.87637
G0 F10500 X134.517 Y44.734
G1 F1380 X130.526 Y48.724 E935.04445
G0 F10500 X130.171 Y48.373
G1 F1380 X134.271 Y44.273 E935.21714
G0 F10500 X134.025 Y43.812
G1 F1380 X129.816 Y48.021 E935.39443
G0 F10500 X129.456 Y47.673
G1 F1380 X133.778 Y43.351 E935.57647
G0 F10500 X133.532 Y42.890
G1 F1380 X129.026 Y47.396 E935.76626
G0 F10500 X128.596 Y47.119
G1 F1380 X133.286 Y42.429 E935.96380
G0 F10500 X132.970 Y42.038
G1 F1380 X128.166 Y46.842 E936.16615
G0 F10500 X127.661 Y46.640
G1 F1380 X132.651 Y41.650 E936.37633
G0 F10500 X132.333 Y41.261
G1 F1380 X127.144 Y46.450 E936.59489
G0 F10500 X126.626 Y46.261
G1 F1380 X132.014 Y40.872 E936.82185
G0 F10500 X131.695 Y40.484
G1 F1380 X126.000 Y46.180 E937.06175
G0 F10500 X125.368 Y46.104
G1 F1380 X131.376 Y40.096 E937.31481
G0 F10500 X131.057 Y39.708
G1 F1380 X124.657 Y46.109 E937.58439
G0 F10500 X123.853 Y46.205
G1 F1380 X130.739 Y39.319 E937.87443
G0 F10500 X130.420 Y38.931
G1 F1380 X122.893 Y46.459 E938.19149
G0 F10500 X121.635 Y47.009
G1 F1380 X130.101 Y38.542 E938.54810
G0 F10500 X129.783 Y38.154
G1 F1380 X40.153 Y127.784 E942.32332
G0 F10500 X40.541 Y128.103
G1 F1380 X118.566 Y50.078 E945.60974
G0 F10500 X117.916 Y51.435
G1 F1380 X40.930 Y128.421 E948.85240
G0 F10500 X41.319 Y128.740
G1 F1380 X111.669 Y58.389 E951.81556
G0 F10500 X110.972 Y59.793
G1 F1380 X41.707 Y129.059 E954.73303
G0 F10500 X42.095 Y129.377
G1 F1380 X110.602 Y60.870 E957.61855
G0 F10500 X110.366 Y61.813
G1 F1380 X42.484 Y129.696 E960.47776
G0 F10500 X42.872 Y130.015
G1 F1380 X110.260 Y62.627 E963.31615
G0 F10500 X110.196 Y63.398
G1 F1380 X43.260 Y130.333 E966.13548
G0 F10500 X43.648 Y130.652
G1 F1380 X110.182 Y64.119 E968.93787
G0 F10500 X110.235 Y64.773
G1 F1380 X44.037 Y130.971 E971.72614
G0 F10500 X44.429 Y131.286
G1 F1380 X110.289 Y65.426 E974.50016
G0 F10500 X110.403 Y66.019
G1 F1380 X44.890 Y131.532 E977.25958
G0 F10500 X45.351 Y131.779
G1 F1380 X109.795 Y67.334 E979.97398
G0 F10500 X108.960 Y68.877
G1 F1380 X45.812 Y132.025 E982.63378
G0 F10500 X46.273 Y132.271
G1 F1380 X108.543 Y70.001 E985.25660
G0 F10500 X108.306 Y70.945
G1 F1380 X46.733 Y132.518 E987.85005
G0 F10500 X47.194 Y132.764
G1 F1380 X108.176 Y71.782 E990.41862
G0 F10500 X108.113 Y72.551
G1 F1380 X47.655 Y133.010 E992.96514
G0 F10500 X48.115 Y133.257
G1 F1380 X108.084 Y73.288 E995.49103
G0 F10500 X108.137 Y73.942
G1 F1380 X48.576 Y133.503 E997.99975
G0 F10500 X49.037 Y133.749
G1 F1380 X108.190 Y74.596 E1000.49128
G0 F10500 X108.290 Y75.203
G1 F1380 X49.498 Y133.996 E1002.96762
G0 F10500 X49.959 Y134.242
G1 F1380 X108.432 Y75.768 E1005.43053
G0 F10500 X108.574 Y76.334
G1 F1380 X50.420 Y134.488 E1007.87998
G0 F10500 X50.880 Y134.734
G1 F1380 X108.751 Y76.863 E1010.31751
G0 F10500 X108.968 Y77.353
G1 F1380 X51.341 Y134.981 E1012.74478
G0 F10500 X51.801 Y135.227
G1 F1380 X109.186 Y77.843 E1015.16182
G0 F10500 X109.416 Y78.319
G1 F1380 X52.262 Y135.473 E1017.56915
G0 F10500 X52.724 Y135.719
G1 F1380 X109.703 Y78.740 E1019.96911
G0 F10500 X109.989 Y79.162
G1 F1380 X53.184 Y135.966 E1022.36172
G0 F10500 X53.645 Y136.212
G1 F1380 X109.589 Y80.268 E1024.71808
G0 F10500 X108.883 Y81.681
G1 F1380 X54.106 Y136.458 E1027.02529
G0 F10500 X54.566 Y136.705
G1 F1380 X108.511 Y82.761 E1029.29744
G0 F10500 X108.275 Y83.704
G1 F1380 X55.027 Y136.951 E1031.54023
G0 F10500 X55.489 Y137.197
G1 F1380 X108.168 Y84.518 E1033.75907
G0 F10500 X108.105 Y85.288
G1 F1380 X56.032 Y137.361 E1035.95239
G0 F10500 X56.574 Y137.525
G1 F1380 X108.091 Y86.009 E1038.12226
G0 F10500 X108.144 Y86.663
G1 F1380 X57.117 Y137.690 E1040.27153
G0 F10500 X57.659 Y137.855
G1 F1380 X108.197 Y87.317 E1042.40019
G0 F10500 X108.310 Y87.911
G1 F1380 X58.202 Y138.019 E1044.51074
G0 F10500 X58.745 Y138.184
G1 F1380 X108.451 Y88.477 E1046.60438
G0 F10500 X108.593 Y89.043
G1 F1380 X59.287 Y138.348 E1048.68113
G0 F10500 X59.830 Y138.513
G1 F1380 X108.781 Y89.562 E1050.74295
G0 F10500 X108.998 Y90.052
G1 F1380 X60.372 Y138.677 E1052.79106
G0 F10500 X60.915 Y138.842
G1 F1380 X109.214 Y90.542 E1054.82544
G0 F10500 X109.455 Y91.009
G1 F1380 X61.457 Y139.007 E1056.84712
G0 F10500 X62.000 Y139.171
G1 F1380 X109.741 Y91.430 E1058.85797
G0 F10500 X110.027 Y91.851
G1 F1380 X62.542 Y139.336 E1060.85804
G0 F10500 X63.085 Y139.500
G1 F1380 X110.313 Y92.272 E1062.84729
G0 F10500 X110.667 Y92.626
G1 F1380 X63.628 Y139.664 E1064.82855
G0 F10500 X64.170 Y139.829
G1 F1380 X110.948 Y93.051 E1066.79885
G0 F10500 X110.885 Y93.821
G1 F1380 X64.712 Y139.994 E1068.74365
G0 F10500 X65.255 Y140.159
G1 F1380 X110.887 Y94.526 E1070.66570
G0 F10500 X110.941 Y95.180
G1 F1380 X65.798 Y140.323 E1072.56712
G0 F10500 X66.340 Y140.487
G1 F1380 X110.994 Y95.834 E1074.44793
G0 F10500 X111.120 Y96.415
G1 F1380 X66.883 Y140.652 E1076.31120
G0 F10500 X67.426 Y140.816
G1 F1380 X111.261 Y96.981 E1078.15753
G0 F10500 X111.403 Y97.546
G1 F1380 X68.055 Y140.894 E1079.98335
G0 F10500 X68.698 Y140.958
G1 F1380 X111.601 Y98.055 E1081.79043
G0 F10500 X111.819 Y98.545
G1 F1380 X69.342 Y141.021 E1083.57954
G0 F10500 X69.986 Y141.084
G1 F1380 X112.035 Y99.035 E1085.35065
G0 F10500 X112.285 Y99.492
G1 F1380 X70.630 Y141.148 E1087.10518
G0 F10500 X71.274 Y141.211
G1 F1380 X112.572 Y99.913 E1088.84465
G0 F10500 X112.858 Y100.334
G1 F1380 X71.917 Y141.274 E1090.56907
G0 F10500 X72.561 Y141.337
G1 F1380 X113.153 Y100.746 E1092.27879
G0 F10500 X113.508 Y101.098
G1 F1380 X73.205 Y141.401 E1093.97635
G0 F10500 X73.848 Y141.465
G1 F1380 X113.863 Y101.450 E1095.66179
G0 F10500 X114.218 Y101.802
G1 F1380 X74.492 Y141.528 E1097.33505
G0 F10500 X75.136 Y141.591
G1 F1380 X114.630 Y102.097 E1098.99854
G0 F10500 X115.059 Y102.376
G1 F1380 X75.780 Y141.654 E1100.65295
G0 F10500 X76.424 Y141.718
G1 F1380 X115.488 Y102.654 E1102.29833
G0 F10500 X115.967 Y102.881
G1 F1380 X77.067 Y141.781 E1103.93680
G0 F10500 X77.711 Y141.844
G1 F1380 X116.474 Y103.082 E1105.56948
G0 F10500 X116.529 Y103.733
G1 F1380 X78.355 Y141.908 E1107.17739
G0 F10500 X78.999 Y141.971
G1 F1380 X116.585 Y104.385 E1108.76051
G0 F10500 X116.726 Y104.951
G1 F1380 X79.642 Y142.035 E1110.32249
G0 F10500 X80.349 Y142.035
G1 F1380 X116.867 Y105.517 E1111.86064
G0 F10500 X117.008 Y106.083
G1 F1380 X81.133 Y141.958 E1113.37169
G0 F10500 X81.917 Y141.881
G1 F1380 X117.222 Y106.576 E1114.85874
G0 F10500 X117.440 Y107.065
G1 F1380 X82.702 Y141.803 E1116.32191
G0 F10500 X83.486 Y141.726
G1 F1380 X117.657 Y107.555 E1117.76119
G0 F10500 X117.921 Y107.999
G1 F1380 X84.270 Y141.649 E1119.17855
G0 F10500 X85.055 Y141.572
G1 F1380 X118.207 Y108.419 E1120.57494
G0 F10500 X118.493 Y108.841
G1 F1380 X85.839 Y141.495 E1121.95033
G0 F10500 X86.623 Y141.418
G1 F1380 X118.801 Y109.240 E1123.30567
G0 F10500 X119.156 Y109.592
G1 F1380 X87.407 Y141.341 E1124.64294
G0 F10500 X88.192 Y141.263
G1 F1380 X119.511 Y109.944 E1125.96209
G0 F10500 X119.866 Y110.296
G1 F1380 X88.976 Y141.186 E1127.26318
G0 F10500 X89.760 Y141.109
G1 F1380 X120.294 Y110.575 E1128.54928
G0 F10500 X120.724 Y110.853
G1 F1380 X90.545 Y141.032 E1129.82042
G0 F10500 X91.329 Y140.955
G1 F1380 X121.153 Y111.131 E1131.07661
G0 F10500 X121.649 Y111.341
G1 F1380 X92.113 Y140.878 E1132.32069
G0 F10500 X93.015 Y140.683
G1 F1380 X122.167 Y111.531 E1133.54857
G0 F10500 X122.684 Y111.721
G1 F1380 X94.031 Y140.374 E1134.75544
G0 F10500 X95.045 Y140.067
G1 F1380 X123.300 Y111.812 E1135.94554
G0 F10500 X123.931 Y111.888
G1 F1380 X96.060 Y139.759 E1137.11947
G0 F10500 X97.075 Y139.452
G1 F1380 X124.626 Y111.901 E1138.27992
G0 F10500 X125.428 Y111.805
G1 F1380 X98.090 Y139.143 E1139.43140
G0 F10500 X99.105 Y138.836
G1 F1380 X126.357 Y111.584 E1140.57925
G0 F10500 X127.560 Y111.087
G1 F1380 X100.119 Y138.528 E1141.73507
G0 F10500 X101.135 Y138.220
G1 F1380 X140.218 Y99.137 E1143.38125
G0 F10500 X132.058 Y115.075
G1 F1380 X117.074 Y130.058 E1144.01235
G0 F10500 X121.019 Y126.821
G1 F1380 X128.820 Y119.020 E1144.34093
G0 F10500 X125.581 Y122.966
G1 F1380 X124.964 Y123.583 E1144.36692
G0 F10500 X117.133 Y105.650
G0 X112.348 Y99.179
G0 X111.195 Y95.522
G0 X108.439 Y87.495
G0 X108.439 Y83.980
G0 X109.559 Y80.721
G0 X108.296 Y73.105
G0 X109.021 Y69.301
G0 X110.958 Y60.390
G0 X112.592 Y57.439
G0 X114.566 Y55.493
G1 F1380 X117.562 Y52.497 E1144.49311
G0 F10500 X117.325 Y53.440
G1 F1380 X115.865 Y54.901 E1144.55463
G0 F10500 X116.841 Y54.631
G1 F1380 X117.228 Y54.244 E1144.57093
G0 F10500 X118.623 Y50.402
G0 X120.822 Y47.803
G0 X129.464 Y37.766
G1 F1380 X39.765 Y127.465 E1148.34906
G0 F10500 X39.376 Y127.146
G1 F1380 X129.145 Y37.378 E1152.13011
G0 F10500 X128.827 Y36.989
G1 F1380 X38.988 Y126.828 E1155.91413
G0 F10500 X38.600 Y126.509
G1 F1380 X128.508 Y36.601 E1159.70106
G0 F10500 X128.189 Y36.213
G1 F1380 X38.212 Y126.190 E1163.49090
G0 F10500 X37.823 Y125.872
G1 F1380 X127.870 Y35.824 E1167.28371
G0 F10500 X127.551 Y35.436
G1 F1380 X37.434 Y125.553 E1171.07944
G0 F10500 X37.046 Y125.234
G1 F1380 X127.233 Y35.047 E1174.87812
G0 F10500 X126.914 Y34.659
G1 F1380 X36.658 Y124.915 E1178.67971
G0 F10500 X36.269 Y124.597
G1 F1380 X126.595 Y34.271 E1182.48425
G0 F10500 X126.276 Y33.883
G1 F1380 X35.881 Y124.278 E1186.29169
G0 F10500 X35.493 Y123.959
G1 F1380 X125.957 Y33.494 E1190.10206
G0 F10500 X125.639 Y33.106
G1 F1380 X35.104 Y123.641 E1193.91540
G0 F10500 X34.716 Y123.322
G1 F1380 X125.320 Y32.717 E1197.73167
G0 F10500 X124.936 Y32.394
G1 F1380 X34.394 Y122.936 E1201.54530
G0 F10500 X34.075 Y122.548
G1 F1380 X124.548 Y32.075 E1205.35603
G0 F10500 X124.160 Y31.756
G1 F1380 X33.757 Y122.159 E1209.16381
G0 F10500 X33.438 Y121.771
G1 F1380 X123.771 Y31.438 E1212.96864
G0 F10500 X123.383 Y31.119
G1 F1380 X33.119 Y121.383 E1216.77057
G0 F10500 X32.800 Y120.995
G1 F1380 X122.994 Y30.800 E1220.56957
G0 F10500 X122.606 Y30.481
G1 F1380 X32.482 Y120.606 E1224.36562
G0 F10500 X32.163 Y120.218
G1 F1380 X122.217 Y30.163 E1228.15872
G0 F10500 X121.829 Y29.844
G1 F1380 X31.844 Y119.829 E1231.94889
G0 F10500 X31.525 Y119.441
G1 F1380 X121.441 Y29.525 E1235.73616
G0 F10500 X121.053 Y29.207
G1 F1380 X31.207 Y119.052 E1239.52046
G0 F10500 X30.888 Y118.664
G1 F1380 X120.664 Y28.888 E1243.30183
G0 F10500 X120.276 Y28.569
G1 F1380 X30.569 Y118.276 E1247.08029
G0 F10500 X30.250 Y117.888
G1 F1380 X119.887 Y28.251 E1250.85581
G0 F10500 X119.499 Y27.932
G1 F1380 X29.932 Y117.499 E1254.62837
G0 F10500 X29.613 Y117.111
G1 F1380 X119.111 Y27.613 E1258.39804
G0 F10500 X118.722 Y27.295
G1 F1380 X29.294 Y116.722 E1262.16473
G0 F10500 X28.975 Y116.334
G1 F1380 X118.334 Y26.976 E1265.92851
G0 F10500 X117.946 Y26.657
G1 F1380 X28.657 Y115.945 E1269.68935
G0 F10500 X28.338 Y115.557
G1 F1380 X117.557 Y26.338 E1273.44726
G0 F10500 X117.169 Y26.020
G1 F1380 X28.019 Y115.169 E1277.20224
G0 F10500 X27.700 Y114.781
G1 F1380 X116.780 Y25.701 E1280.95430
G0 F10500 X116.392 Y25.382
G1 F1380 X27.382 Y114.392 E1284.70340
G0 F10500 X27.063 Y114.003
G1 F1380 X116.004 Y25.063 E1288.44958
G0 F10500 X115.616 Y24.744
G1 F1380 X26.744 Y113.615 E1292.19286
G0 F10500 X26.493 Y113.159
G1 F1380 X115.159 Y24.494 E1295.92745
G0 F10500 X114.699 Y24.247
G1 F1380 X26.247 Y112.698 E1299.65304
G0 F10500 X26.001 Y112.238
G1 F1380 X114.238 Y24.001 E1303.36958
G0 F10500 X113.777 Y23.755
G1 F1380 X25.754 Y111.777 E1307.07710
G0 F10500 X25.508 Y111.316
G1 F1380 X113.316 Y23.508 E1310.77557
G0 F10500 X112.855 Y23.262
G1 F1380 X25.262 Y110.855 E1314.46500
G0 F10500 X25.016 Y110.394
G1 F1380 X112.395 Y23.015 E1318.14541
G0 F10500 X111.934 Y22.769
G1 F1380 X24.769 Y109.933 E1321.81678
G0 F10500 X24.523 Y109.473
G1 F1380 X111.473 Y22.523 E1325.47912
G0 F10500 X111.012 Y22.276
G1 F1380 X24.277 Y109.012 E1329.13242
G0 F10500 X24.031 Y108.551
G1 F1380 X110.551 Y22.030 E1332.77667
G0 F10500 X110.090 Y21.784
G1 F1380 X23.784 Y108.091 E1336.41191
G0 F10500 X23.538 Y107.630
G1 F1380 X109.630 Y21.537 E1340.03813
G0 F10500 X109.169 Y21.291
G1 F1380 X23.292 Y107.169 E1343.65529
G0 F10500 X23.046 Y106.708
G1 F1380 X108.709 Y21.044 E1347.26345
G0 F10500 X108.248 Y20.798
G1 F1380 X22.799 Y106.247 E1350.86256
G0 F10500 X22.553 Y105.786
G1 F1380 X107.787 Y20.552 E1354.45263
G0 F10500 X107.326 Y20.305
G1 F1380 X22.307 Y105.325 E1358.03365
G0 F10500 X22.060 Y104.865
G1 F1380 X106.865 Y20.059 E1361.60566
G0 F10500 X106.405 Y19.813
G1 F1380 X21.814 Y104.404 E1365.16864
G0 F10500 X21.568 Y103.943
G1 F1380 X105.944 Y19.567 E1368.72257
G0 F10500 X105.483 Y19.320
G1 F1380 X21.321 Y103.482 E1372.26747
G0 F10500 X21.075 Y103.021
G1 F1380 X105.023 Y19.074 E1375.80335
G0 F10500 X104.562 Y18.828
G1 F1380 X20.829 Y102.560 E1379.33017
G0 F10500 X20.657 Y102.025
G1 F1380 X104.027 Y18.655 E1382.84172
G0 F10500 X103.485 Y18.490
G1 F1380 X20.493 Y101.482 E1386.33734
G0 F10500 X20.328 Y100.940
G1 F1380 X102.942 Y18.326 E1389.81705
G0 F10500 X102.399 Y18.162
G1 F1380 X20.163 Y100.397 E1393.28081
G0 F10500 X19.999 Y99.855
G1 F1380 X101.857 Y17.997 E1396.72868
G0 F10500 X101.314 Y17.833
G1 F1380 X19.834 Y99.313 E1400.16062
G0 F10500 X19.670 Y98.770
G1 F1380 X100.771 Y17.668 E1403.57662
G0 F10500 X100.229 Y17.503
G1 F1380 X19.505 Y98.227 E1406.97672
G0 F10500 X19.340 Y97.685
G1 F1380 X99.686 Y17.339 E1410.36090
G0 F10500 X99.144 Y17.174
G1 F1380 X19.176 Y97.143 E1413.72918
G0 F10500 X19.011 Y96.599
G1 F1380 X98.601 Y17.010 E1417.08149
G0 F10500 X98.058 Y16.846
G1 F1380 X18.847 Y96.057 E1420.41786
G0 F10500 X18.682 Y95.515
G1 F1380 X97.516 Y16.681 E1423.73836
G0 F10500 X96.974 Y16.516
G1 F1380 X18.517 Y94.972 E1427.04295
G0 F10500 X18.353 Y94.429
G1 F1380 X96.431 Y16.351 E1430.33160
G0 F10500 X95.888 Y16.187
G1 F1380 X18.188 Y93.887 E1433.60433
G0 F10500 X18.024 Y93.345
G1 F1380 X95.346 Y16.023 E1436.86114
G0 F10500 X94.803 Y15.858
G1 F1380 X17.859 Y92.802 E1440.10202
G0 F10500 X17.695 Y92.259
G1 F1380 X94.260 Y15.694 E1443.32694
G0 F10500 X93.718 Y15.529
G1 F1380 X17.530 Y91.717 E1446.53599
G0 F10500 X17.365 Y91.175
G1 F1380 X93.176 Y15.364 E1449.72915
G0 F10500 X92.633 Y15.200
G1 F1380 X17.201 Y90.632 E1452.90635
G0 F10500 X17.112 Y90.013
G1 F1380 X92.015 Y15.111 E1456.06125
G0 F10500 X91.370 Y15.048
G1 F1380 X17.049 Y89.369 E1459.19166
G0 F10500 X16.986 Y88.726
G1 F1380 X90.727 Y14.985 E1462.29763
G0 F10500 X90.083 Y14.921
G1 F1380 X16.923 Y88.082 E1465.37916
G0 F10500 X16.859 Y87.438
G1 F1380 X89.439 Y14.858 E1468.43623
G0 F10500 X88.796 Y14.794
G1 F1380 X16.796 Y86.794 E1471.46887
G0 F10500 X16.732 Y86.151
G1 F1380 X88.152 Y14.731 E1474.47709
G0 F10500 X87.508 Y14.668
G1 F1380 X16.669 Y85.507 E1477.46083
G0 F10500 X16.606 Y84.863
G1 F1380 X86.865 Y14.604 E1480.42015
G0 F10500 X86.221 Y14.541
G1 F1380 X16.542 Y84.219 E1483.35501
G0 F10500 X16.479 Y83.575
G1 F1380 X85.577 Y14.478 E1486.26540
G0 F10500 X84.933 Y14.415
G1 F1380 X16.416 Y82.932 E1489.15134
G0 F10500 X16.353 Y82.288
G1 F1380 X84.289 Y14.351 E1492.01283
G0 F10500 X83.646 Y14.287
G1 F1380 X16.289 Y81.644 E1494.84991
G0 F10500 X16.226 Y81.000
G1 F1380 X83.002 Y14.224 E1497.66252
G0 F10500 X82.358 Y14.161
G1 F1380 X16.163 Y80.357 E1500.45068
G0 F10500 X16.100 Y79.712
G1 F1380 X81.714 Y14.098 E1503.21434
G0 F10500 X81.071 Y14.034
G1 F1380 X16.036 Y79.069 E1505.95362
G0 F10500 X15.973 Y78.425
G1 F1380 X80.427 Y13.971 E1508.66843
G0 F10500 X79.735 Y13.956
G1 F1380 X15.955 Y77.735 E1511.35482
G0 F10500 X16.033 Y76.950
G1 F1380 X78.951 Y14.033 E1514.00491
G0 F10500 X78.167 Y14.110
G1 F1380 X16.110 Y76.166 E1516.61874
G0 F10500 X16.187 Y75.382
G1 F1380 X77.382 Y14.187 E1519.19627
G0 F10500 X76.598 Y14.265
G1 F1380 X16.264 Y74.598 E1521.73753
G0 F10500 X16.341 Y73.814
G1 F1380 X75.813 Y14.342 E1524.24249
G0 F10500 X75.029 Y14.419
G1 F1380 X16.419 Y73.029 E1526.71115
G0 F10500 X16.496 Y72.245
G1 F1380 X74.245 Y14.496 E1529.14354
G0 F10500 X73.461 Y14.573
G1 F1380 X16.573 Y71.460 E1531.53964
G0 F10500 X16.650 Y70.676
G1 F1380 X72.677 Y14.650 E1533.89948
G0 F10500 X71.892 Y14.728
G1 F1380 X16.728 Y69.892 E1536.22299
G0 F10500 X16.805 Y69.107
G1 F1380 X71.108 Y14.805 E1538.51022
G0 F10500 X70.323 Y14.882
G1 F1380 X16.882 Y68.323 E1540.76116
G0 F10500 X16.959 Y67.539
G1 F1380 X69.539 Y14.959 E1542.97583
G0 F10500 X68.755 Y15.036
G1 F1380 X17.037 Y66.755 E1545.15422
G0 F10500 X17.114 Y65.970
G1 F1380 X67.971 Y15.113 E1547.29632
G0 F10500 X67.093 Y15.284
G1 F1380 X17.284 Y65.093 E1549.39427
G0 F10500 X17.592 Y64.078
G1 F1380 X66.078 Y15.592 E1551.43651
G0 F10500 X65.063 Y15.900
G1 F1380 X17.900 Y63.063 E1553.42302
G0 F10500 X18.207 Y62.048
G1 F1380 X64.049 Y16.207 E1555.35386
G0 F10500 X63.034 Y16.515
G1 F1380 X18.516 Y61.033 E1557.22896
G0 F10500 X18.823 Y60.018
G1 F1380 X62.018 Y16.823 E1559.04834
G0 F10500 X61.004 Y17.131
G1 F1380 X19.131 Y59.003 E1560.81201
G0 F10500 X19.439 Y57.988
G1 F1380 X59.989 Y17.438 E1562.51998
G0 F10500 X58.974 Y17.746
G1 F1380 X19.747 Y56.973 E1564.17222
G0 F10500 X20.055 Y55.958
G1 F1380 X57.959 Y18.054 E1565.76874
G0 F10500 X56.944 Y18.362
G1 F1380 X20.363 Y54.943 E1567.30954
G0 F10500 X20.670 Y53.928
G1 F1380 X55.930 Y18.669 E1568.79467
G0 F10500 X54.634 Y19.258
G1 F1380 X21.259 Y52.633 E1570.20043
G0 F10500 X22.070 Y51.114
G1 F1380 X53.115 Y20.070 E1571.50802
G0 F10500 X51.595 Y20.882
G1 F1380 X22.882 Y49.595 E1572.71742
G0 F10500 X23.694 Y48.076
G1 F1380 X50.075 Y21.695 E1573.82858
G0 F10500 X48.557 Y22.507
G1 F1380 X24.506 Y46.557 E1574.84159
G0 F10500 X25.318 Y45.038
G1 F1380 X47.037 Y23.319 E1575.75640
G0 F10500 X45.517 Y24.132
G1 F1380 X26.130 Y43.519 E1576.57298
G0 F10500 X27.592 Y41.350
G1 F1380 X43.344 Y25.598 E1577.23646
G0 F10500 X39.402 Y28.832
G1 F1380 X30.829 Y37.405 E1577.59755
G0 F10500 X34.067 Y33.460
G1 F1380 X35.460 Y32.067 E1577.65622
;LAYER:2
G0 F10500 X34.571 Y32.571 Z1.185
;TYPE:WALL-INNER
G1 F1440 X44.308 Y24.582 E1578.03135
G1 X55.415 Y18.645 E1578.40644
G1 X67.471 Y14.987 E1578.78168
G1 X80.001 Y13.753 E1579.15667
G1 X92.530 Y14.987 E1579.53163
G1 X104.587 Y18.645 E1579.90689
G1 X115.693 Y24.582 E1580.28196
G1 X125.429 Y32.571 E1580.65706
G1 X133.422 Y42.310 E1581.03230
G1 X139.355 Y53.413 E1581.40724
G1 X143.013 Y65.471 E1581.78253
G1 X144.247 Y78.000 E1582.15749
G1 X143.013 Y90.531 E1582.53251
G1 X139.355 Y102.589 E1582.90780
G1 X133.423 Y113.689 E1583.28264
G1 X125.429 Y123.430 E1583.65795
G1 X115.689 Y131.423 E1584.03321
G1 X104.590 Y137.356 E1584.40805
G1 X92.531 Y141.014 E1584.78336
G1 X80.000 Y142.247 E1585.15838
G1 X67.471 Y141.014 E1585.53334
G1 X55.415 Y137.356 E1585.90857
G1 X44.308 Y131.420 E1586.28366
G1 X34.571 Y123.430 E1586.65880
G1 X26.581 Y113.693 E1587.03394
G1 X20.644 Y102.585 E1587.40906
G1 X16.987 Y90.531 E1587.78423
G1 X15.755 Y78.009 E1588.15898
G1 X15.754 Y77.996 E1588.15936
G1 X16.987 Y65.471 E1588.53420
G1 X20.645 Y53.415 E1588.90944
G1 X26.581 Y42.308 E1589.28452
G1 X34.571 Y32.571 E1589.65966
G0 F10500 X110.909 Y60.373
G1 F1440 X110.629 Y61.489 E1589.69393
G1 X110.481 Y62.075 E1589.71193
G1 X110.337 Y63.842 E1589.76473
G1 X110.430 Y65.000 E1589.79933
G1 X110.481 Y65.607 E1589.81747
G1 X110.690 Y66.441 E1589.84308
G1 X110.460 Y66.669 E1589.85273
G1 X109.841 Y67.580 E1589.88553
G1 X109.514 Y68.060 E1589.90283
G1 X108.816 Y69.639 E1589.95425
G1 X108.669 Y70.225 E1589.97224
G1 X108.388 Y71.340 E1590.00649
G1 X108.246 Y73.105 E1590.05922
G1 X108.338 Y74.264 E1590.09385
G1 X108.389 Y74.872 E1590.11202
G1 X108.816 Y76.574 E1590.16429
G1 X109.514 Y78.150 E1590.21562
G1 X110.379 Y79.421 E1590.26141
G1 X109.513 Y80.695 E1590.30729
G1 X108.816 Y82.270 E1590.35859
G1 X108.388 Y83.972 E1590.41086
G1 X108.246 Y85.737 E1590.46360
G1 X108.338 Y86.896 E1590.49822
G1 X108.389 Y87.504 E1590.51640
G1 X108.816 Y89.206 E1590.56866
G1 X109.514 Y90.782 E1590.61999
G1 X110.131 Y91.691 E1590.65271
G1 X110.461 Y92.175 E1590.67016
G1 X111.141 Y92.849 E1590.69868
G1 X111.083 Y93.568 E1590.72016
G1 X111.035 Y94.158 E1590.73779
G1 X111.127 Y95.318 E1590.77245
G1 X111.178 Y95.926 E1590.79062
G1 X111.458 Y97.041 E1590.82486
G1 X111.606 Y97.628 E1590.84289
G1 X112.061 Y98.658 E1590.87643
G1 X112.303 Y99.204 E1590.89421
G1 X112.920 Y100.112 E1590.92691
G1 X113.250 Y100.596 E1590.94436
G1 X114.412 Y101.748 E1590.99309
G1 X115.752 Y102.616 E1591.04064
G1 X116.640 Y102.941 E1591.06880
G1 X116.756 Y104.346 E1591.11079
G1 X117.182 Y106.050 E1591.16311
G1 X117.638 Y107.081 E1591.19668
G1 X117.881 Y107.626 E1591.21445
G1 X118.825 Y109.017 E1591.26452
G1 X119.748 Y109.932 E1591.30323
G1 X119.988 Y110.171 E1591.31332
G1 X121.178 Y110.937 E1591.35547
G1 X121.329 Y111.036 E1591.36085
G1 X122.798 Y111.576 E1591.40746
G1 X124.334 Y111.759 E1591.45353
G1 X125.693 Y111.598 E1591.49429
G1 X125.872 Y111.576 E1591.49966
G1 X127.339 Y111.036 E1591.54622
G1 X128.680 Y110.171 E1591.59375
G1 X129.719 Y109.139 E1591.63736
G1 X129.843 Y109.019 E1591.64250
G1 X130.790 Y107.626 E1591.69267
G1 X131.488 Y106.050 E1591.74401
G1 X131.915 Y104.346 E1591.79633
G1 X132.058 Y102.581 E1591.84907
G1 X131.915 Y100.817 E1591.90178
G1 X131.530 Y99.280 E1591.94897
G1 X131.487 Y99.112 E1591.95413
G1 X130.790 Y97.536 E1592.00546
G1 X129.843 Y96.145 E1592.05557
G1 X128.681 Y94.991 E1592.10435
G1 X127.338 Y94.126 E1592.15193
G1 X126.452 Y93.801 E1592.18004
G1 X126.388 Y93.001 E1592.20394
G1 X126.337 Y92.394 E1592.22208
G1 X125.910 Y90.693 E1592.27431
G1 X125.214 Y89.115 E1592.32568
G1 X124.266 Y87.722 E1592.37586
G1 X123.586 Y87.048 E1592.40438
G1 X123.694 Y85.737 E1592.44356
G1 X123.548 Y83.971 E1592.49634
G1 X123.121 Y82.270 E1592.54857
G1 X122.424 Y80.695 E1592.59987
G1 X121.560 Y79.421 E1592.64571
G1 X122.424 Y78.149 E1592.69151
G1 X123.121 Y76.574 E1592.74281
G1 X123.548 Y74.872 E1592.79507
G1 X123.693 Y73.105 E1592.84787
G1 X123.644 Y72.500 E1592.86595
G1 X123.548 Y71.340 E1592.90062
G1 X123.339 Y70.507 E1592.92620
G1 X123.569 Y70.279 E1592.93584
G1 X124.188 Y69.367 E1592.96867
G1 X124.515 Y68.887 E1592.98597
G1 X125.213 Y67.309 E1593.03736
G1 X125.641 Y65.606 E1593.08966
G1 X125.729 Y64.514 E1593.12229
G1 X126.567 Y64.414 E1593.14742
G1 X127.523 Y64.064 E1593.17774
G1 X128.037 Y63.875 E1593.19405
G1 X129.377 Y63.010 E1593.24156
G1 X130.541 Y61.856 E1593.29037
G1 X131.390 Y60.607 E1593.33535
G1 X131.486 Y60.465 E1593.34046
G1 X132.185 Y58.887 E1593.39186
G1 X132.612 Y57.184 E1593.44415
G1 X132.755 Y55.420 E1593.49686
G1 X132.612 Y53.655 E1593.54960
G1 X132.227 Y52.117 E1593.59682
G1 X132.184 Y51.949 E1593.60199
G1 X131.486 Y50.375 E1593.65327
G1 X130.541 Y48.983 E1593.70338
G1 X129.502 Y47.955 E1593.74691
G1 X129.376 Y47.830 E1593.75220
G1 X128.187 Y47.062 E1593.79435
G1 X128.038 Y46.965 E1593.79965
G1 X126.567 Y46.425 E1593.84632
G1 X125.212 Y46.263 E1593.88696
G1 X125.032 Y46.242 E1593.89236
G1 X123.673 Y46.403 E1593.93312
G1 X123.494 Y46.425 E1593.93849
G1 X122.027 Y46.965 E1593.98505
G1 X120.824 Y47.741 E1594.02769
G1 X120.668 Y47.847 E1594.03330
G1 X119.522 Y48.984 E1594.08138
G1 X118.577 Y50.376 E1594.13149
G1 X117.880 Y51.951 E1594.18279
G1 X117.452 Y53.655 E1594.23512
G1 X117.403 Y54.262 E1594.25326
G1 X117.364 Y54.747 E1594.26775
G1 X116.524 Y54.847 E1594.29294
G1 X115.055 Y55.385 E1594.33954
G1 X113.714 Y56.253 E1594.38711
G1 X112.551 Y57.405 E1594.43587
G1 X111.605 Y58.798 E1594.48602
G1 X111.149 Y59.831 E1594.51965
G1 X110.909 Y60.373 E1594.53730
G0 F10500 X111.384 Y60.536
;TYPE:WALL-OUTER
G1 F1320 X110.975 Y62.157 E1594.58709
G1 X110.838 Y63.842 E1594.63744
G1 X110.975 Y65.525 E1594.68774
G1 X111.245 Y66.594 E1594.72057
G1 X110.847 Y66.990 E1594.73730
G1 X109.952 Y68.304 E1594.78465
G1 X109.291 Y69.802 E1594.83341
G1 X108.883 Y71.422 E1594.88317
G1 X108.747 Y73.105 E1594.93346
G1 X108.883 Y74.790 E1594.98381
G1 X109.291 Y76.411 E1595.03359
G1 X109.953 Y77.906 E1595.08229
G1 X110.847 Y79.220 E1595.12962
G1 X111.049 Y79.421 E1595.13811
G1 X110.847 Y79.621 E1595.14657
G1 X109.952 Y80.938 E1595.19400
G1 X109.291 Y82.433 E1595.24268
G1 X108.883 Y84.053 E1595.29244
G1 X108.747 Y85.737 E1595.34276
G1 X108.883 Y87.422 E1595.39311
G1 X109.291 Y89.043 E1595.44289
G1 X109.953 Y90.539 E1595.49161
G1 X110.847 Y91.854 E1595.53897
G1 X111.659 Y92.658 E1595.57301
G1 X111.536 Y94.159 E1595.61786
G1 X111.672 Y95.844 E1595.66821
G1 X112.081 Y97.465 E1595.71800
G1 X112.741 Y98.960 E1595.76667
G1 X113.636 Y100.275 E1595.81405
G1 X114.727 Y101.357 E1595.85981
G1 X115.977 Y102.166 E1595.90416
G1 X117.112 Y102.581 E1595.94015
G1 X117.251 Y104.265 E1595.99048
G1 X117.657 Y105.886 E1596.04025
G1 X118.319 Y107.382 E1596.08897
G1 X119.212 Y108.696 E1596.13629
G1 X120.304 Y109.779 E1596.18209
G1 X121.555 Y110.586 E1596.22643
G1 X122.915 Y111.087 E1596.26960
G1 X124.334 Y111.256 E1596.31216
G1 X125.754 Y111.087 E1596.35475
G1 X127.114 Y110.586 E1596.39792
G1 X128.365 Y109.779 E1596.44226
G1 X129.457 Y108.697 E1596.48804
G1 X130.351 Y107.382 E1596.53540
G1 X131.013 Y105.887 E1596.58410
G1 X131.420 Y104.265 E1596.63390
G1 X131.557 Y102.581 E1596.68422
G1 X131.420 Y100.898 E1596.73452
G1 X131.045 Y99.403 E1596.78042
G1 X131.013 Y99.277 E1596.78429
G1 X130.351 Y97.780 E1596.83304
G1 X129.457 Y96.466 E1596.88038
G1 X128.366 Y95.383 E1596.92616
G1 X127.114 Y94.576 E1596.97053
G1 X125.979 Y94.159 E1597.00654
G1 X125.843 Y92.476 E1597.05683
G1 X125.435 Y90.856 E1597.10658
G1 X124.775 Y89.358 E1597.15534
G1 X123.880 Y88.043 E1597.20271
G1 X123.069 Y87.239 E1597.23673
G1 X123.192 Y85.737 E1597.28161
G1 X123.053 Y84.053 E1597.33194
G1 X122.646 Y82.433 E1597.38168
G1 X121.985 Y80.938 E1597.43037
G1 X121.092 Y79.621 E1597.47776
G1 X120.890 Y79.421 E1597.48623
G1 X121.092 Y79.220 E1597.49471
G1 X121.985 Y77.906 E1597.54203
G1 X122.646 Y76.411 E1597.59072
G1 X123.053 Y74.790 E1597.64049
G1 X123.192 Y73.105 E1597.69085
G1 X123.054 Y71.422 E1597.74114
G1 X122.785 Y70.352 E1597.77400
G1 X123.182 Y69.958 E1597.79066
G1 X124.077 Y68.643 E1597.83804
G1 X124.738 Y67.146 E1597.88678
G1 X125.146 Y65.525 E1597.93656
G1 X125.264 Y64.066 E1597.98016
G1 X126.450 Y63.925 E1598.01573
G1 X127.812 Y63.425 E1598.05894
G1 X129.062 Y62.618 E1598.10325
G1 X130.154 Y61.535 E1598.14906
G1 X131.047 Y60.221 E1598.19638
G1 X131.710 Y58.724 E1598.24514
G1 X132.117 Y57.103 E1598.29492
G1 X132.254 Y55.420 E1598.34521
G1 X132.117 Y53.736 E1598.39553
G1 X131.742 Y52.240 E1598.44146
G1 X131.710 Y52.114 E1598.44534
G1 X131.047 Y50.619 E1598.49404
G1 X130.154 Y49.304 E1598.54139
G1 X129.061 Y48.222 E1598.58719
G1 X127.812 Y47.415 E1598.63148
G1 X126.450 Y46.914 E1598.67470
G1 X125.031 Y46.745 E1598.71726
G1 X123.612 Y46.914 E1598.75983
G1 X122.252 Y47.415 E1598.80299
G1 X121.100 Y48.158 E1598.84382
G1 X120.987 Y48.234 E1598.84788
G1 X119.909 Y49.305 E1598.89313
G1 X119.016 Y50.619 E1598.94045
G1 X118.355 Y52.114 E1598.98914
G1 X117.947 Y53.736 E1599.03895
G1 X117.828 Y55.196 E1599.08258
G1 X116.642 Y55.336 E1599.11815
G1 X115.280 Y55.835 E1599.16135
G1 X114.029 Y56.644 E1599.20572
G1 X112.938 Y57.726 E1599.25148
G1 X112.044 Y59.041 E1599.29884
G1 X111.384 Y60.536 E1599.34751
G0 F10500 X111.046 Y60.450
G0 X111.651 Y58.823
G0 X113.747 Y56.293
G0 X116.537 Y54.897
G0 X118.623 Y50.401
G0 X120.852 Y47.783
G0 X123.508 Y46.475
G0 X126.554 Y46.475
G0 X133.543 Y42.220
G0 X133.839 Y42.030
G1 F1320 X139.820 Y53.222 E1599.72546
G1 X143.504 Y65.368 E1600.10348
G1 X144.749 Y78.000 E1600.48153
G1 X143.504 Y90.635 E1600.85967
G1 X139.820 Y102.778 E1601.23760
G1 X133.839 Y113.971 E1601.61558
G1 X125.784 Y123.785 E1601.99372
G1 X115.971 Y131.839 E1602.37182
G1 X104.779 Y137.821 E1602.74978
G1 X92.635 Y141.505 E1603.12774
G1 X80.000 Y142.749 E1603.50588
G1 X67.368 Y141.505 E1603.88392
G1 X55.226 Y137.822 E1604.26182
G1 X44.027 Y131.837 E1604.64001
G1 X34.216 Y123.785 E1605.01802
G1 X26.164 Y113.974 E1605.39604
G1 X20.178 Y102.774 E1605.77427
G1 X16.496 Y90.635 E1606.15207
G1 X15.258 Y78.060 E1606.52841
G1 X15.252 Y77.998 E1606.53026
G1 X16.496 Y65.368 E1606.90825
G1 X20.179 Y53.226 E1607.28615
G1 X26.164 Y42.027 E1607.66434
G1 X34.216 Y32.216 E1608.04235
G1 X44.027 Y24.165 E1608.42035
G1 X55.226 Y18.179 E1608.79855
G1 X67.368 Y14.496 E1609.17645
G1 X80.000 Y13.251 E1609.55449
G1 X92.633 Y14.496 E1609.93257
G1 X104.776 Y18.179 E1610.31050
G1 X115.974 Y24.165 E1610.68868
G1 X125.784 Y32.216 E1611.06665
G1 X133.839 Y42.030 E1611.44479
G0 F10500 X133.281 Y42.417
;TYPE:SKIN
G1 F1920 X115.587 Y24.723 E1612.19006
G0 F10500 X114.067 Y23.911
G1 F1920 X134.092 Y43.936 E1613.03352
G0 F10500 X134.904 Y45.455
G1 F1920 X112.548 Y23.099 E1613.97515
G0 F10500 X111.029 Y22.287
G1 F1920 X135.715 Y46.973 E1615.01493
G0 F10500 X136.527 Y48.492
G1 F1920 X109.510 Y21.475 E1616.15289
G0 F10500 X107.990 Y20.663
G1 F1920 X137.338 Y50.010 E1617.38900
G0 F10500 X138.150 Y51.529
G1 F1920 X106.471 Y19.850 E1618.72332
G0 F10500 X104.952 Y19.038
G1 F1920 X138.962 Y53.048 E1620.15583
G0 F10500 X139.412 Y54.206
G1 F1920 X103.794 Y18.587 E1621.65608
G0 F10500 X102.778 Y18.279
G1 F1920 X139.720 Y55.221 E1623.21208
G0 F10500 X140.951 Y59.281
G1 F1920 X130.959 Y49.288 E1623.63297
G0 F10500 X131.944 Y50.980
G1 F1920 X141.260 Y60.296 E1624.02536
G0 F10500 X141.567 Y61.311
G1 F1920 X132.416 Y52.159 E1624.41082
G0 F10500 X132.652 Y53.103
G1 F1920 X141.876 Y62.326 E1624.79931
G0 F10500 X142.183 Y63.341
G1 F1920 X132.811 Y53.969 E1625.19406
G0 F10500 X132.874 Y54.739
G1 F1920 X142.491 Y64.355 E1625.59911
G0 F10500 X142.799 Y65.371
G1 F1920 X132.924 Y55.495 E1626.01507
G0 F10500 X132.870 Y56.149
G1 F1920 X142.906 Y66.185 E1626.43778
G0 F10500 X142.984 Y66.970
G1 F1920 X132.817 Y56.803 E1626.86602
G0 F10500 X132.731 Y57.424
G1 F1920 X143.061 Y67.754 E1627.30112
G0 F10500 X143.138 Y68.538
G1 F1920 X132.588 Y57.989 E1627.74546
G0 F10500 X132.446 Y58.554
G1 F1920 X143.215 Y69.323 E1628.19905
G0 F10500 X143.293 Y70.107
G1 F1920 X132.282 Y59.096 E1628.66284
G0 F10500 X132.064 Y59.586
G1 F1920 X143.370 Y70.891 E1629.13903
G0 F10500 X143.447 Y71.676
G1 F1920 X131.847 Y60.075 E1629.62764
G0 F10500 X131.627 Y60.563
G1 F1920 X143.524 Y72.460 E1630.12874
G0 F10500 X143.602 Y73.244
G1 F1920 X131.342 Y60.985 E1630.64511
G0 F10500 X131.056 Y61.406
G1 F1920 X143.679 Y74.029 E1631.17680
G0 F10500 X143.756 Y74.814
G1 F1920 X130.770 Y61.828 E1631.72377
G0 F10500 X130.439 Y62.203
G1 F1920 X143.834 Y75.598 E1632.28796
G0 F10500 X143.911 Y76.382
G1 F1920 X130.084 Y62.555 E1632.87036
G0 F10500 X129.729 Y62.907
G1 F1920 X143.988 Y77.166 E1633.47095
G0 F10500 X144.065 Y77.951
G1 F1920 X129.350 Y63.235 E1634.09077
G0 F10500 X128.920 Y63.513
G1 F1920 X144.010 Y78.603 E1634.72636
G0 F10500 X143.947 Y79.247
G1 F1920 X128.490 Y63.790 E1635.37741
G0 F10500 X128.050 Y64.057
G1 F1920 X143.884 Y79.891 E1636.04434
G0 F10500 X143.820 Y80.534
G1 F1920 X127.533 Y64.247 E1636.73035
G0 F10500 X127.015 Y64.436
G1 F1920 X143.757 Y81.178 E1637.43552
G0 F10500 X143.693 Y81.822
G1 F1920 X126.473 Y64.601 E1638.16085
G0 F10500 X125.886 Y64.722
G1 F1920 X143.630 Y82.465 E1638.90821
G0 F10500 X143.567 Y83.109
G1 F1920 X125.833 Y65.375 E1639.65516
G0 F10500 X125.726 Y65.975
G1 F1920 X143.503 Y83.753 E1640.40395
G0 F10500 X143.440 Y84.396
G1 F1920 X125.584 Y66.541 E1641.15603
G0 F10500 X125.442 Y67.106
G1 F1920 X143.377 Y85.040 E1641.91143
G0 F10500 X143.313 Y85.684
G1 F1920 X125.260 Y67.631 E1642.67182
G0 F10500 X125.044 Y68.121
G1 F1920 X143.249 Y86.327 E1643.43864
G0 F10500 X143.187 Y86.972
G1 F1920 X124.826 Y68.611 E1644.21201
G0 F10500 X124.591 Y69.083
G1 F1920 X143.123 Y87.615 E1644.99258
G0 F10500 X143.060 Y88.259
G1 F1920 X124.305 Y69.504 E1645.78254
G0 F10500 X124.018 Y69.925
G1 F1920 X142.996 Y88.903 E1646.58189
G0 F10500 X142.933 Y89.546
G1 F1920 X123.732 Y70.345 E1647.39064
G0 F10500 X123.629 Y70.950
G1 F1920 X142.870 Y90.190 E1648.20105
G0 F10500 X142.753 Y90.781
G1 F1920 X123.759 Y71.786 E1649.00110
G0 F10500 X123.822 Y72.557
G1 F1920 X142.589 Y91.324 E1649.79157
G0 F10500 X142.424 Y91.866
G1 F1920 X123.851 Y73.293 E1650.57386
G0 F10500 X123.798 Y73.947
G1 F1920 X142.259 Y92.408 E1651.35144
G0 F10500 X142.095 Y92.952
G1 F1920 X123.744 Y74.600 E1652.12441
G0 F10500 X123.642 Y75.205
G1 F1920 X141.931 Y93.494 E1652.89474
G0 F10500 X141.766 Y94.036
G1 F1920 X123.501 Y75.771 E1653.66406
G0 F10500 X123.359 Y76.337
G1 F1920 X141.602 Y94.579 E1654.43244
G0 F10500 X141.437 Y95.122
G1 F1920 X123.181 Y76.866 E1655.20138
G0 F10500 X122.964 Y77.356
G1 F1920 X141.272 Y95.664 E1655.97252
G0 F10500 X141.108 Y96.207
G1 F1920 X122.747 Y77.846 E1656.74588
G0 F10500 X122.516 Y78.321
G1 F1920 X140.944 Y96.749 E1657.52207
G0 F10500 X140.779 Y97.292
G1 F1920 X122.230 Y78.743 E1658.30336
G0 F10500 X121.944 Y79.164
G1 F1920 X140.614 Y97.834 E1659.08974
G0 F10500 X140.450 Y98.377
G1 F1920 X122.354 Y80.281 E1659.85194
G0 F10500 X123.053 Y81.687
G1 F1920 X140.285 Y98.919 E1660.57776
G0 F10500 X140.120 Y99.462
G1 F1920 X123.424 Y82.766 E1661.28099
G0 F10500 X123.660 Y83.709
G1 F1920 X139.956 Y100.005 E1661.96738
G0 F10500 X139.792 Y100.547
G1 F1920 X123.767 Y84.523 E1662.64233
G0 F10500 X123.832 Y85.294
G1 F1920 X139.627 Y101.090 E1663.30764
G0 F10500 X139.463 Y101.633
G1 F1920 X123.846 Y86.016 E1663.96543
G0 F10500 X123.791 Y86.668
G1 F1920 X139.298 Y102.175 E1664.61859
G0 F10500 X139.104 Y102.688
G1 F1920 X125.200 Y88.784 E1665.20422
G0 F10500 X125.862 Y90.153
G1 F1920 X138.858 Y103.149 E1665.75162
G0 F10500 X138.612 Y103.610
G1 F1920 X126.222 Y91.220 E1666.27348
G0 F10500 X126.458 Y92.163
G1 F1920 X138.365 Y104.071 E1666.77503
G0 F10500 X138.119 Y104.532
G1 F1920 X130.739 Y97.151 E1667.08590
G0 F10500 X131.427 Y98.547
G1 F1920 X137.873 Y104.992 E1667.35738
G0 F10500 X137.627 Y105.453
G1 F1920 X131.794 Y99.620 E1667.60307
G0 F10500 X129.803 Y96.179
G0 X127.810 Y94.222
G1 F1920 X126.557 Y92.970 E1667.65582
G0 F10500 X129.803 Y96.179
G0 X131.481 Y99.292
G0 X132.030 Y100.564
G1 F1920 X137.380 Y105.914 E1667.88116
G0 F10500 X137.134 Y106.375
G1 F1920 X132.134 Y101.375 E1668.09176
G0 F10500 X132.197 Y102.145
G1 F1920 X136.888 Y106.836 E1668.28935
G0 F10500 X136.642 Y107.297
G1 F1920 X132.209 Y102.864 E1668.47607
G0 F10500 X132.156 Y103.519
G1 F1920 X136.395 Y107.757 E1668.65459
G0 F10500 X136.149 Y108.218
G1 F1920 X132.103 Y104.173 E1668.82499
G0 F10500 X131.989 Y104.765
G1 F1920 X135.903 Y108.679 E1668.98985
G0 F10500 X135.656 Y109.139
G1 F1920 X131.847 Y105.330 E1669.15028
G0 F10500 X131.705 Y105.896
G1 F1920 X135.410 Y109.600 E1669.30632
G0 F10500 X135.164 Y110.061
G1 F1920 X131.516 Y106.414 E1669.45995
G0 F10500 X131.299 Y106.903
G1 F1920 X134.918 Y110.522 E1669.61238
G0 F10500 X134.671 Y110.983
G1 F1920 X131.082 Y107.393 E1669.76357
G0 F10500 X130.840 Y107.859
G1 F1920 X134.425 Y111.444 E1669.91457
G0 F10500 X134.179 Y111.905
G1 F1920 X130.554 Y108.280 E1670.06726
G0 F10500 X130.268 Y108.702
G1 F1920 X133.932 Y112.365 E1670.22157
G0 F10500 X133.686 Y112.826
G1 F1920 X129.983 Y109.123 E1670.37754
G0 F10500 X129.628 Y109.475
G1 F1920 X133.440 Y113.287 E1670.53810
G0 F10500 X133.168 Y113.723
G1 F1920 X129.273 Y109.828 E1670.70216
G0 F10500 X128.919 Y110.180
G1 F1920 X132.850 Y114.112 E1670.86775
G0 F10500 X132.531 Y114.500
G1 F1920 X128.516 Y110.485 E1671.03686
G0 F10500 X128.086 Y110.761
G1 F1920 X132.212 Y114.888 E1671.21067
G0 F10500 X131.893 Y115.276
G1 F1920 X127.656 Y111.039 E1671.38913
G0 F10500 X127.188 Y111.278
G1 F1920 X131.574 Y115.664 E1671.57387
G0 F10500 X131.256 Y116.053
G1 F1920 X126.671 Y111.468 E1671.76699
G0 F10500 X126.154 Y111.659
G1 F1920 X130.937 Y116.442 E1671.96845
G0 F10500 X130.618 Y116.830
G1 F1920 X125.576 Y111.787 E1672.18084
G0 F10500 X124.945 Y111.863
G1 F1920 X130.299 Y117.218 E1672.40638
G0 F10500 X129.981 Y117.606
G1 F1920 X124.307 Y111.933 E1672.64534
G0 F10500 X123.505 Y111.838
G1 F1920 X129.662 Y117.995 E1672.90468
G0 F10500 X129.343 Y118.383
G1 F1920 X122.680 Y111.720 E1673.18532
G0 F10500 X121.562 Y111.309
G1 F1920 X129.025 Y118.772 E1673.49966
G0 F10500 X128.706 Y119.160
G1 F1920 X38.840 Y29.294 E1677.28483
G0 F10500 X38.452 Y29.613
G1 F1920 X128.387 Y119.548 E1681.07289
G0 F10500 X128.069 Y119.937
G1 F1920 X38.064 Y29.932 E1684.86391
G0 F10500 X37.676 Y30.251
G1 F1920 X127.750 Y120.325 E1688.65783
G0 F10500 X127.431 Y120.713
G1 F1920 X37.287 Y30.569 E1692.45470
G0 F10500 X36.898 Y30.888
G1 F1920 X127.112 Y121.101 E1696.25450
G0 F10500 X126.793 Y121.490
G1 F1920 X36.510 Y31.207 E1700.05723
G0 F10500 X36.121 Y31.525
G1 F1920 X126.475 Y121.879 E1703.86294
G0 F10500 X126.156 Y122.267
G1 F1920 X35.733 Y31.844 E1707.67157
G0 F10500 X35.345 Y32.163
G1 F1920 X125.837 Y122.655 E1711.48309
G0 F10500 X125.518 Y123.043
G1 F1920 X34.957 Y32.482 E1715.29753
G0 F10500 X34.590 Y32.823
G1 F1920 X125.176 Y123.408 E1719.11300
G0 F10500 X124.788 Y123.727
G1 F1920 X34.272 Y33.211 E1722.92554
G0 F10500 X33.953 Y33.599
G1 F1920 X124.399 Y124.046 E1726.73515
G0 F10500 X124.011 Y124.365
G1 F1920 X33.634 Y33.987 E1730.54185
G0 F10500 X33.316 Y34.376
G1 F1920 X123.623 Y124.684 E1734.34561
G0 F10500 X123.234 Y125.002
G1 F1920 X32.997 Y34.764 E1738.14642
G0 F10500 X32.678 Y35.153
G1 F1920 X122.846 Y125.321 E1741.94430
G0 F10500 X122.458 Y125.640
G1 F1920 X32.359 Y35.541 E1745.73928
G0 F10500 X32.041 Y35.930
G1 F1920 X122.069 Y125.959 E1749.53128
G0 F10500 X121.681 Y126.277
G1 F1920 X31.722 Y36.318 E1753.32036
G0 F10500 X31.403 Y36.706
G1 F1920 X121.292 Y126.596 E1757.10651
G0 F10500 X120.904 Y126.915
G1 F1920 X31.084 Y37.094 E1760.88976
G0 F10500 X30.765 Y37.483
G1 F1920 X120.516 Y127.233 E1764.67005
G0 F10500 X120.128 Y127.552
G1 F1920 X30.447 Y37.871 E1768.44742
G0 F10500 X30.128 Y38.260
G1 F1920 X119.739 Y127.871 E1772.22184
G0 F10500 X119.351 Y128.189
G1 F1920 X29.809 Y38.648 E1775.99334
G0 F10500 X29.490 Y39.036
G1 F1920 X118.962 Y128.508 E1779.76190
G0 F10500 X118.574 Y128.827
G1 F1920 X29.172 Y39.425 E1783.52752
G0 F10500 X28.853 Y39.813
G1 F1920 X118.186 Y129.146 E1787.29023
G0 F10500 X117.797 Y129.464
G1 F1920 X28.534 Y40.201 E1791.05000
G0 F10500 X28.215 Y40.590
G1 F1920 X117.409 Y129.783 E1794.80683
G0 F10500 X117.021 Y130.102
G1 F1920 X27.897 Y40.978 E1798.56074
G0 F10500 X27.578 Y41.367
G1 F1920 X116.633 Y130.421 E1802.31172
G0 F10500 X116.244 Y130.739
G1 F1920 X27.259 Y41.755 E1806.05975
G0 F10500 X26.940 Y42.143
G1 F1920 X115.855 Y131.058 E1809.80486
G0 F10500 X115.445 Y131.354
G1 F1920 X26.645 Y42.555 E1813.54510
G0 F10500 X26.399 Y43.016
G1 F1920 X114.984 Y131.601 E1817.27631
G0 F10500 X114.523 Y131.847
G1 F1920 X26.153 Y43.477 E1820.99846
G0 F10500 X25.906 Y43.938
G1 F1920 X114.062 Y132.093 E1824.71157
G0 F10500 X113.601 Y132.339
G1 F1920 X25.660 Y44.398 E1828.41565
G0 F10500 X25.414 Y44.859
G1 F1920 X113.141 Y132.586 E1832.11072
G0 F10500 X112.680 Y132.832
G1 F1920 X25.168 Y45.320 E1835.79673
G0 F10500 X24.921 Y45.780
G1 F1920 X112.219 Y133.078 E1839.47373
G0 F10500 X111.758 Y133.325
G1 F1920 X24.675 Y46.241 E1843.14169
G0 F10500 X24.429 Y46.702
G1 F1920 X111.297 Y133.571 E1846.80059
G0 F10500 X110.836 Y133.817
G1 F1920 X24.182 Y47.163 E1850.45047
G0 F10500 X23.936 Y47.624
G1 F1920 X110.376 Y134.064 E1854.09132
G0 F10500 X109.915 Y134.310
G1 F1920 X23.690 Y48.085 E1857.72313
G0 F10500 X23.443 Y48.545
G1 F1920 X109.454 Y134.556 E1861.34592
G0 F10500 X108.994 Y134.803
G1 F1920 X23.197 Y49.006 E1864.95969
G0 F10500 X22.951 Y49.467
G1 F1920 X108.533 Y135.049 E1868.56441
G0 F10500 X108.072 Y135.295
G1 F1920 X22.704 Y49.928 E1872.16009
G0 F10500 X22.458 Y50.389
G1 F1920 X107.611 Y135.542 E1875.74674
G0 F10500 X107.150 Y135.788
G1 F1920 X22.212 Y50.850 E1879.32434
G0 F10500 X21.965 Y51.310
G1 F1920 X106.690 Y136.035 E1882.89296
G0 F10500 X106.229 Y136.281
G1 F1920 X21.719 Y51.771 E1886.45253
G0 F10500 X21.473 Y52.232
G1 F1920 X105.768 Y136.527 E1890.00304
G0 F10500 X105.307 Y136.774
G1 F1920 X21.226 Y52.692 E1893.54455
G0 F10500 X20.980 Y53.153
G1 F1920 X104.846 Y137.020 E1897.07702
G0 F10500 X104.361 Y137.242
G1 F1920 X20.758 Y53.638 E1900.59840
G0 F10500 X20.593 Y54.181
G1 F1920 X103.819 Y137.407 E1904.10389
G0 F10500 X103.276 Y137.571
G1 F1920 X20.429 Y54.723 E1907.59343
G0 F10500 X20.264 Y55.266
G1 F1920 X102.734 Y137.735 E1911.06705
G0 F10500 X102.191 Y137.900
G1 F1920 X20.100 Y55.809 E1914.52473
G0 F10500 X19.935 Y56.351
G1 F1920 X101.648 Y138.064 E1917.96648
G0 F10500 X101.106 Y138.229
G1 F1920 X19.770 Y56.893 E1921.39236
G0 F10500 X19.606 Y57.436
G1 F1920 X100.564 Y138.394 E1924.80232
G0 F10500 X100.020 Y138.558
G1 F1920 X19.441 Y57.979 E1928.19631
G0 F10500 X19.277 Y58.521
G1 F1920 X99.478 Y138.723 E1931.57440
G0 F10500 X98.936 Y138.887
G1 F1920 X19.112 Y59.063 E1934.93659
G0 F10500 X18.948 Y59.606
G1 F1920 X98.393 Y139.051 E1938.28282
G0 F10500 X97.850 Y139.216
G1 F1920 X18.783 Y60.149 E1941.61313
G0 F10500 X18.618 Y60.691
G1 F1920 X97.308 Y139.381 E1944.92755
G0 F10500 X96.765 Y139.545
G1 F1920 X18.454 Y61.234 E1948.22602
G0 F10500 X18.290 Y61.777
G1 F1920 X96.223 Y139.710 E1951.50856
G0 F10500 X95.680 Y139.874
G1 F1920 X18.125 Y62.319 E1954.77518
G0 F10500 X17.960 Y62.861
G1 F1920 X95.137 Y140.038 E1958.02588
G0 F10500 X94.595 Y140.203
G1 F1920 X17.796 Y63.404 E1961.26066
G0 F10500 X17.631 Y63.947
G1 F1920 X94.052 Y140.368 E1964.47952
G0 F10500 X93.509 Y140.532
G1 F1920 X17.466 Y64.489 E1967.68245
G0 F10500 X17.302 Y65.031
G1 F1920 X92.967 Y140.697 E1970.86949
G0 F10500 X92.411 Y140.848
G1 F1920 X17.151 Y65.588 E1974.03945
G0 F10500 X17.087 Y66.231
G1 F1920 X91.767 Y140.911 E1977.18497
G0 F10500 X91.124 Y140.975
G1 F1920 X17.024 Y66.875 E1980.30607
G0 F10500 X16.961 Y67.519
G1 F1920 X90.479 Y141.038 E1983.40267
G0 F10500 X89.836 Y141.101
G1 F1920 X16.897 Y68.162 E1986.47487
G0 F10500 X16.834 Y68.806
G1 F1920 X89.192 Y141.164 E1989.52259
G0 F10500 X88.548 Y141.228
G1 F1920 X16.771 Y69.450 E1992.54586
G0 F10500 X16.707 Y70.094
G1 F1920 X87.905 Y141.291 E1995.54471
G0 F10500 X87.261 Y141.354
G1 F1920 X16.643 Y70.737 E1998.51912
G0 F10500 X16.580 Y71.381
G1 F1920 X86.617 Y141.418 E2001.46908
G0 F10500 X85.973 Y141.481
G1 F1920 X16.517 Y72.025 E2004.39457
G0 F10500 X16.453 Y72.668
G1 F1920 X85.330 Y141.545 E2007.29568
G0 F10500 X84.685 Y141.608
G1 F1920 X16.390 Y73.312 E2010.17229
G0 F10500 X16.327 Y73.956
G1 F1920 X84.042 Y141.671 E2013.02445
G0 F10500 X83.399 Y141.735
G1 F1920 X16.263 Y74.599 E2015.85222
G0 F10500 X16.200 Y75.243
G1 F1920 X82.754 Y141.798 E2018.65550
G0 F10500 X82.111 Y141.861
G1 F1920 X16.136 Y75.887 E2021.43435
G0 F10500 X16.073 Y76.530
G1 F1920 X81.467 Y141.924 E2024.18875
G0 F10500 X80.823 Y141.988
G1 F1920 X16.010 Y77.175 E2026.91868
G0 F10500 X15.946 Y77.818
G1 F1920 X80.179 Y142.051 E2029.62417
G0 F10500 X79.434 Y142.013
G1 F1920 X15.985 Y78.564 E2032.29665
G0 F10500 X16.062 Y79.348
G1 F1920 X78.650 Y141.936 E2034.93286
G0 F10500 X77.866 Y141.859
G1 F1920 X16.139 Y80.132 E2037.53281
G0 F10500 X16.216 Y80.917
G1 F1920 X77.082 Y141.782 E2040.09646
G0 F10500 X76.298 Y141.705
G1 F1920 X16.293 Y81.701 E2042.62386
G0 F10500 X16.371 Y82.486
G1 F1920 X75.514 Y141.628 E2045.11494
G0 F10500 X74.729 Y141.551
G1 F1920 X16.448 Y83.270 E2047.56974
G0 F10500 X16.525 Y84.054
G1 F1920 X73.944 Y141.473 E2049.98823
G0 F10500 X73.160 Y141.396
G1 F1920 X16.602 Y84.838 E2052.37046
G0 F10500 X16.679 Y85.622
G1 F1920 X72.376 Y141.319 E2054.71642
G0 F10500 X71.592 Y141.242
G1 F1920 X16.757 Y86.407 E2057.02608
G0 F10500 X16.834 Y87.191
G1 F1920 X70.808 Y141.165 E2059.29946
G0 F10500 X70.024 Y141.088
G1 F1920 X16.911 Y87.976 E2061.53657
G0 F10500 X16.988 Y88.760
G1 F1920 X69.239 Y141.011 E2063.73738
G0 F10500 X68.455 Y140.934
G1 F1920 X17.066 Y89.544 E2065.90191
G0 F10500 X17.143 Y90.328
G1 F1920 X67.671 Y140.857 E2068.03017
G0 F10500 X66.705 Y140.598
G1 F1920 X17.401 Y91.294 E2070.10686
G0 F10500 X17.709 Y92.309
G1 F1920 X65.690 Y140.290 E2072.12782
G0 F10500 X64.675 Y139.982
G1 F1920 X18.017 Y93.323 E2074.09308
G0 F10500 X18.325 Y94.339
G1 F1920 X63.660 Y139.674 E2076.00260
G0 F10500 X62.645 Y139.366
G1 F1920 X18.632 Y95.354 E2077.85640
G0 F10500 X18.940 Y96.368
G1 F1920 X61.630 Y139.058 E2079.65451
G0 F10500 X60.615 Y138.750
G1 F1920 X19.248 Y97.384 E2081.39687
G0 F10500 X19.556 Y98.398
G1 F1920 X59.599 Y138.442 E2083.08350
G0 F10500 X58.585 Y138.134
G1 F1920 X19.864 Y99.413 E2084.71444
G0 F10500 X20.172 Y100.428
G1 F1920 X57.569 Y137.826 E2086.28962
G0 F10500 X56.554 Y137.518
G1 F1920 X20.479 Y101.443 E2087.80910
G0 F10500 X20.787 Y102.458
G1 F1920 X55.539 Y137.210 E2089.27286
G0 F10500 X54.049 Y136.427
G1 F1920 X21.570 Y103.948 E2090.64088
G0 F10500 X22.382 Y105.467
G1 F1920 X52.530 Y135.616 E2091.91073
G0 F10500 X51.011 Y134.803
G1 F1920 X23.195 Y106.987 E2093.08234
G0 F10500 X24.006 Y108.506
G1 F1920 X49.492 Y133.991 E2094.15579
G0 F10500 X47.973 Y133.180
G1 F1920 X24.819 Y110.025 E2095.13106
G0 F10500 X25.631 Y111.544
G1 F1920 X46.454 Y132.367 E2096.00813
G0 F10500 X44.935 Y131.555
G1 F1920 X26.443 Y113.064 E2096.78699
G0 F10500 X28.835 Y116.162
G1 F1920 X41.836 Y129.164 E2097.33462
G0 F10500 X37.895 Y125.930
G1 F1920 X32.069 Y120.104 E2097.58001
G0 F10500 X111.428 Y97.639
G1 F1920 X41.171 Y27.382 E2100.53924
G0 F10500 X40.783 Y27.701
G1 F1920 X111.972 Y98.891 E2103.53774
G0 F10500 X111.191 Y96.695
G1 F1920 X41.559 Y27.063 E2106.47065
G0 F10500 X41.948 Y26.745
G1 F1920 X110.991 Y95.788 E2109.37874
G0 F10500 X110.928 Y95.018
G1 F1920 X42.336 Y26.426 E2112.26784
G0 F10500 X42.724 Y26.107
G1 F1920 X110.865 Y94.248 E2115.13795
G0 F10500 X110.905 Y93.581
G1 F1920 X43.113 Y25.788 E2117.99337
G0 F10500 X43.501 Y25.470
G1 F1920 X110.959 Y92.927 E2120.83468
G0 F10500 X109.165 Y90.426
G1 F1920 X43.890 Y25.151 E2123.58407
G0 F10500 X44.278 Y24.832
G1 F1920 X108.629 Y89.183 E2126.29454
G0 F10500 X108.393 Y88.241
G1 F1920 X44.715 Y24.562 E2128.97668
G0 F10500 X45.176 Y24.316
G1 F1920 X108.200 Y87.341 E2131.63128
G0 F10500 X108.137 Y86.571
G1 F1920 X45.636 Y24.069 E2134.26384
G0 F10500 X46.097 Y23.823
G1 F1920 X108.074 Y85.801 E2136.87434
G0 F10500 X108.118 Y85.137
G1 F1920 X46.558 Y23.577 E2139.46725
