;This Gcode has been generated specifically for the LulzBot Mini
;Basic settings: Layer height: 0.25 Walls: 1 Fill: 20
;Filament Diameter: 2.85
;Nozzle Size: 0.5
G26                          ; clear potential 'probe fail' condition
G21                          ; metric values
G90                          ; absolute positioning
M82                          ; set extruder to absolute mode
M107                         ; start with the fan off
G92 E0                       ; set extruder position to 0
M140 S60; get bed heating up
G28                          ; home all
M109 R140                    ; set to cleaning temp and wait
G1 Z150 E-30 F75             ; suck up XXmm of filament
M109 R140                    ; heat up rest of way
G1 X45 Y174 F11520           ; move behind scraper
G1 Z0  F1200                 ; CRITICAL: set Z to height of top of scraper
G1 X45 Y174 Z-.5 F4000       ; wiping ; plunge into wipe pad
G1 X55 Y172 Z-.5 F4000       ; wiping
G1 X45 Y174 Z0 F4000         ; wiping
G1 X55 Y172 F4000            ; wiping
G1 X45 Y174 F4000            ; wiping
G1 X55 Y172 F4000            ; wiping
G1 X45 Y174 F4000            ; wiping
G1 X55 Y172 F4000            ; wiping
G1 X60 Y174 F4000            ; wiping
G1 X80 Y172 F4000            ; wiping
G1 X60 Y174 F4000            ; wiping
G1 X80 Y172 F4000            ; wiping
G1 X60 Y174 F4000            ; wiping
G1 X90 Y172 F4000            ; wiping
G1 X80 Y174 F4000            ; wiping
G1 X100 Y172 F4000           ; wiping
G1 X80 Y174 F4000            ; wiping
G1 X100 Y172 F4000           ; wiping
G1 X80 Y174 F4000            ; wiping
G1 X100 Y172 F4000           ; wiping
G1 X110 Y174 F4000           ; wiping
G1 X100 Y172 F4000           ; wiping
G1 X110 Y174 F4000           ; wiping
G1 X100 Y172 F4000           ; wiping
G1 X110 Y174 F4000           ; wiping
G1 X115 Y172 Z-0.5 F1000     ; wipe slower and bury noz in cleanish area
G1 Z10                       ; raise z
G28 X0 Y0                    ; home x and y
M109 R140                    ; set to probing temp
M204 S300                    ; Set probing acceleration
G29                          ; Probe
M204 S2000                   ; Restore standard acceleration
G1 X5 Y15 Z10 F5000          ; get out the way
G4 S1                        ; pause
M400                         ; clear buffer
M109 R205    ; set extruder temp and wait
G4 S15                       ; wait for bed to temp up
G1 Z2 E0 F75                 ; extrude filament back into nozzle
M140 S60; get bed temping up during first layer

;Layer count: 35
;LAYER:0
M107
G0 F10500 X31.685 Y29.685 Z0.425
;TYPE:SKIRT
G1 F900 X42.040 Y21.187 E0.55777
G1 X53.853 Y14.874 E1.11547
G1 X66.671 Y10.986 E1.67319
G1 X79.250 Y9.746 E2.19950
G1 X79.999 Y9.672 E2.23084
G1 X92.583 Y10.912 E2.75734
G1 X93.330 Y10.986 E2.78860
G1 X105.430 Y14.656 E3.31508
G1 X106.149 Y14.875 E3.34638
G1 X117.960 Y21.187 E3.90399
G1 X128.315 Y29.685 E4.46175
G1 X136.813 Y40.040 E5.01952
G1 X142.769 Y51.186 E5.54572
G1 X143.125 Y51.851 E5.57713
G1 X147.014 Y64.670 E6.13491
G1 X148.328 Y78.000 E6.69263
G1 X147.088 Y90.583 E7.21910
G1 X147.014 Y91.330 E7.25035
G1 X143.344 Y103.430 E7.77684
G1 X143.125 Y104.149 E7.80813
G1 X136.813 Y115.960 E8.36574
G1 X128.315 Y126.315 E8.92351
G1 X117.960 Y134.813 E9.48127
G1 X106.147 Y141.127 E10.03899
G1 X93.329 Y145.014 E10.59671
G1 X80.750 Y146.254 E11.12301
G1 X80.001 Y146.328 E11.15435
G1 X67.417 Y145.088 E11.68086
G1 X66.670 Y145.014 E11.71211
G1 X53.853 Y141.127 E12.26979
G1 X42.701 Y135.167 E12.79629
G1 X42.039 Y134.812 E12.82757
G1 X31.685 Y126.315 E13.38527
G1 X23.187 Y115.960 E13.94304
G1 X16.874 Y104.147 E14.50074
G1 X13.205 Y92.048 E15.02717
G1 X12.986 Y91.331 E15.05839
G1 X11.746 Y78.748 E15.58486
G1 X11.672 Y78.001 E15.61611
G1 X12.986 Y64.670 E16.17388
G1 X16.656 Y52.570 E16.70036
G1 X16.875 Y51.851 E16.73166
G1 X22.833 Y40.701 E17.25804
G1 X23.188 Y40.039 E17.28932
G1 X31.685 Y29.685 E17.84703
G1 F600 E16.34703
G1 Z0.525
G0 F10500 X34.703 Y32.703
;TYPE:WALL-INNER
G1 Z0.425
G1 F600 E17.84703
G1 F900 X44.410 Y24.738 E18.36986
G1 X55.484 Y18.820 E18.89267
G1 X67.508 Y15.173 E19.41585
G1 X80.000 Y13.941 E19.93851
G1 X92.492 Y15.173 E20.46118
G1 X104.195 Y18.722 E20.97038
G1 X104.513 Y18.818 E20.98421
G1 X115.590 Y24.738 E21.50717
G1 X125.297 Y32.703 E22.03000
G1 X133.262 Y42.410 E22.55283
G1 X139.024 Y53.193 E23.06189
G1 X139.181 Y53.486 E23.07573
G1 X142.827 Y65.507 E23.59878
G1 X144.059 Y78.000 E24.12149
G1 X142.827 Y90.492 E24.64415
G1 X139.278 Y102.195 E25.15335
G1 X139.182 Y102.513 E25.16718
G1 X133.262 Y113.590 E25.69014
G1 X125.297 Y123.297 E26.21297
G1 X115.590 Y131.262 E26.73580
G1 X104.516 Y137.181 E27.25863
G1 X92.492 Y140.827 E27.78180
G1 X80.000 Y142.059 E28.30446
G1 X67.508 Y140.827 E28.82713
G1 X55.484 Y137.181 E29.35029
G1 X44.707 Y131.421 E29.85910
G1 X44.409 Y131.261 E29.87318
G1 X34.703 Y123.297 E30.39595
G1 X26.738 Y113.590 E30.91878
G1 X20.820 Y102.516 E31.44159
G1 X17.270 Y90.814 E31.95077
G1 X17.173 Y90.495 E31.96465
G1 X15.941 Y78.000 E32.48744
G1 X17.173 Y65.507 E33.01015
G1 X20.722 Y53.805 E33.51931
G1 X20.818 Y53.487 E33.53314
G1 X26.579 Y42.707 E34.04207
G1 X26.739 Y42.409 E34.05616
G1 X34.703 Y32.703 E34.57893
G0 F10500 X31.000 Y62.437
G1 F900 X24.061 Y66.188 E34.90736
G1 X24.061 Y69.772 E35.05660
G1 X31.000 Y73.587 E35.38631
G1 X31.000 Y69.018 E35.57655
G1 X28.691 Y67.967 E35.68219
G1 X31.000 Y66.929 E35.78760
G1 X31.000 Y62.437 E35.97463
G0 F10500 X24.202 Y66.272
G0 X24.201 Y69.689
G0 X25.061 Y72.643
G1 F900 X25.061 Y78.274 E36.20910
G1 X26.888 Y78.826 E36.28857
G1 X26.888 Y81.313 E36.39212
G1 X25.994 Y81.577 E36.43093
G1 X25.061 Y81.854 E36.47146
G1 X25.061 Y87.397 E36.70226
G1 X38.000 Y82.534 E37.27780
G1 X38.000 Y77.507 E37.48712
G1 X25.061 Y72.643 E38.06268
G0 F10500 X25.061 Y88.000
G1 F900 X25.061 Y95.940 E38.39329
G1 X28.792 Y95.940 E38.54864
G1 X28.792 Y91.367 E38.73905
G1 X31.693 Y91.367 E38.85984
G1 X31.693 Y88.000 E39.00003
G1 X25.061 Y88.000 E39.27618
G0 F10500 X53.061 Y86.940
G1 F900 X79.940 Y86.940 E40.39536
G1 X79.940 Y73.059 E40.97334
G1 X53.061 Y73.059 E42.09253
G1 X53.061 Y86.940 E42.67050
G0 F10500 X88.060 Y128.996
G1 F900 X97.629 Y128.434 E43.06962
G1 X106.285 Y125.390 E43.45168
G1 X114.015 Y120.833 E43.82531
G1 X120.810 Y114.274 E44.21854
G1 X126.692 Y106.716 E44.61731
G1 X130.770 Y98.136 E45.01287
G1 X133.488 Y88.551 E45.42770
G1 X133.940 Y78.499 E45.84667
G1 X133.488 Y68.944 E46.24496
G1 X130.770 Y59.359 E46.65980
G1 X126.692 Y50.780 E47.05532
G1 X120.810 Y43.220 E47.45415
G1 X114.015 Y36.662 E47.84736
G1 X106.285 Y32.105 E48.22099
G1 X97.655 Y29.069 E48.60191
G1 X88.060 Y27.945 E49.00416
G1 X88.060 Y128.996 E53.21172
G0 F10500 X88.685 Y128.333
;TYPE:WALL-OUTER
G1 F900 X97.504 Y127.815 E53.57955
G1 X106.020 Y124.820 E53.95543
G1 X113.634 Y120.332 E54.32344
G1 X120.344 Y113.855 E54.71176
G1 X126.157 Y106.386 E55.10584
G1 X130.183 Y97.915 E55.49637
G1 X132.867 Y88.450 E55.90601
G1 X133.314 Y78.500 E56.32072
G1 X132.867 Y69.045 E56.71485
G1 X130.183 Y59.580 E57.12449
G1 X126.157 Y51.110 E57.51498
G1 X120.344 Y43.639 E57.90913
G1 X113.634 Y37.163 E58.29742
G1 X106.020 Y32.675 E58.66542
G1 X97.513 Y29.682 E59.04092
G1 X88.685 Y28.647 E59.41102
G1 X88.685 Y128.333 E63.56174
G0 F10500 X88.272 Y128.333
G0 X88.235 Y128.810
G0 X92.539 Y141.036
G0 X92.614 Y141.443
G1 F900 X80.000 Y142.687 E64.08951
G1 X67.386 Y141.443 E64.61728
G1 X55.243 Y137.761 E65.14562
G1 X44.063 Y131.786 E65.67344
G1 X34.260 Y123.740 E66.20150
G1 X26.214 Y113.937 E66.72956
G1 X20.240 Y102.757 E67.25736
G1 X16.557 Y90.614 E67.78572
G1 X15.313 Y78.000 E68.31349
G1 X16.557 Y65.385 E68.84130
G1 X20.240 Y53.243 E69.36961
G1 X26.214 Y42.063 E69.89741
G1 X34.260 Y32.260 E70.42547
G1 X44.063 Y24.214 E70.95353
G1 X55.243 Y18.240 E71.48133
G1 X67.386 Y14.557 E72.00969
G1 X80.000 Y13.313 E72.53746
G1 X92.614 Y14.557 E73.06523
G1 X104.757 Y18.240 E73.59358
G1 X115.937 Y24.214 E74.12138
G1 X125.740 Y32.260 E74.64944
G1 X133.786 Y42.063 E75.17750
G1 X139.760 Y53.243 E75.70530
G1 X143.443 Y65.385 E76.23362
G1 X144.687 Y78.000 E76.76143
G1 X143.443 Y90.614 E77.28920
G1 X139.760 Y102.757 E77.81755
G1 X133.786 Y113.937 E78.34535
G1 X125.740 Y123.740 E78.87341
G1 X115.937 Y131.786 E79.40147
G1 X104.757 Y137.761 E79.92929
G1 X92.614 Y141.443 E80.45764
G0 F10500 X92.539 Y141.036
G0 X88.235 Y128.810
G0 X79.315 Y86.728
G0 X79.315 Y86.315
G1 F900 X79.315 Y73.684 E80.98357
G1 X53.686 Y73.684 E82.05070
G1 X53.686 Y86.315 E82.57663
G1 X79.315 Y86.315 E83.64377
G0 F10500 X79.315 Y86.728
G0 X53.232 Y86.769
G0 X37.788 Y82.101
G0 X37.375 Y82.101
G1 F900 X37.375 Y77.940 E83.81703
G1 X25.686 Y73.545 E84.33700
G1 X25.686 Y77.810 E84.51459
G1 X27.513 Y78.363 E84.59407
G1 X27.513 Y81.780 E84.73634
G1 X25.686 Y82.320 E84.81567
G1 X25.686 Y86.494 E84.98947
G1 X37.375 Y82.101 E85.50941
G0 F10500 X37.788 Y82.101
G0 X37.852 Y82.431
G0 X31.068 Y88.212
G0 X31.068 Y88.625
G1 F900 X25.686 Y88.625 E85.73351
G1 X25.686 Y95.315 E86.01206
G1 X28.167 Y95.315 E86.11537
G1 X28.167 Y90.742 E86.30578
G1 X31.068 Y90.742 E86.42657
G1 X31.068 Y88.625 E86.51472
G0 F10500 X31.068 Y88.212
G0 X37.852 Y82.431
G0 X37.852 Y77.610
G0 X30.176 Y72.892
G0 X30.375 Y72.531
G1 F900 X30.375 Y69.420 E86.64425
G1 X27.175 Y67.963 E86.79065
G1 X30.375 Y66.525 E86.93673
G1 X30.375 Y63.486 E87.06327
G1 X24.686 Y66.561 E87.33254
G1 X24.686 Y69.403 E87.45087
G1 X30.375 Y72.531 E87.72119
G0 F10500 X31.218 Y72.320
;TYPE:SKIN
G1 F900 X35.068 Y76.170 E87.94790
G0 F10500 X33.652 Y75.637
G1 F900 X31.218 Y73.203 E88.09123
G0 F10500 X30.930 Y73.799
G1 F900 X32.236 Y75.105 E88.16813
G0 F10500 X30.819 Y74.572
G1 F900 X28.966 Y72.719 E88.27724
G0 F10500 X27.987 Y73.507
G1 F900 X25.039 Y70.560 E88.45081
G0 F10500 X23.842 Y69.362
G1 F900 X18.002 Y63.523 E88.79467
G0 F10500 X17.797 Y64.201
G1 F900 X26.570 Y72.975 E89.31129
G0 F10500 X27.002 Y71.639
G1 F900 X29.403 Y74.040 E89.45268
G0 F10500 X30.789 Y73.232
G0 X31.218 Y71.436
G1 F900 X36.485 Y76.702 E89.76279
G0 F10500 X37.901 Y77.235
G1 F900 X31.218 Y70.552 E90.15632
G0 F10500 X31.218 Y69.668
G1 F900 X87.840 Y126.289 E93.49048
G0 F10500 X87.840 Y125.406
G1 F900 X30.036 Y67.602 E96.89426
G0 F10500 X29.426 Y67.876
G1 F900 X29.764 Y68.214 E96.91417
G0 F10500 X30.646 Y67.328
G1 F900 X87.840 Y124.522 E100.28203
G0 F10500 X87.840 Y123.638
G1 F900 X31.218 Y67.016 E103.61622
G0 F10500 X31.218 Y66.132
G1 F900 X87.840 Y122.754 E106.95040
G0 F10500 X87.840 Y121.870
G1 F900 X53.127 Y87.157 E108.99447
G0 F10500 X52.842 Y86.872
G1 F900 X31.218 Y65.248 E110.26780
G0 F10500 X31.218 Y64.365
G1 F900 X52.842 Y85.988 E111.54110
G0 F10500 X52.842 Y85.104
G1 F900 X31.218 Y63.481 E112.81440
G0 F10500 X31.218 Y62.597
G1 F900 X52.842 Y84.220 E114.08770
G0 F10500 X52.842 Y83.336
G1 F900 X21.736 Y52.231 E115.91934
G0 F10500 X21.428 Y52.806
G1 F900 X30.875 Y62.254 E116.47566
G0 F10500 X30.302 Y62.564
G1 F900 X21.120 Y53.383 E117.01631
G0 F10500 X20.882 Y54.028
G1 F900 X29.728 Y62.874 E117.53721
G0 F10500 X29.154 Y63.184
G1 F900 X20.676 Y54.706 E118.03643
G0 F10500 X20.471 Y55.385
G1 F900 X28.580 Y63.494 E118.51393
G0 F10500 X28.007 Y63.805
G1 F900 X20.265 Y56.063 E118.96982
G0 F10500 X20.059 Y56.741
G1 F900 X27.433 Y64.115 E119.40404
G0 F10500 X26.859 Y64.425
G1 F900 X19.854 Y57.419 E119.81656
G0 F10500 X19.648 Y58.098
G1 F900 X26.285 Y64.735 E120.20738
G0 F10500 X25.711 Y65.045
G1 F900 X19.442 Y58.776 E120.57653
G0 F10500 X19.236 Y59.454
G1 F900 X25.138 Y65.355 E120.92404
G0 F10500 X24.564 Y65.666
G1 F900 X19.031 Y60.133 E121.24985
G0 F10500 X18.826 Y60.811
G1 F900 X23.990 Y65.975 E121.55393
G0 F10500 X23.842 Y66.711
G1 F900 X18.620 Y61.489 E121.86142
G0 F10500 X18.414 Y62.167
G1 F900 X23.842 Y67.595 E122.18105
G0 F10500 X23.842 Y68.479
G1 F900 X18.208 Y62.845 E122.51281
G0 F10500 X17.591 Y64.879
G1 F900 X25.154 Y72.443 E122.95819
G0 F10500 X24.842 Y73.014
G1 F900 X17.387 Y65.559 E123.39717
G0 F10500 X17.307 Y66.364
G1 F900 X24.842 Y73.898 E123.84084
G0 F10500 X24.842 Y74.782
G1 F900 X17.227 Y67.168 E124.28922
G0 F10500 X17.148 Y67.972
G1 F900 X24.842 Y75.666 E124.74228
G0 F10500 X24.842 Y76.549
G1 F900 X17.069 Y68.777 E125.19997
G0 F10500 X16.990 Y69.582
G1 F900 X24.842 Y77.433 E125.66230
G0 F10500 X24.842 Y78.317
G1 F900 X16.911 Y70.386 E126.12932
G0 F10500 X16.831 Y71.191
G1 F900 X26.669 Y81.028 E126.70860
G0 F10500 X26.078 Y81.322
G1 F900 X16.752 Y71.995 E127.25779
G0 F10500 X16.672 Y72.800
G1 F900 X25.397 Y81.524 E127.77153
G0 F10500 X24.842 Y81.853
G1 F900 X16.593 Y73.604 E128.25727
G0 F10500 X16.514 Y74.409
G1 F900 X24.842 Y82.737 E128.74767
G0 F10500 X24.842 Y83.621
G1 F900 X16.435 Y75.214 E129.24271
G0 F10500 X16.356 Y76.018
G1 F900 X24.842 Y84.504 E129.74241
G0 F10500 X24.842 Y85.388
G1 F900 X16.276 Y76.822 E130.24682
G0 F10500 X16.196 Y77.627
G1 F900 X24.842 Y86.272 E130.75591
G0 F10500 X24.842 Y87.156
G1 F900 X16.212 Y78.527 E131.26406
G0 F10500 X16.309 Y79.507
G1 F900 X24.842 Y88.040 E131.76652
G0 F10500 X25.247 Y87.561
G1 F900 X25.677 Y87.549 E131.77939
G1 X26.440 Y87.429 E131.80651
G1 X27.233 Y87.780 E131.84262
G0 F10500 X28.117 Y87.780
G1 F900 X27.174 Y86.836 E131.89817
G0 F10500 X27.816 Y86.595
G1 F900 X29.001 Y87.780 E131.96795
G0 F10500 X29.885 Y87.780
G1 F900 X28.458 Y86.354 E132.05195
G0 F10500 X29.101 Y86.112
G1 F900 X30.769 Y87.780 E132.15017
G0 F10500 X31.652 Y87.780
G1 F900 X29.743 Y85.871 E132.26258
G0 F10500 X30.386 Y85.629
G1 F900 X86.002 Y141.245 E135.53753
G0 F10500 X86.806 Y141.166
G1 F900 X31.028 Y85.388 E138.82201
G0 F10500 X31.671 Y85.146
G1 F900 X87.611 Y141.086 E142.11604
G0 F10500 X88.415 Y141.007
G1 F900 X32.313 Y84.905 E145.41960
G0 F10500 X32.956 Y84.664
G1 F900 X89.220 Y140.928 E148.73270
G0 F10500 X90.025 Y140.849
G1 F900 X33.598 Y84.422 E152.05541
G0 F10500 X34.240 Y84.181
G1 F900 X90.829 Y140.770 E155.38765
G0 F10500 X91.633 Y140.690
G1 F900 X34.882 Y83.939 E158.72943
G0 F10500 X35.525 Y83.698
G1 F900 X92.438 Y140.611 E162.08075
G0 F10500 X93.118 Y140.406
G1 F900 X36.167 Y83.456 E165.43427
G0 F10500 X36.810 Y83.215
G1 F900 X93.796 Y140.200 E168.78986
G0 F10500 X85.197 Y141.325
G1 F900 X31.911 Y88.039 E171.92761
G0 F10500 X31.911 Y88.922
G1 F900 X84.393 Y141.404 E175.01801
G0 F10500 X83.588 Y141.483
G1 F900 X31.911 Y89.806 E178.06100
G0 F10500 X31.911 Y90.690
G1 F900 X82.783 Y141.562 E181.05660
G0 F10500 X81.979 Y141.641
G1 F900 X31.911 Y91.574 E184.00482
G0 F10500 X31.038 Y91.585
G1 F900 X81.175 Y141.721 E186.95711
G0 F10500 X80.370 Y141.801
G1 F900 X30.154 Y91.585 E189.91407
G0 F10500 X29.270 Y91.585
G1 F900 X79.471 Y141.785 E192.87013
G0 F10500 X78.490 Y141.688
G1 F900 X29.010 Y92.208 E195.78376
G0 F10500 X29.010 Y93.092
G1 F900 X77.510 Y141.592 E198.63968
G0 F10500 X76.529 Y141.495
G1 F900 X29.010 Y93.976 E201.43783
G0 F10500 X29.010 Y94.860
G1 F900 X75.548 Y141.398 E204.17822
G0 F10500 X74.568 Y141.302
G1 F900 X29.010 Y95.744 E206.86090
G0 F10500 X28.540 Y96.158
G1 F900 X73.587 Y141.205 E209.51349
G0 F10500 X72.607 Y141.108
G1 F900 X27.656 Y96.158 E212.16040
G0 F10500 X26.772 Y96.158
G1 F900 X71.627 Y141.012 E214.80165
G0 F10500 X70.646 Y140.915
G1 F900 X25.888 Y96.158 E217.43720
G0 F10500 X25.004 Y96.158
G1 F900 X69.666 Y140.819 E220.06709
G0 F10500 X68.685 Y140.722
G1 F900 X17.276 Y89.313 E223.09430
G0 F10500 X17.372 Y90.293
G1 F900 X67.704 Y140.625 E226.05810
G0 F10500 X66.480 Y140.285
G1 F900 X17.712 Y91.517 E228.92980
G0 F10500 X18.097 Y92.786
G1 F900 X65.211 Y139.900 E231.70411
G0 F10500 X63.942 Y139.515
G1 F900 X18.482 Y94.055 E234.38102
G0 F10500 X18.867 Y95.324
G1 F900 X62.674 Y139.131 E236.96059
G0 F10500 X61.405 Y138.746
G1 F900 X19.252 Y96.592 E239.44280
G0 F10500 X19.637 Y97.862
G1 F900 X60.137 Y138.361 E241.82761
G0 F10500 X58.868 Y137.977
G1 F900 X20.022 Y99.130 E244.11508
G0 F10500 X24.842 Y95.995
G1 F900 X17.179 Y88.332 E244.56632
G0 F10500 X17.082 Y87.351
G1 F900 X24.842 Y95.111 E245.02327
G0 F10500 X24.842 Y94.227
G1 F900 X16.986 Y86.371 E245.48587
G0 F10500 X16.889 Y85.390
G1 F900 X24.842 Y93.343 E245.95418
G0 F10500 X24.842 Y92.459
G1 F900 X16.792 Y84.410 E246.42817
G0 F10500 X16.696 Y83.430
G1 F900 X24.842 Y91.575 E246.90782
G0 F10500 X24.842 Y90.692
G1 F900 X16.599 Y82.449 E247.39321
G0 F10500 X16.502 Y81.468
G1 F900 X24.842 Y89.808 E247.88431
G0 F10500 X24.842 Y88.924
G1 F900 X16.406 Y80.488 E248.38106
G0 F10500 X25.012 Y78.488
G1 F900 X26.669 Y80.144 E248.47861
G0 F10500 X25.213 Y81.968
G0 X25.259 Y87.110
G0 X37.452 Y82.973
G1 F900 X94.474 Y139.995 E251.83634
G0 F10500 X95.152 Y139.789
G1 F900 X38.095 Y82.732 E255.19614
G0 F10500 X38.219 Y81.972
G1 F900 X95.830 Y139.583 E258.58856
G0 F10500 X96.508 Y139.377
G1 F900 X38.219 Y81.088 E262.02091
G0 F10500 X38.219 Y80.204
G1 F900 X97.187 Y139.172 E265.49324
G0 F10500 X97.865 Y138.966
G1 F900 X88.110 Y129.211 E266.06766
G0 F10500 X87.840 Y128.941
G1 F900 X38.219 Y79.320 E268.98959
G0 F10500 X38.219 Y78.436
G1 F900 X87.840 Y128.057 E271.91152
G0 F10500 X87.840 Y127.173
G1 F900 X38.219 Y77.552 E274.83345
G0 F10500 X25.259 Y72.929
G0 X25.213 Y78.161
G0 X26.669 Y79.261
G1 F900 X26.278 Y78.870 E274.85648
G0 F10500 X25.213 Y81.968
G0 X20.407 Y100.399
G1 F900 X57.600 Y137.592 E277.04658
G0 F10500 X56.331 Y137.207
G1 F900 X20.792 Y101.668 E279.13930
G0 F10500 X21.427 Y103.187
G1 F900 X54.814 Y136.574 E281.10529
G0 F10500 X52.915 Y135.559
G1 F900 X22.441 Y105.085 E282.89975
G0 F10500 X23.455 Y106.983
G1 F900 X51.017 Y134.544 E284.52271
G0 F10500 X49.118 Y133.530
G1 F900 X24.469 Y108.881 E285.97416
G0 F10500 X25.484 Y110.779
G1 F900 X47.219 Y132.515 E287.25405
G0 F10500 X45.321 Y131.500
G1 F900 X26.498 Y112.677 E288.36245
G0 F10500 X29.283 Y116.346
G1 F900 X41.651 Y128.714 E289.09074
G0 F10500 X36.720 Y124.667
G1 F900 X33.330 Y121.277 E289.29036
G0 F10500 X54.011 Y87.157
G1 F900 X87.840 Y120.986 E291.28237
G0 F10500 X87.840 Y120.102
G1 F900 X54.895 Y87.157 E293.22234
G0 F10500 X55.779 Y87.157
G1 F900 X87.840 Y119.218 E295.11025
G0 F10500 X87.840 Y118.335
G1 F900 X56.663 Y87.157 E296.94614
G0 F10500 X57.547 Y87.157
G1 F900 X87.840 Y117.451 E298.72997
G0 F10500 X87.840 Y116.567
G1 F900 X58.431 Y87.157 E300.46174
G0 F10500 X59.314 Y87.157
G1 F900 X87.840 Y115.683 E302.14150
G0 F10500 X87.840 Y114.799
G1 F900 X60.198 Y87.157 E303.76919
G0 F10500 X61.082 Y87.157
G1 F900 X87.840 Y113.915 E305.34484
G0 F10500 X87.840 Y113.031
G1 F900 X61.966 Y87.157 E306.86843
G0 F10500 X62.850 Y87.157
G1 F900 X87.840 Y112.147 E308.33996
G0 F10500 X87.840 Y111.263
G1 F900 X63.734 Y87.157 E309.75944
G0 F10500 X64.618 Y87.157
G1 F900 X87.840 Y110.380 E311.12690
G0 F10500 X87.840 Y109.496
G1 F900 X65.502 Y87.157 E312.44230
G0 F10500 X66.386 Y87.157
G1 F900 X87.840 Y108.612 E313.70565
G0 F10500 X87.840 Y107.728
G1 F900 X67.269 Y87.157 E314.91697
G0 F10500 X68.153 Y87.157
G1 F900 X87.840 Y106.844 E316.07624
G0 F10500 X87.840 Y105.960
G1 F900 X69.037 Y87.157 E317.18345
G0 F10500 X69.921 Y87.157
G1 F900 X87.840 Y105.076 E318.23861
G0 F10500 X87.840 Y104.192
G1 F900 X70.805 Y87.157 E319.24172
G0 F10500 X71.689 Y87.157
G1 F900 X87.840 Y103.309 E320.19280
G0 F10500 X87.840 Y102.425
G1 F900 X72.573 Y87.157 E321.09182
G0 F10500 X73.457 Y87.157
G1 F900 X87.840 Y101.541 E321.93879
G0 F10500 X87.840 Y100.657
G1 F900 X74.340 Y87.157 E322.73374
G0 F10500 X75.224 Y87.157
G1 F900 X87.840 Y99.773 E323.47663
G0 F10500 X87.840 Y98.889
G1 F900 X76.108 Y87.157 E324.16747
G0 F10500 X76.992 Y87.157
G1 F900 X87.840 Y98.005 E324.80626
G0 F10500 X87.840 Y97.121
G1 F900 X77.876 Y87.157 E325.39299
G0 F10500 X78.760 Y87.157
G1 F900 X87.840 Y96.237 E325.92766
G0 F10500 X87.840 Y95.354
G1 F900 X79.644 Y87.157 E326.41031
G0 F10500 X80.158 Y86.788
G1 F900 X87.840 Y94.470 E326.86267
G0 F10500 X87.840 Y93.586
G1 F900 X80.158 Y85.904 E327.31502
G0 F10500 X80.158 Y85.020
G1 F900 X87.840 Y92.702 E327.76737
G0 F10500 X87.840 Y91.818
G1 F900 X80.158 Y84.136 E328.21973
G0 F10500 X80.158 Y83.252
G1 F900 X87.840 Y90.934 E328.67208
G0 F10500 X87.840 Y90.050
G1 F900 X80.158 Y82.368 E329.12444
G0 F10500 X80.158 Y81.484
G1 F900 X87.840 Y89.166 E329.57679
G0 F10500 X87.840 Y88.282
G1 F900 X80.158 Y80.600 E330.02915
G0 F10500 X80.158 Y79.717
G1 F900 X87.840 Y87.399 E330.48150
G0 F10500 X87.840 Y86.515
G1 F900 X80.158 Y78.833 E330.93385
G0 F10500 X80.158 Y77.949
G1 F900 X87.840 Y85.631 E331.38621
G0 F10500 X87.840 Y84.747
G1 F900 X80.158 Y77.065 E331.83856
G0 F10500 X80.158 Y76.181
G1 F900 X87.840 Y83.863 E332.29092
G0 F10500 X87.840 Y82.979
G1 F900 X80.158 Y75.297 E332.74327
G0 F10500 X80.158 Y74.413
G1 F900 X87.840 Y82.095 E333.19563
G0 F10500 X87.840 Y81.211
G1 F900 X80.158 Y73.529 E333.64798
G0 F10500 X87.840 Y73.256
G1 F900 X41.770 Y27.186 E336.36081
G0 F10500 X42.255 Y26.788
G1 F900 X87.840 Y72.373 E339.04508
G0 F10500 X87.840 Y71.489
G1 F900 X42.741 Y26.389 E341.70076
G0 F10500 X43.226 Y25.991
G1 F900 X87.840 Y70.605 E344.32786
G0 F10500 X87.840 Y69.721
G1 F900 X43.711 Y25.593 E346.92636
G0 F10500 X44.197 Y25.194
G1 F900 X87.840 Y68.837 E349.49628
G0 F10500 X87.840 Y67.953
G1 F900 X44.711 Y24.824 E352.03593
G0 F10500 X45.286 Y24.516
G1 F900 X87.840 Y67.069 E354.54169
G0 F10500 X87.840 Y66.185
G1 F900 X45.862 Y24.208 E357.01353
G0 F10500 X46.439 Y23.900
G1 F900 X87.840 Y65.302 E359.45145
G0 F10500 X87.840 Y64.418
G1 F900 X47.015 Y23.593 E361.85543
G0 F10500 X47.591 Y23.285
G1 F900 X87.840 Y63.534 E364.22549
G0 F10500 X87.840 Y62.650
G1 F900 X48.167 Y22.977 E366.56164
G0 F10500 X48.743 Y22.669
G1 F900 X87.840 Y61.766 E368.86386
G0 F10500 X87.840 Y60.882
G1 F900 X49.319 Y22.362 E371.13214
G0 F10500 X49.895 Y22.053
G1 F900 X87.840 Y59.998 E373.36653
G0 F10500 X87.840 Y59.114
G1 F900 X50.471 Y21.746 E375.56697
G0 F10500 X51.048 Y21.438
G1 F900 X87.840 Y58.230 E377.73347
G0 F10500 X87.840 Y57.347
G1 F900 X51.624 Y21.131 E379.86604
G0 F10500 X52.200 Y20.822
G1 F900 X87.840 Y56.463 E381.96473
G0 F10500 X87.840 Y55.579
G1 F900 X52.776 Y20.515 E384.02948
G0 F10500 X53.352 Y20.207
G1 F900 X87.840 Y54.695 E386.06030
G0 F10500 X87.840 Y53.811
G1 F900 X53.928 Y19.900 E388.05718
G0 F10500 X54.504 Y19.591
G1 F900 X87.840 Y52.927 E390.02017
G0 F10500 X87.840 Y52.043
G1 F900 X55.080 Y19.284 E391.94921
G0 F10500 X55.673 Y18.992
G1 F900 X87.840 Y51.159 E393.84336
G0 F10500 X87.840 Y50.275
G1 F900 X56.351 Y18.787 E395.69756
G0 F10500 X57.029 Y18.581
G1 F900 X87.840 Y49.392 E397.51186
G0 F10500 X87.840 Y48.508
G1 F900 X57.707 Y18.375 E399.28624
G0 F10500 X58.385 Y18.169
G1 F900 X87.840 Y47.624 E401.02070
G0 F10500 X87.840 Y46.740
G1 F900 X59.063 Y17.964 E402.71520
G0 F10500 X59.742 Y17.758
G1 F900 X87.840 Y45.856 E404.36975
G0 F10500 X87.840 Y44.972
G1 F900 X60.420 Y17.552 E405.98438
G0 F10500 X61.098 Y17.347
G1 F900 X87.840 Y44.088 E407.55905
G0 F10500 X87.840 Y43.204
G1 F900 X61.777 Y17.141 E409.09377
G0 F10500 X62.455 Y16.935
G1 F900 X87.840 Y42.321 E410.58859
G0 F10500 X87.840 Y41.437
G1 F900 X63.133 Y16.730 E412.04346
G0 F10500 X63.811 Y16.524
G1 F900 X87.840 Y40.553 E413.45841
G0 F10500 X87.840 Y39.669
G1 F900 X64.489 Y16.318 E414.83343
G0 F10500 X65.167 Y16.112
G1 F900 X87.840 Y38.785 E416.16853
G0 F10500 X87.840 Y37.901
G1 F900 X65.845 Y15.907 E417.46368
G0 F10500 X66.523 Y15.701
G1 F900 X87.840 Y37.017 E418.71890
G0 F10500 X87.840 Y36.133
G1 F900 X67.202 Y15.495 E419.93416
G0 F10500 X67.940 Y15.350
G1 F900 X87.840 Y35.249 E421.10595
G0 F10500 X87.840 Y34.366
G1 F900 X68.745 Y15.271 E422.23035
G0 F10500 X69.549 Y15.191
G1 F900 X87.840 Y33.482 E423.30742
G0 F10500 X87.840 Y32.598
G1 F900 X70.354 Y15.112 E424.33708
G0 F10500 X71.158 Y15.033
G1 F900 X87.840 Y31.714 E425.31937
G0 F10500 X87.840 Y30.830
G1 F900 X71.963 Y14.953 E426.25429
G0 F10500 X72.767 Y14.873
G1 F900 X87.840 Y29.946 E427.14186
G0 F10500 X87.840 Y29.062
G1 F900 X73.572 Y14.794 E427.98203
G0 F10500 X74.377 Y14.715
G1 F900 X87.840 Y28.178 E428.77480
G0 F10500 X88.296 Y27.751
G1 F900 X75.181 Y14.636 E429.54707
G0 F10500 X75.985 Y14.556
G1 F900 X89.297 Y27.868 E430.33095
G0 F10500 X90.298 Y27.985
G1 F900 X76.790 Y14.477 E431.12637
G0 F10500 X77.595 Y14.398
G1 F900 X91.299 Y28.102 E431.93333
G0 F10500 X92.300 Y28.219
G1 F900 X78.399 Y14.318 E432.75189
G0 F10500 X79.203 Y14.239
G1 F900 X93.302 Y28.337 E433.58208
G0 F10500 X94.303 Y28.454
G1 F900 X80.010 Y14.161 E434.42372
G0 F10500 X80.991 Y14.258
G1 F900 X95.304 Y28.572 E435.26657
G0 F10500 X96.305 Y28.688
G1 F900 X81.972 Y14.355 E436.11057
G0 F10500 X82.952 Y14.451
G1 F900 X97.306 Y28.806 E436.95583
G0 F10500 X98.527 Y29.143
G1 F900 X83.932 Y14.548 E437.81526
G0 F10500 X84.913 Y14.645
G1 F900 X99.891 Y29.623 E438.69724
G0 F10500 X101.255 Y30.103
G1 F900 X85.894 Y14.742 E439.60177
G0 F10500 X86.875 Y14.839
G1 F900 X102.618 Y30.583 E440.52882
G0 F10500 X103.982 Y31.063
G1 F900 X87.855 Y14.935 E441.47849
G0 F10500 X88.835 Y15.032
G1 F900 X105.346 Y31.543 E442.45074
G0 F10500 X106.902 Y32.215
G1 F900 X89.816 Y15.129 E443.45685
G0 F10500 X90.797 Y15.226
G1 F900 X109.056 Y33.485 E444.53203
G0 F10500 X111.209 Y34.754
G1 F900 X91.778 Y15.323 E445.67622
G0 F10500 X92.850 Y15.511
G1 F900 X113.362 Y36.023 E446.88407
G0 F10500 X115.744 Y25.146
G1 F900 X132.853 Y42.255 E447.89153
G0 F10500 X134.037 Y44.323
G1 F900 X113.675 Y23.962 E449.09052
G0 F10500 X111.778 Y22.948
G1 F900 X135.051 Y46.221 E450.46095
G0 F10500 X136.065 Y48.119
G1 F900 X109.880 Y21.934 E452.00285
G0 F10500 X107.981 Y20.919
G1 F900 X137.079 Y50.017 E453.71629
G0 F10500 X138.093 Y51.915
G1 F900 X106.083 Y19.905 E455.60119
G0 F10500 X104.267 Y18.973
G1 F900 X139.025 Y53.731 E457.64792
G0 F10500 X139.410 Y55.000
G1 F900 X102.998 Y18.588 E459.79204
G0 F10500 X101.730 Y18.203
G1 F900 X139.795 Y56.268 E462.03349
G0 F10500 X142.488 Y65.149
G1 F900 X122.938 Y45.599 E463.18469
G0 F10500 X126.034 Y49.579
G1 F900 X142.677 Y66.221 E464.16468
G0 F10500 X142.774 Y67.202
G1 F900 X127.459 Y51.888 E465.06648
G0 F10500 X128.260 Y53.573
G1 F900 X142.870 Y68.183 E465.92679
G0 F10500 X142.967 Y69.164
G1 F900 X129.061 Y55.257 E466.74567
G0 F10500 X129.862 Y56.942
G1 F900 X143.063 Y70.144 E467.52304
G0 F10500 X143.160 Y71.125
G1 F900 X130.662 Y58.626 E468.25901
G0 F10500 X131.188 Y60.036
G1 F900 X143.257 Y72.105 E468.96970
G0 F10500 X143.353 Y73.085
G1 F900 X131.538 Y61.270 E469.66542
G0 F10500 X131.888 Y62.504
G1 F900 X143.450 Y74.066 E470.34625
G0 F10500 X143.547 Y75.047
G1 F900 X132.238 Y63.738 E471.01218
G0 F10500 X132.588 Y64.971
G1 F900 X143.644 Y76.028 E471.66324
G0 F10500 X143.740 Y77.008
G1 F900 X132.938 Y66.205 E472.29935
G0 F10500 X133.288 Y67.439
G1 F900 X143.837 Y77.988 E472.92052
G0 F10500 X143.760 Y78.795
G1 F900 X133.638 Y68.673 E473.51656
G0 F10500 X133.739 Y69.658
G1 F900 X143.680 Y79.599 E474.10193
G0 F10500 X142.103 Y63.880
G1 F900 X94.119 Y15.896 E476.92747
G0 F10500 X95.387 Y16.281
G1 F900 X141.719 Y62.612 E479.65570
G0 F10500 X141.334 Y61.343
G1 F900 X96.656 Y16.665 E482.28656
G0 F10500 X97.925 Y17.050
G1 F900 X140.949 Y60.075 E484.82005
G0 F10500 X140.565 Y58.806
G1 F900 X99.193 Y17.435 E487.25621
G0 F10500 X100.461 Y17.819
G1 F900 X140.179 Y57.537 E489.59501
G0 F10500 X133.783 Y70.586
G1 F900 X143.601 Y80.404 E490.17314
G0 F10500 X143.522 Y81.209
G1 F900 X133.827 Y71.513 E490.74406
G0 F10500 X133.871 Y72.442
G1 F900 X143.442 Y82.013 E491.30765
G0 F10500 X143.363 Y82.818
G1 F900 X133.915 Y73.370 E491.86399
G0 F10500 X133.959 Y74.297
G1 F900 X143.284 Y83.623 E492.41312
G0 F10500 X143.204 Y84.427
G1 F900 X134.003 Y75.225 E492.95495
G0 F10500 X134.047 Y76.153
G1 F900 X143.125 Y85.231 E493.48951
G0 F10500 X143.046 Y86.036
G1 F900 X134.091 Y77.081 E494.01682
G0 F10500 X134.135 Y78.009
G1 F900 X142.967 Y86.841 E494.53690
G0 F10500 X142.887 Y87.645
G1 F900 X134.140 Y78.898 E495.05196
G0 F10500 X134.102 Y79.743
G1 F900 X142.808 Y88.450 E495.56465
G0 F10500 X142.728 Y89.254
G1 F900 X134.063 Y80.589 E496.07488
G0 F10500 X134.025 Y81.435
G1 F900 X142.649 Y90.059 E496.58271
G0 F10500 X142.504 Y90.798
G1 F900 X133.987 Y82.281 E497.08423
G0 F10500 X133.949 Y83.126
G1 F900 X142.298 Y91.476 E497.57589
G0 F10500 X142.093 Y92.154
G1 F900 X133.911 Y83.973 E498.05766
G0 F10500 X133.873 Y84.818
G1 F900 X141.887 Y92.832 E498.52956
G0 F10500 X141.681 Y93.510
G1 F900 X133.835 Y85.664 E498.99157
G0 F10500 X133.797 Y86.510
G1 F900 X141.475 Y94.188 E499.44369
G0 F10500 X141.270 Y94.867
G1 F900 X133.759 Y87.355 E499.88601
G0 F10500 X133.720 Y88.201
G1 F900 X141.064 Y95.545 E500.31846
G0 F10500 X140.859 Y96.223
G1 F900 X133.597 Y88.962 E500.74605
G0 F10500 X133.402 Y89.651
G1 F900 X140.653 Y96.901 E501.17300
G0 F10500 X140.447 Y97.580
G1 F900 X133.206 Y90.339 E501.59938
G0 F10500 X133.011 Y91.027
G1 F900 X140.241 Y98.258 E502.02515
G0 F10500 X140.036 Y98.936
G1 F900 X132.816 Y91.716 E502.45030
G0 F10500 X132.621 Y92.405
G1 F900 X139.831 Y99.615 E502.87486
G0 F10500 X139.625 Y100.293
G1 F900 X132.426 Y93.094 E503.29877
G0 F10500 X132.231 Y93.782
G1 F900 X139.419 Y100.971 E503.72207
G0 F10500 X139.213 Y101.649
G1 F900 X132.035 Y94.471 E504.14474
G0 F10500 X131.840 Y95.159
G1 F900 X139.008 Y102.327 E504.56683
G0 F10500 X138.715 Y102.919
G1 F900 X131.644 Y95.848 E504.98321
G0 F10500 X131.449 Y96.537
G1 F900 X138.408 Y103.495 E505.39296
G0 F10500 X138.100 Y104.071
G1 F900 X131.254 Y97.225 E505.79608
G0 F10500 X131.059 Y97.914
G1 F900 X137.792 Y104.647 E506.19256
G0 F10500 X137.484 Y105.223
G1 F900 X130.812 Y98.551 E506.58544
G0 F10500 X130.528 Y99.151
G1 F900 X137.176 Y105.799 E506.97690
G0 F10500 X136.869 Y106.375
G1 F900 X130.243 Y99.750 E507.36705
G0 F10500 X129.958 Y100.349
G1 F900 X136.561 Y106.952 E507.75586
G0 F10500 X136.253 Y107.528
G1 F900 X129.674 Y100.948 E508.14330
G0 F10500 X129.389 Y101.547
G1 F900 X135.945 Y108.103 E508.52935
G0 F10500 X135.637 Y108.680
G1 F900 X129.104 Y102.146 E508.91407
G0 F10500 X128.820 Y102.746
G1 F900 X135.330 Y109.256 E509.29741
G0 F10500 X135.022 Y109.832
G1 F900 X128.535 Y103.345 E509.67940
G0 F10500 X128.250 Y103.943
G1 F900 X134.714 Y110.408 E510.06006
G0 F10500 X134.406 Y110.984
G1 F900 X127.965 Y104.543 E510.43934
G0 F10500 X127.680 Y105.142
G1 F900 X134.098 Y111.560 E510.81726
G0 F10500 X133.790 Y112.136
G1 F900 X127.395 Y105.741 E511.19383
G0 F10500 X127.111 Y106.341
G1 F900 X133.483 Y112.712 E511.56902
G0 F10500 X133.175 Y113.288
G1 F900 X126.808 Y106.921 E511.94394
G0 F10500 X126.421 Y107.418
G1 F900 X132.805 Y113.802 E512.31986
G0 F10500 X132.406 Y114.287
G1 F900 X126.034 Y107.915 E512.69507
G0 F10500 X125.647 Y108.412
G1 F900 X132.008 Y114.773 E513.06964
G0 F10500 X131.609 Y115.258
G1 F900 X125.261 Y108.910 E513.44344
G0 F10500 X124.874 Y109.407
G1 F900 X131.211 Y115.744 E513.81660
G0 F10500 X130.812 Y116.229
G1 F900 X124.487 Y109.904 E514.18904
G0 F10500 X124.100 Y110.401
G1 F900 X130.414 Y116.715 E514.56084
G0 F10500 X130.016 Y117.200
G1 F900 X123.713 Y110.898 E514.93197
G0 F10500 X123.327 Y111.395
G1 F900 X129.617 Y117.685 E515.30235
G0 F10500 X129.219 Y118.171
G1 F900 X122.940 Y111.892 E515.67209
G0 F10500 X122.553 Y112.389
G1 F900 X128.820 Y118.656 E516.04112
G0 F10500 X128.422 Y119.142
G1 F900 X122.166 Y112.886 E516.40951
G0 F10500 X121.780 Y113.383
G1 F900 X128.023 Y119.627 E516.77716
G0 F10500 X127.625 Y120.113
G1 F900 X121.393 Y113.880 E517.14416
G0 F10500 X121.006 Y114.378
G1 F900 X127.226 Y120.598 E517.51042
G0 F10500 X126.828 Y121.084
G1 F900 X120.561 Y114.817 E517.87945
G0 F10500 X120.111 Y115.251
G1 F900 X126.429 Y121.569 E518.25149
G0 F10500 X126.031 Y122.055
G1 F900 X119.662 Y115.685 E518.62656
G0 F10500 X119.212 Y116.119
G1 F900 X125.633 Y122.540 E519.00466
G0 F10500 X125.234 Y123.025
G1 F900 X118.762 Y116.553 E519.38576
G0 F10500 X118.313 Y116.987
G1 F900 X124.769 Y123.444 E519.76595
G0 F10500 X124.283 Y123.842
G1 F900 X117.863 Y117.422 E520.14399
G0 F10500 X117.413 Y117.856
G1 F900 X123.798 Y124.240 E520.51994
G0 F10500 X123.313 Y124.639
G1 F900 X116.963 Y118.290 E520.89383
G0 F10500 X116.514 Y118.724
G1 F900 X122.827 Y125.037 E521.26557
G0 F10500 X122.342 Y125.436
G1 F900 X116.064 Y119.158 E521.63525
G0 F10500 X115.614 Y119.592
G1 F900 X121.856 Y125.834 E522.00281
G0 F10500 X121.371 Y126.233
G1 F900 X115.165 Y120.027 E522.36825
G0 F10500 X114.714 Y120.460
G1 F900 X120.885 Y126.631 E522.73163
G0 F10500 X120.400 Y127.030
G1 F900 X114.264 Y120.894 E523.09295
G0 F10500 X113.737 Y121.251
G1 F900 X119.914 Y127.428 E523.45668
G0 F10500 X119.429 Y127.827
G1 F900 X113.180 Y121.578 E523.82465
G0 F10500 X112.625 Y121.906
G1 F900 X118.943 Y128.225 E524.19672
G0 F10500 X118.458 Y128.624
G1 F900 X112.069 Y122.234 E524.57296
G0 F10500 X111.512 Y122.562
G1 F900 X117.972 Y129.022 E524.95336
G0 F10500 X117.487 Y129.421
G1 F900 X110.957 Y122.890 E525.33791
G0 F10500 X110.400 Y123.217
G1 F900 X117.002 Y129.819 E525.72667
G0 F10500 X116.517 Y130.217
G1 F900 X109.844 Y123.545 E526.11958
G0 F10500 X109.289 Y123.873
G1 F900 X116.031 Y130.616 E526.51661
G0 F10500 X115.545 Y131.014
G1 F900 X108.732 Y124.201 E526.91779
G0 F10500 X108.176 Y124.529
G1 F900 X114.984 Y131.337 E527.31868
G0 F10500 X114.408 Y131.644
G1 F900 X107.620 Y124.856 E527.71839
G0 F10500 X107.064 Y125.184
G1 F900 X113.832 Y131.952 E528.11693
G0 F10500 X113.256 Y132.260
G1 F900 X106.508 Y125.512 E528.51428
G0 F10500 X105.877 Y125.765
G1 F900 X112.680 Y132.568 E528.91488
G0 F10500 X112.104 Y132.875
G1 F900 X105.223 Y125.995 E529.32003
G0 F10500 X104.569 Y126.224
G1 F900 X111.528 Y133.184 E529.72984
G0 F10500 X110.952 Y133.491
G1 F900 X103.914 Y126.454 E530.14425
G0 F10500 X103.261 Y126.685
G1 F900 X110.375 Y133.799 E530.56315
G0 F10500 X109.800 Y134.107
G1 F900 X102.607 Y126.915 E530.98668
G0 F10500 X101.953 Y127.144
G1 F900 X109.223 Y134.415 E531.41481
G0 F10500 X108.647 Y134.722
G1 F900 X101.299 Y127.374 E531.84749
G0 F10500 X100.646 Y127.605
G1 F900 X108.072 Y135.031 E532.28477
G0 F10500 X107.495 Y135.338
G1 F900 X99.991 Y127.835 E532.72662
G0 F10500 X99.337 Y128.064
G1 F900 X106.920 Y135.647 E533.17314
G0 F10500 X106.343 Y135.954
G1 F900 X98.683 Y128.294 E533.62420
G0 F10500 X98.030 Y128.525
G1 F900 X105.767 Y136.262 E534.07979
G0 F10500 X105.192 Y136.570
G1 F900 X97.294 Y128.672 E534.54487
G0 F10500 X96.459 Y128.721
G1 F900 X104.615 Y136.878 E535.02516
G0 F10500 X103.969 Y137.115
G1 F900 X95.624 Y128.770 E535.51656
G0 F10500 X94.789 Y128.820
G1 F900 X103.291 Y137.321 E536.01717
G0 F10500 X102.613 Y137.527
G1 F900 X93.954 Y128.868 E536.52705
G0 F10500 X93.119 Y128.917
G1 F900 X101.935 Y137.733 E537.04618
G0 F10500 X101.256 Y137.938
G1 F900 X92.285 Y128.967 E537.57444
G0 F10500 X91.450 Y129.015
G1 F900 X100.578 Y138.143 E538.11194
G0 F10500 X99.900 Y138.349
G1 F900 X90.615 Y129.064 E538.65869
G0 F10500 X89.780 Y129.114
G1 F900 X99.221 Y138.555 E539.21462
G0 F10500 X98.543 Y138.761
G1 F900 X88.945 Y129.162 E539.77983
G0 F10500 X88.235 Y128.810
G0 X87.840 Y80.328
G1 F900 X37.886 Y30.373 E542.72140
G0 F10500 X38.371 Y29.975
G1 F900 X87.840 Y79.444 E545.63437
G0 F10500 X87.840 Y78.560
G1 F900 X38.856 Y29.576 E548.51880
G0 F10500 X39.342 Y29.178
G1 F900 X87.840 Y77.676 E551.37460
G0 F10500 X87.840 Y76.792
G1 F900 X39.827 Y28.779 E554.20184
G0 F10500 X37.400 Y30.772
G1 F900 X79.467 Y72.839 E556.67895
G0 F10500 X78.583 Y72.839
G1 F900 X36.915 Y31.170 E559.13260
G0 F10500 X36.430 Y31.569
G1 F900 X77.699 Y72.839 E561.56276
G0 F10500 X76.815 Y72.839
G1 F900 X35.944 Y31.967 E563.96947
G0 F10500 X35.459 Y32.366
G1 F900 X75.931 Y72.839 E566.35269
G0 F10500 X75.048 Y72.839
G1 F900 X34.973 Y32.764 E568.71251
G0 F10500 X34.553 Y33.228
G1 F900 X74.164 Y72.839 E571.04500
G0 F10500 X73.280 Y72.839
G1 F900 X34.155 Y33.714 E573.34887
G0 F10500 X33.757 Y34.199
G1 F900 X72.396 Y72.839 E575.62416
G0 F10500 X71.512 Y72.839
G1 F900 X33.358 Y34.685 E577.87085
G0 F10500 X32.960 Y35.170
G1 F900 X70.628 Y72.839 E580.08896
G0 F10500 X69.744 Y72.839
G1 F900 X32.561 Y35.655 E582.27851
G0 F10500 X32.163 Y36.141
G1 F900 X68.860 Y72.839 E584.43944
G0 F10500 X67.977 Y72.839
G1 F900 X31.764 Y36.626 E586.57184
G0 F10500 X31.366 Y37.112
G1 F900 X67.093 Y72.839 E588.67563
G0 F10500 X66.209 Y72.839
G1 F900 X30.967 Y37.597 E590.75085
G0 F10500 X30.569 Y38.083
G1 F900 X65.325 Y72.839 E592.79745
G0 F10500 X64.441 Y72.839
G1 F900 X30.170 Y38.568 E594.81550
G0 F10500 X29.772 Y39.054
G1 F900 X63.557 Y72.839 E596.80493
G0 F10500 X62.673 Y72.839
G1 F900 X29.374 Y39.539 E598.76577
G0 F10500 X28.975 Y40.025
G1 F900 X61.789 Y72.839 E600.69802
G0 F10500 X60.905 Y72.839
G1 F900 X28.577 Y40.510 E602.60168
G0 F10500 X28.178 Y40.995
G1 F900 X60.022 Y72.839 E604.47681
G0 F10500 X59.138 Y72.839
G1 F900 X27.780 Y41.481 E606.32333
G0 F10500 X27.382 Y41.966
G1 F900 X58.254 Y72.839 E608.14125
G0 F10500 X57.370 Y72.839
G1 F900 X26.983 Y42.452 E609.93059
G0 F10500 X26.661 Y43.014
G1 F900 X56.486 Y72.839 E611.68684
G0 F10500 X55.602 Y72.839
G1 F900 X26.353 Y43.590 E613.40916
G0 F10500 X26.045 Y44.165
G1 F900 X54.718 Y72.839 E615.09760
G0 F10500 X53.834 Y72.839
G1 F900 X25.737 Y44.742 E616.75209
G0 F10500 X25.430 Y45.318
G1 F900 X52.950 Y72.839 E618.37263
G0 F10500 X52.842 Y73.614
G1 F900 X25.122 Y45.894 E620.00492
G0 F10500 X24.814 Y46.470
G1 F900 X52.842 Y74.497 E621.65532
G0 F10500 X52.842 Y75.381
G1 F900 X24.506 Y47.046 E623.32386
G0 F10500 X24.198 Y47.622
G1 F900 X52.842 Y76.265 E625.01053
G0 F10500 X52.842 Y77.149
G1 F900 X23.891 Y48.198 E626.71531
G0 F10500 X23.583 Y48.774
G1 F900 X52.842 Y78.033 E628.43822
G0 F10500 X52.842 Y78.917
G1 F900 X23.275 Y49.350 E630.17927
G0 F10500 X22.967 Y49.926
G1 F900 X52.842 Y79.801 E631.93846
G0 F10500 X52.842 Y80.685
G1 F900 X22.659 Y50.502 E633.71579
G0 F10500 X22.351 Y51.078
G1 F900 X52.842 Y81.569 E635.51125
G0 F10500 X52.842 Y82.452
G1 F900 X22.044 Y51.654 E637.32479
G0 F10500 X40.313 Y28.381
G1 F900 X87.840 Y75.908 E640.12341
G0 F10500 X87.840 Y75.024
G1 F900 X40.798 Y27.983 E642.89345
G0 F10500 X41.284 Y27.584
G1 F900 X87.840 Y74.140 E645.63490
G0 F10500 X88.239 Y28.146
G0 X97.629 Y29.181
G0 X106.237 Y32.209
G0 X113.946 Y36.753
G0 X128.805 Y37.324
G1 F900 X120.674 Y29.193 E646.11369
G1 F600 E644.61369
G1 Z0.525
G0 F10500 X33.127 Y80.060
;TYPE:WALL-OUTER
G1 Z0.425
G1 F600 E646.11369
G1 F900 X30.529 Y80.849 E646.22674
G1 X30.529 Y79.262 E646.29282
G1 X33.127 Y80.060 E646.40599
;LAYER:1
M106 S191
G1 F600 E644.90599
G1 Z0.525
G0 F10500 X37.813 Y82.404 Z0.675
;TYPE:WALL-INNER
G1 Z0.675
G1 F600 E646.40599
G1 F1140 X37.813 Y77.637 E646.49939
G1 X25.248 Y72.913 E646.76242
G1 X25.248 Y78.135 E646.86474
G1 X27.075 Y78.687 E646.90214
G1 X27.075 Y81.453 E646.95634
G1 X25.248 Y81.993 E646.99367
G1 X25.248 Y87.127 E647.09426
G1 X37.813 Y82.404 E647.35728
G0 F10500 X31.506 Y88.187
G1 F1140 X25.248 Y88.187 E647.47991
G1 X25.248 Y95.753 E647.62816
G1 X28.605 Y95.753 E647.69393
G1 X28.605 Y91.180 E647.78354
G1 X31.506 Y91.180 E647.84038
G1 X31.506 Y88.187 E647.89903
G0 F10500 X37.727 Y82.344
G0 X37.727 Y77.697
G0 X30.813 Y73.271
G1 F1140 X30.813 Y69.138 E647.98001
G1 X28.238 Y67.965 E648.03546
G1 X30.813 Y66.808 E648.09077
G1 X30.813 Y62.751 E648.17026
G1 X24.248 Y66.300 E648.31649
G1 X24.248 Y69.662 E648.38237
G1 X30.813 Y73.271 E648.52916
G0 F10500 X25.384 Y73.110
G0 X15.753 Y77.999
G1 F1140 X16.988 Y65.470 E648.77585
G1 X20.647 Y53.410 E649.02280
G1 X26.578 Y42.312 E649.26936
G1 X34.571 Y32.571 E649.51626
G1 X44.308 Y24.581 E649.76306
G1 X55.414 Y18.646 E650.00980
G1 X67.471 Y14.988 E650.25668
G1 X80.000 Y13.753 E650.50337
G1 X92.529 Y14.988 E650.75006
G1 X104.586 Y18.646 E650.99694
G1 X115.692 Y24.581 E651.24368
G1 X125.429 Y32.571 E651.49048
G1 X133.422 Y42.312 E651.73738
G1 X139.353 Y53.410 E651.98395
G1 X143.012 Y65.470 E652.23089
G1 X144.247 Y77.999 E652.47758
G1 X143.012 Y90.529 E652.72428
G1 X139.354 Y102.586 E652.97117
G1 X133.419 Y113.692 E653.21790
G1 X125.429 Y123.429 E653.46471
G1 X115.690 Y131.421 E653.71156
G1 X104.587 Y137.355 E653.95824
G1 X92.531 Y141.011 E654.20509
G1 X80.000 Y142.247 E654.45182
G1 X67.469 Y141.011 E654.69855
G1 X55.411 Y137.355 E654.94544
G1 X44.312 Y131.422 E655.19204
G1 X34.571 Y123.429 E655.43894
G1 X26.581 Y113.692 E655.68574
G1 X20.646 Y102.586 E655.93248
G1 X16.988 Y90.529 E656.17936
G1 X15.753 Y77.999 E656.42607
G0 F10500 X25.384 Y73.110
G0 X53.248 Y73.246
G1 F1140 X53.248 Y86.753 E656.69073
G1 X79.753 Y86.753 E657.21008
G1 X79.753 Y73.246 E657.47474
G1 X53.248 Y73.246 E657.99409
G0 F10500 X88.247 Y28.155
G1 F1140 X88.247 Y128.797 E659.96610
G1 X97.591 Y128.249 E660.14950
G1 X106.206 Y125.219 E660.32845
G1 X113.901 Y120.683 E660.50347
G1 X120.670 Y114.149 E660.68782
G1 X126.532 Y106.617 E660.87483
G1 X130.594 Y98.070 E661.06025
G1 X133.302 Y88.521 E661.25474
G1 X133.753 Y78.499 E661.45131
G1 X133.302 Y68.975 E661.63814
G1 X130.594 Y59.425 E661.83264
G1 X126.532 Y50.879 E662.01805
G1 X120.670 Y43.345 E662.20509
G1 X113.901 Y36.812 E662.38943
G1 X106.206 Y32.276 E662.56445
G1 X97.612 Y29.253 E662.74296
G1 X88.247 Y28.155 E662.92772
G0 F10500 X88.747 Y28.717
;TYPE:WALL-OUTER
G1 F1080 X88.747 Y128.267 E664.87833
G1 X97.492 Y127.754 E665.04998
G1 X105.994 Y124.764 E665.22657
G1 X113.596 Y120.282 E665.39949
G1 X120.297 Y113.814 E665.58198
G1 X126.104 Y106.353 E665.76723
G1 X130.125 Y97.893 E665.95077
G1 X132.805 Y88.440 E666.14330
G1 X133.252 Y78.500 E666.33826
G1 X132.805 Y69.056 E666.52352
G1 X130.125 Y59.602 E666.71606
G1 X126.104 Y51.143 E666.89958
G1 X120.297 Y43.680 E667.08487
G1 X113.596 Y37.213 E667.26734
G1 X105.994 Y32.731 E667.44026
G1 X97.499 Y29.743 E667.61671
G1 X88.747 Y28.717 E667.78938
G0 F10500 X88.788 Y28.370
G0 X92.566 Y14.841
G0 X92.633 Y14.497
G1 F1080 X104.775 Y18.180 E668.03800
G1 X115.973 Y24.164 E668.28678
G1 X125.784 Y32.216 E668.53547
G1 X133.838 Y42.030 E668.78423
G1 X139.819 Y53.221 E669.03287
G1 X143.503 Y65.367 E669.28157
G1 X144.749 Y77.999 E669.53028
G1 X143.503 Y90.633 E669.77904
G1 X139.820 Y102.775 E670.02766
G1 X133.836 Y113.973 E670.27644
G1 X125.784 Y123.784 E670.52513
G1 X115.970 Y131.838 E670.77390
G1 X104.778 Y137.820 E671.02256
G1 X92.634 Y141.503 E671.27121
G1 X80.000 Y142.749 E671.51997
G1 X67.366 Y141.503 E671.76872
G1 X55.222 Y137.820 E672.01738
G1 X44.030 Y131.838 E672.26604
G1 X34.216 Y123.784 E672.51480
G1 X26.164 Y113.973 E672.76350
G1 X20.180 Y102.775 E673.01228
G1 X16.497 Y90.633 E673.26090
G1 X15.251 Y77.999 E673.50965
G1 X16.497 Y65.367 E673.75837
G1 X20.181 Y53.221 E674.00707
G1 X26.162 Y42.030 E674.25570
G1 X34.216 Y32.216 E674.50446
G1 X44.027 Y24.164 E674.75316
G1 X55.225 Y18.180 E675.00194
G1 X67.367 Y14.497 E675.25056
G1 X80.000 Y13.251 E675.49929
G1 X92.633 Y14.497 E675.74803
G0 F10500 X92.566 Y14.841
G0 X88.364 Y28.287
G0 X79.253 Y73.396
G0 X79.253 Y73.746
G1 F1080 X53.748 Y73.746 E676.24778
G1 X53.748 Y86.253 E676.49285
G1 X79.253 Y86.253 E676.99260
G1 X79.253 Y73.746 E677.23767
G0 F10500 X79.253 Y73.396
G0 X53.357 Y73.355
G0 X37.437 Y77.657
G0 X37.313 Y77.983
G1 F1080 X25.748 Y73.635 E677.47977
G1 X25.748 Y77.764 E677.56067
G1 X27.575 Y78.316 E677.59807
G1 X27.575 Y81.826 E677.66684
G1 X25.748 Y82.366 E677.70417
G1 X25.748 Y86.405 E677.78331
G1 X37.313 Y82.058 E678.02540
G1 X37.313 Y77.983 E678.10525
G0 F10500 X37.437 Y77.657
G0 X37.727 Y77.697
G0 X37.727 Y82.344
G0 X31.006 Y88.337
G0 X31.006 Y88.687
G1 F1080 X25.748 Y88.687 E678.20828
G1 X25.748 Y95.253 E678.33693
G1 X28.105 Y95.253 E678.38312
G1 X28.105 Y90.680 E678.47272
G1 X31.006 Y90.680 E678.52956
G1 X31.006 Y88.687 E678.56862
G0 F10500 X31.006 Y88.337
G0 X37.727 Y82.344
G0 X37.727 Y77.697
G0 X30.146 Y72.732
G0 X30.313 Y72.426
G1 F1080 X30.313 Y69.460 E678.62673
G1 X27.025 Y67.962 E678.69753
G1 X30.313 Y66.485 E678.76816
G1 X30.313 Y63.590 E678.82488
G1 X24.748 Y66.598 E678.94884
G1 X24.748 Y69.366 E679.00307
G1 X30.313 Y72.426 E679.12751
G0 F10500 X29.910 Y72.973
;TYPE:SKIN
G1 F1380 X28.816 Y74.067 E679.15783
G0 F10500 X28.302 Y73.874
G1 F1380 X29.454 Y72.722 E679.18975
G0 F10500 X28.998 Y72.471
G1 F1380 X27.788 Y73.681 E679.22328
G0 F10500 X27.274 Y73.488
G1 F1380 X28.541 Y72.221 E679.25839
G0 F10500 X28.085 Y71.970
G1 F1380 X26.761 Y73.294 E679.29508
G0 F10500 X26.247 Y73.101
G1 F1380 X27.629 Y71.719 E679.33337
G0 F10500 X27.173 Y71.467
G1 F1380 X25.733 Y72.908 E679.37329
G0 F10500 X25.218 Y72.715
G1 F1380 X26.716 Y71.217 E679.41480
G0 F10500 X26.260 Y70.966
G1 F1380 X16.225 Y81.001 E679.69288
G0 F10500 X16.161 Y80.358
G1 F1380 X25.804 Y70.715 E679.96009
G0 F10500 X25.347 Y70.465
G1 F1380 X16.098 Y79.714 E680.21639
G0 F10500 X16.035 Y79.070
G1 F1380 X24.891 Y70.214 E680.46179
G0 F10500 X24.435 Y69.963
G1 F1380 X15.971 Y78.427 E680.69633
G0 F10500 X15.955 Y77.736
G1 F1380 X24.072 Y69.618 E680.92127
G0 F10500 X24.072 Y68.911
G1 F1380 X16.032 Y76.952 E681.14408
G0 F10500 X16.110 Y76.167
G1 F1380 X24.072 Y68.204 E681.36473
G0 F10500 X24.072 Y67.497
G1 F1380 X16.187 Y75.383 E681.58324
G0 F10500 X16.264 Y74.599
G1 F1380 X24.072 Y66.790 E681.79962
G0 F10500 X25.368 Y65.495
G1 F1380 X76.599 Y14.263 E683.21927
G0 F10500 X75.815 Y14.340
G1 F1380 X16.341 Y73.814 E684.86733
G0 F10500 X16.419 Y73.029
G1 F1380 X75.030 Y14.418 E686.49147
G0 F10500 X74.246 Y14.495
G1 F1380 X16.496 Y72.245 E688.09176
G0 F10500 X16.573 Y71.460
G1 F1380 X73.462 Y14.572 E689.66817
G0 F10500 X72.677 Y14.650
G1 F1380 X16.650 Y70.676 E691.22070
G0 F10500 X16.728 Y69.892
G1 F1380 X71.892 Y14.727 E692.74933
G0 F10500 X71.108 Y14.805
G1 F1380 X16.805 Y69.107 E694.25409
G0 F10500 X16.882 Y68.323
G1 F1380 X70.323 Y14.882 E695.73497
G0 F10500 X69.539 Y14.959
G1 F1380 X16.959 Y67.539 E697.19199
G0 F10500 X17.037 Y66.754
G1 F1380 X68.754 Y15.037 E698.62510
G0 F10500 X67.970 Y15.114
G1 F1380 X17.114 Y65.970 E700.03435
G0 F10500 X17.285 Y65.092
G1 F1380 X67.093 Y15.284 E701.41455
G0 F10500 X66.077 Y15.593
G1 F1380 X17.592 Y64.078 E702.75810
G0 F10500 X17.900 Y63.063
G1 F1380 X65.063 Y15.900 E704.06501
G0 F10500 X64.048 Y16.208
G1 F1380 X18.208 Y62.047 E705.33525
G0 F10500 X18.516 Y61.033
G1 F1380 X63.032 Y16.516 E706.56883
G0 F10500 X62.018 Y16.824
G1 F1380 X18.824 Y60.017 E707.76575
G0 F10500 X19.132 Y59.003
G1 F1380 X61.003 Y17.131 E708.92603
G0 F10500 X77.384 Y14.185
G1 F1380 X26.906 Y64.663 E710.32480
G0 F10500 X28.445 Y63.831
G1 F1380 X78.168 Y14.108 E711.70266
G0 F10500 X78.953 Y14.031
G1 F1380 X29.984 Y62.999 E713.05960
G0 F10500 X30.988 Y62.703
G1 F1380 X79.737 Y13.954 E714.41046
G0 F10500 X80.428 Y13.970
G1 F1380 X30.988 Y63.410 E715.78047
G0 F10500 X30.988 Y64.117
G1 F1380 X81.071 Y14.033 E717.16832
G0 F10500 X81.715 Y14.097
G1 F1380 X30.988 Y64.824 E718.57399
G0 F10500 X30.988 Y65.531
G1 F1380 X82.358 Y14.161 E719.99748
G0 F10500 X83.003 Y14.224
G1 F1380 X30.988 Y66.238 E721.43883
G0 F10500 X29.750 Y67.476
G1 F1380 X29.074 Y68.152 E721.45757
G0 F10500 X29.560 Y68.373
G1 F1380 X83.646 Y14.287 E722.95632
G0 F10500 X84.289 Y14.351
G1 F1380 X30.045 Y68.595 E724.45945
G0 F10500 X30.531 Y68.817
G1 F1380 X84.933 Y14.415 E725.96696
G0 F10500 X85.577 Y14.478
G1 F1380 X30.988 Y69.067 E727.47965
G0 F10500 X30.988 Y69.774
G1 F1380 X86.221 Y14.541 E729.01019
G0 F10500 X86.864 Y14.605
G1 F1380 X30.988 Y70.481 E730.55855
G0 F10500 X30.988 Y71.188
G1 F1380 X87.507 Y14.668 E732.12473
G0 F10500 X88.151 Y14.732
G1 F1380 X30.988 Y71.895 E733.70875
G0 F10500 X30.988 Y72.602
G1 F1380 X88.795 Y14.795 E735.31062
G0 F10500 X89.439 Y14.859
G1 F1380 X30.988 Y73.310 E736.93033
G0 F10500 X30.823 Y73.474
G1 F1380 X29.844 Y74.454 E736.95747
G0 F10500 X29.330 Y74.261
G1 F1380 X30.367 Y73.223 E736.98622
G0 F10500 X30.358 Y74.647
G1 F1380 X90.082 Y14.922 E738.64122
G0 F10500 X90.726 Y14.986
G1 F1380 X30.872 Y74.840 E740.29981
G0 F10500 X31.386 Y75.033
G1 F1380 X91.370 Y15.049 E741.96200
G0 F10500 X92.013 Y15.112
G1 F1380 X31.899 Y75.226 E743.62779
G0 F10500 X32.413 Y75.420
G1 F1380 X92.631 Y15.202 E745.29647
G0 F10500 X93.174 Y15.366
G1 F1380 X32.927 Y75.613 E746.96595
G0 F10500 X33.441 Y75.806
G1 F1380 X93.717 Y15.530 E748.63623
G0 F10500 X94.259 Y15.695
G1 F1380 X33.955 Y75.999 E750.30729
G0 F10500 X34.469 Y76.192
G1 F1380 X94.801 Y15.860 E751.97912
G0 F10500 X95.344 Y16.024
G1 F1380 X34.983 Y76.385 E753.65176
G0 F10500 X35.497 Y76.578
G1 F1380 X95.887 Y16.189 E755.32518
G0 F10500 X96.429 Y16.353
G1 F1380 X36.010 Y76.772 E756.99943
G0 F10500 X36.524 Y76.965
G1 F1380 X96.971 Y16.518 E758.67445
G0 F10500 X97.514 Y16.682
G1 F1380 X37.038 Y77.158 E760.35027
G0 F10500 X37.553 Y77.351
G1 F1380 X98.057 Y16.847 E762.02687
G0 F10500 X98.599 Y17.012
G1 F1380 X37.987 Y77.624 E763.70647
G0 F10500 X37.987 Y78.331
G1 F1380 X88.071 Y28.247 E765.09432
G0 F10500 X88.330 Y27.988
G1 F1380 X99.142 Y17.177 E765.39392
G0 F10500 X99.685 Y17.341
G1 F1380 X88.963 Y28.062 E765.69101
G0 F10500 X89.596 Y28.137
G1 F1380 X100.227 Y17.505 E765.98562
G0 F10500 X100.769 Y17.670
G1 F1380 X90.228 Y28.211 E766.27772
G0 F10500 X90.861 Y28.285
G1 F1380 X101.312 Y17.835 E766.56731
G0 F10500 X101.855 Y17.999
G1 F1380 X91.494 Y28.359 E766.85440
G0 F10500 X92.127 Y28.434
G1 F1380 X102.397 Y18.164 E767.13899
G0 F10500 X102.939 Y18.328
G1 F1380 X92.760 Y28.508 E767.42107
G0 F10500 X93.393 Y28.582
G1 F1380 X103.482 Y18.492 E767.70065
G0 F10500 X104.025 Y18.657
G1 F1380 X94.026 Y28.656 E767.97773
G0 F10500 X94.658 Y28.731
G1 F1380 X104.560 Y18.829 E768.25212
G0 F10500 X105.021 Y19.075
G1 F1380 X95.291 Y28.805 E768.52175
G0 F10500 X95.924 Y28.879
G1 F1380 X105.481 Y19.322 E768.78658
G0 F10500 X105.942 Y19.568
G1 F1380 X96.557 Y28.953 E769.04664
G0 F10500 X97.190 Y29.028
G1 F1380 X106.404 Y19.814 E769.30196
G0 F10500 X106.864 Y20.061
G1 F1380 X97.792 Y29.132 E769.55334
G0 F10500 X98.316 Y29.316
G1 F1380 X107.325 Y20.307 E769.80299
G0 F10500 X107.786 Y20.553
G1 F1380 X98.839 Y29.500 E770.05091
G0 F10500 X99.362 Y29.684
G1 F1380 X108.246 Y20.800 E770.29709
G0 F10500 X108.707 Y21.046
G1 F1380 X99.885 Y29.868 E770.54156
G0 F10500 X97.600 Y29.304
G0 X88.364 Y28.287
G0 X88.071 Y29.661
G1 F1380 X37.987 Y79.745 E771.92941
G0 F10500 X37.987 Y79.038
G1 F1380 X88.071 Y28.954 E773.31727
G0 F10500 X88.071 Y30.368
G1 F1380 X37.987 Y80.452 E774.70512
G0 F10500 X37.987 Y81.159
G1 F1380 X88.071 Y31.075 E776.09298
G0 F10500 X88.071 Y31.783
G1 F1380 X37.987 Y81.866 E777.48082
G0 F10500 X36.934 Y82.920
G1 F1380 X31.681 Y88.173 E777.62639
G0 F10500 X31.136 Y88.011
G1 F1380 X35.801 Y83.345 E777.75567
G0 F10500 X34.668 Y83.771
G1 F1380 X30.428 Y88.011 E777.87316
G0 F10500 X29.721 Y88.011
G1 F1380 X33.535 Y84.198 E777.97884
G0 F10500 X32.402 Y84.623
G1 F1380 X29.014 Y88.011 E778.07272
G0 F10500 X28.307 Y88.011
G1 F1380 X31.268 Y85.050 E778.15477
G0 F10500 X30.136 Y85.475
G1 F1380 X27.600 Y88.011 E778.22504
G0 F10500 X26.893 Y88.011
G1 F1380 X29.003 Y85.901 E778.28351
G0 F10500 X27.869 Y86.327
G1 F1380 X26.186 Y88.011 E778.33016
G0 F10500 X25.479 Y88.011
G1 F1380 X26.737 Y86.753 E778.36502
G0 F10500 X25.603 Y87.179
G1 F1380 X18.354 Y94.429 E778.56591
G0 F10500 X18.519 Y94.971
G1 F1380 X25.072 Y88.418 E778.74750
G0 F10500 X25.072 Y89.125
G1 F1380 X18.683 Y95.514 E778.92454
G0 F10500 X18.847 Y96.056
G1 F1380 X25.072 Y89.832 E779.09703
G0 F10500 X25.072 Y90.539
G1 F1380 X19.012 Y96.599 E779.26495
G0 F10500 X19.177 Y97.141
G1 F1380 X25.072 Y91.246 E779.42831
G0 F10500 X25.072 Y91.953
G1 F1380 X19.341 Y97.684 E779.58712
G0 F10500 X19.506 Y98.227
G1 F1380 X25.072 Y92.660 E779.74137
G0 F10500 X25.072 Y93.367
G1 F1380 X19.671 Y98.769 E779.89105
G0 F10500 X19.835 Y99.311
G1 F1380 X25.072 Y94.074 E780.03617
G0 F10500 X25.072 Y94.782
G1 F1380 X19.999 Y99.854 E780.17673
G0 F10500 X18.189 Y93.886
G1 F1380 X25.073 Y87.003 E780.36747
G0 F10500 X25.073 Y86.296
G1 F1380 X18.024 Y93.344 E780.56279
G0 F10500 X17.860 Y92.801
G1 F1380 X25.073 Y85.588 E780.76267
G0 F10500 X25.073 Y84.881
G1 F1380 X17.696 Y92.259 E780.96710
G0 F10500 X17.531 Y91.716
G1 F1380 X25.073 Y84.174 E781.17609
G0 F10500 X25.073 Y83.467
G1 F1380 X17.366 Y91.174 E781.38966
G0 F10500 X17.202 Y90.631
G1 F1380 X25.073 Y82.760 E781.60777
G0 F10500 X25.073 Y82.053
G1 F1380 X17.113 Y90.013 E781.82835
G0 F10500 X17.049 Y89.369
G1 F1380 X26.899 Y79.519 E782.10130
G0 F10500 X26.897 Y78.814
G1 F1380 X16.986 Y88.725 E782.37593
G0 F10500 X16.923 Y88.082
G1 F1380 X26.354 Y78.650 E782.63729
G0 F10500 X25.811 Y78.486
G1 F1380 X16.859 Y87.438 E782.88535
G0 F10500 X16.796 Y86.794
G1 F1380 X25.268 Y78.322 E783.12012
G0 F10500 X25.072 Y77.811
G1 F1380 X16.732 Y86.151 E783.35122
G0 F10500 X16.669 Y85.507
G1 F1380 X25.072 Y77.104 E783.58407
G0 F10500 X25.072 Y76.397
G1 F1380 X16.605 Y84.864 E783.81870
G0 F10500 X16.542 Y84.219
G1 F1380 X25.072 Y75.690 E784.05506
G0 F10500 X25.072 Y74.983
G1 F1380 X16.479 Y83.576 E784.29317
G0 F10500 X16.415 Y82.933
G1 F1380 X25.072 Y74.275 E784.53308
G0 F10500 X25.072 Y73.568
G1 F1380 X16.352 Y82.288 E784.77471
G0 F10500 X16.288 Y81.645
G1 F1380 X25.072 Y72.861 E785.01812
G0 F10500 X25.338 Y78.068
G0 X26.899 Y80.226
G1 F1380 X25.346 Y81.780 E785.06117
G0 F10500 X26.349 Y81.484
G1 F1380 X26.899 Y80.934 E785.07641
G0 F10500 X25.338 Y82.060
G0 X25.384 Y86.930
G0 X29.605 Y85.431
G0 X31.681 Y88.880
G1 F1380 X88.071 Y32.490 E786.63901
G0 F10500 X88.071 Y33.197
G1 F1380 X31.681 Y89.587 E788.20161
G0 F10500 X31.681 Y90.294
G1 F1380 X88.071 Y33.904 E789.76421
G0 F10500 X88.071 Y34.611
G1 F1380 X31.681 Y91.001 E791.32681
G0 F10500 X31.329 Y91.353
G1 F1380 X28.779 Y93.903 E791.39747
G0 F10500 X28.779 Y94.610
G1 F1380 X88.071 Y35.318 E793.04048
G0 F10500 X88.071 Y36.025
G1 F1380 X28.779 Y95.317 E794.68350
G0 F10500 X28.170 Y95.926
G1 F1380 X21.076 Y103.021 E794.88009
G0 F10500 X21.322 Y103.481
G1 F1380 X88.071 Y36.732 E796.72975
G0 F10500 X88.071 Y37.439
G1 F1380 X21.568 Y103.942 E798.57258
G0 F10500 X21.814 Y104.403
G1 F1380 X53.072 Y73.145 E799.43876
G0 F10500 X53.147 Y73.071
G1 F1380 X88.071 Y38.146 E800.40654
G0 F10500 X88.071 Y38.854
G1 F1380 X53.854 Y73.071 E801.35471
G0 F10500 X54.561 Y73.071
G1 F1380 X88.071 Y39.561 E802.28329
G0 F10500 X88.071 Y40.268
G1 F1380 X55.268 Y73.071 E803.19228
G0 F10500 X55.975 Y73.071
G1 F1380 X88.071 Y40.975 E804.08168
G0 F10500 X88.071 Y41.682
G1 F1380 X56.683 Y73.071 E804.95147
G0 F10500 X57.390 Y73.071
G1 F1380 X88.071 Y42.389 E805.80167
G0 F10500 X88.071 Y43.096
G1 F1380 X58.097 Y73.071 E806.63228
G0 F10500 X58.804 Y73.071
G1 F1380 X88.071 Y43.803 E807.44330
G0 F10500 X88.071 Y44.510
G1 F1380 X59.511 Y73.071 E808.23473
G0 F10500 X53.357 Y73.355
G0 X53.072 Y73.853
G1 F1380 X22.061 Y104.863 E809.09405
G0 F10500 X22.307 Y105.324
G1 F1380 X53.072 Y74.560 E809.94655
G0 F10500 X53.072 Y75.267
G1 F1380 X22.553 Y105.786 E810.79225
G0 F10500 X22.800 Y106.246
G1 F1380 X53.072 Y75.974 E811.63110
G0 F10500 X53.072 Y76.681
G1 F1380 X23.046 Y106.707 E812.46314
G0 F10500 X23.292 Y107.168
G1 F1380 X53.072 Y77.388 E813.28836
G0 F10500 X53.072 Y78.095
G1 F1380 X23.538 Y107.629 E814.10676
G0 F10500 X23.785 Y108.089
G1 F1380 X53.072 Y78.802 E814.91832
G0 F10500 X53.072 Y79.509
G1 F1380 X24.031 Y108.550 E815.72307
G0 F10500 X24.277 Y109.011
G1 F1380 X53.072 Y80.217 E816.52098
G0 F10500 X53.072 Y80.924
G1 F1380 X24.524 Y109.472 E817.31206
G0 F10500 X24.770 Y109.933
G1 F1380 X53.072 Y81.631 E818.09632
G0 F10500 X53.072 Y82.338
G1 F1380 X25.016 Y110.394 E818.87377
G0 F10500 X25.263 Y110.854
G1 F1380 X53.072 Y83.045 E819.64437
G0 F10500 X53.072 Y83.752
G1 F1380 X25.509 Y111.315 E820.40816
G0 F10500 X25.755 Y111.776
G1 F1380 X53.072 Y84.459 E821.16513
G0 F10500 X53.072 Y85.166
G1 F1380 X26.001 Y112.237 E821.91528
G0 F10500 X26.248 Y112.697
G1 F1380 X53.072 Y85.873 E822.65859
G0 F10500 X53.072 Y86.580
G1 F1380 X26.494 Y113.159 E823.39510
G0 F10500 X26.745 Y113.615
G1 F1380 X53.433 Y86.927 E824.13464
G0 F10500 X54.140 Y86.927
G1 F1380 X27.063 Y114.003 E824.88494
G0 F10500 X27.382 Y114.392
G1 F1380 X54.847 Y86.927 E825.64601
G0 F10500 X55.554 Y86.927
G1 F1380 X27.701 Y114.780 E826.41784
G0 F10500 X28.020 Y115.168
G1 F1380 X56.261 Y86.927 E827.20041
G0 F10500 X56.968 Y86.927
G1 F1380 X28.338 Y115.557 E827.99376
G0 F10500 X28.657 Y115.945
G1 F1380 X57.675 Y86.927 E828.79787
G0 F10500 X58.382 Y86.927
G1 F1380 X28.976 Y116.333 E829.61272
G0 F10500 X29.295 Y116.722
G1 F1380 X59.090 Y86.927 E830.43836
G0 F10500 X59.797 Y86.927
G1 F1380 X29.613 Y117.111 E831.27478
G0 F10500 X29.932 Y117.499
G1 F1380 X60.504 Y86.927 E832.12194
G0 F10500 X61.211 Y86.927
G1 F1380 X30.251 Y117.887 E832.97986
G0 F10500 X30.570 Y118.275
G1 F1380 X61.918 Y86.927 E833.84853
G0 F10500 X62.625 Y86.927
G1 F1380 X30.889 Y118.663 E834.72796
G0 F10500 X31.207 Y119.052
G1 F1380 X63.332 Y86.927 E835.61816
G0 F10500 X64.039 Y86.927
G1 F1380 X31.526 Y119.440 E836.51911
G0 F10500 X31.845 Y119.829
G1 F1380 X64.746 Y86.927 E837.43083
G0 F10500 X65.454 Y86.927
G1 F1380 X32.164 Y120.217 E838.35332
G0 F10500 X32.482 Y120.606
G1 F1380 X66.161 Y86.927 E839.28658
G0 F10500 X66.868 Y86.927
G1 F1380 X32.801 Y120.994 E840.23060
G0 F10500 X33.120 Y121.382
G1 F1380 X67.575 Y86.927 E841.18536
G0 F10500 X68.282 Y86.927
G1 F1380 X33.439 Y121.770 E842.15088
G0 F10500 X33.757 Y122.159
G1 F1380 X68.989 Y86.927 E843.12718
G0 F10500 X69.696 Y86.927
G1 F1380 X34.076 Y122.547 E844.11423
G0 F10500 X34.395 Y122.936
G1 F1380 X70.403 Y86.927 E845.11205
G0 F10500 X71.110 Y86.927
G1 F1380 X34.716 Y123.321 E846.12055
G0 F10500 X35.105 Y123.639
G1 F1380 X71.818 Y86.927 E847.13787
G0 F10500 X72.525 Y86.927
G1 F1380 X35.493 Y123.958 E848.16403
G0 F10500 X35.882 Y124.277
G1 F1380 X73.232 Y86.927 E849.19902
G0 F10500 X73.939 Y86.927
G1 F1380 X36.270 Y124.596 E850.24285
G0 F10500 X36.659 Y124.914
G1 F1380 X74.646 Y86.927 E851.29550
G0 F10500 X75.353 Y86.927
G1 F1380 X37.047 Y125.233 E852.35698
G0 F10500 X37.435 Y125.552
G1 F1380 X76.060 Y86.927 E853.42730
G0 F10500 X76.767 Y86.927
G1 F1380 X37.823 Y125.871 E854.50646
G0 F10500 X38.212 Y126.190
G1 F1380 X77.474 Y86.927 E855.59444
G0 F10500 X78.181 Y86.927
G1 F1380 X38.600 Y126.508 E856.69126
G0 F10500 X38.989 Y126.827
G1 F1380 X78.889 Y86.927 E857.79691
G0 F10500 X79.596 Y86.927
G1 F1380 X39.377 Y127.146 E858.91140
G0 F10500 X39.765 Y127.465
G1 F1380 X88.071 Y79.159 E860.24998
G0 F10500 X88.071 Y79.866
G1 F1380 X40.154 Y127.783 E861.57779
G0 F10500 X40.542 Y128.102
G1 F1380 X88.071 Y80.573 E862.89485
G0 F10500 X88.071 Y81.280
G1 F1380 X40.930 Y128.421 E864.20115
G0 F10500 X41.319 Y128.740
G1 F1380 X88.071 Y81.987 E865.49669
G0 F10500 X88.071 Y82.694
G1 F1380 X41.707 Y129.058 E866.78146
G0 F10500 X42.096 Y129.377
G1 F1380 X88.071 Y83.401 E868.05547
G0 F10500 X88.071 Y84.108
G1 F1380 X42.484 Y129.696 E869.31872
G0 F10500 X42.872 Y130.015
G1 F1380 X88.071 Y84.816 E870.57121
G0 F10500 X88.071 Y85.523
G1 F1380 X43.261 Y130.333 E871.81293
G0 F10500 X43.649 Y130.652
G1 F1380 X88.071 Y86.230 E873.04388
G0 F10500 X88.071 Y86.937
G1 F1380 X44.037 Y130.971 E874.26409
G0 F10500 X44.429 Y131.286
G1 F1380 X88.071 Y87.644 E875.47344
G0 F10500 X88.071 Y88.351
G1 F1380 X44.889 Y131.533 E876.67003
G0 F10500 X45.351 Y131.779
G1 F1380 X88.071 Y89.058 E877.85384
G0 F10500 X88.071 Y89.765
G1 F1380 X45.812 Y132.025 E879.02488
G0 F10500 X46.272 Y132.272
G1 F1380 X88.071 Y90.472 E880.18317
G0 F10500 X88.071 Y91.180
G1 F1380 X46.733 Y132.518 E881.32866
G0 F10500 X47.193 Y132.764
G1 F1380 X88.071 Y91.887 E882.46140
G0 F10500 X88.071 Y92.594
G1 F1380 X47.654 Y133.011 E883.58138
G0 F10500 X48.115 Y133.257
G1 F1380 X88.071 Y93.301 E884.68858
G0 F10500 X88.071 Y94.008
G1 F1380 X48.576 Y133.503 E885.78301
G0 F10500 X49.037 Y133.749
G1 F1380 X88.071 Y94.715 E886.86467
G0 F10500 X88.071 Y95.422
G1 F1380 X49.498 Y133.996 E887.93356
G0 F10500 X49.958 Y134.242
G1 F1380 X88.071 Y96.129 E888.98969
G0 F10500 X88.071 Y96.836
G1 F1380 X50.419 Y134.488 E890.03305
G0 F10500 X50.880 Y134.734
G1 F1380 X88.071 Y97.543 E891.06364
G0 F10500 X88.071 Y98.251
G1 F1380 X51.340 Y134.981 E892.08146
G0 F10500 X51.801 Y135.227
G1 F1380 X88.071 Y98.958 E893.08651
G0 F10500 X88.071 Y99.665
G1 F1380 X52.262 Y135.473 E894.07878
G0 F10500 X52.723 Y135.720
G1 F1380 X88.071 Y100.372 E895.05829
G0 F10500 X88.071 Y101.079
G1 F1380 X53.184 Y135.966 E896.02503
G0 F10500 X53.645 Y136.212
G1 F1380 X88.071 Y101.786 E896.97900
G0 F10500 X88.071 Y102.493
G1 F1380 X54.105 Y136.459 E897.92021
G0 F10500 X54.566 Y136.705
G1 F1380 X88.071 Y103.200 E898.84866
G0 F10500 X88.071 Y103.907
G1 F1380 X55.027 Y136.952 E899.76434
G0 F10500 X55.490 Y137.196
G1 F1380 X88.071 Y104.615 E900.66718
G0 F10500 X88.071 Y105.322
G1 F1380 X56.032 Y137.361 E901.55500
G0 F10500 X56.575 Y137.525
G1 F1380 X88.071 Y106.029 E902.42777
G0 F10500 X88.071 Y106.736
G1 F1380 X57.117 Y137.689 E903.28551
G0 F10500 X57.660 Y137.854
G1 F1380 X88.071 Y107.443 E904.12821
G0 F10500 X88.071 Y108.150
G1 F1380 X58.203 Y138.018 E904.95587
G0 F10500 X58.745 Y138.183
G1 F1380 X88.071 Y108.857 E905.76851
G0 F10500 X88.071 Y109.564
G1 F1380 X59.288 Y138.348 E906.56612
G0 F10500 X59.831 Y138.512
G1 F1380 X88.071 Y110.271 E907.34868
G0 F10500 X88.071 Y110.978
G1 F1380 X60.373 Y138.677 E908.11622
G0 F10500 X60.915 Y138.841
G1 F1380 X88.071 Y111.686 E908.86871
G0 F10500 X88.071 Y112.393
G1 F1380 X61.458 Y139.005 E909.60616
G0 F10500 X62.001 Y139.170
G1 F1380 X88.071 Y113.100 E910.32858
G0 F10500 X88.071 Y113.807
G1 F1380 X62.544 Y139.334 E911.03594
G0 F10500 X63.086 Y139.499
G1 F1380 X88.071 Y114.514 E911.72829
G0 F10500 X88.071 Y115.221
G1 F1380 X63.629 Y139.664 E912.40561
G0 F10500 X64.172 Y139.828
G1 F1380 X88.071 Y115.928 E913.06788
G0 F10500 X88.071 Y116.635
G1 F1380 X64.714 Y139.993 E913.71513
G0 F10500 X65.256 Y140.157
G1 F1380 X88.071 Y117.342 E914.34734
G0 F10500 X88.071 Y118.050
G1 F1380 X65.799 Y140.321 E914.96450
G0 F10500 X66.342 Y140.486
G1 F1380 X88.071 Y118.757 E915.56662
G0 F10500 X88.071 Y119.464
G1 F1380 X66.884 Y140.651 E916.15373
G0 F10500 X67.427 Y140.815
G1 F1380 X88.071 Y120.171 E916.72578
G0 F10500 X88.071 Y120.878
G1 F1380 X68.057 Y140.892 E917.28038
G0 F10500 X68.701 Y140.956
G1 F1380 X88.071 Y121.585 E917.81715
G0 F10500 X88.071 Y122.292
G1 F1380 X69.344 Y141.019 E918.33609
G0 F10500 X69.988 Y141.082
G1 F1380 X88.071 Y122.999 E918.83718
G0 F10500 X88.071 Y123.706
G1 F1380 X70.632 Y141.146 E919.32043
G0 F10500 X71.275 Y141.209
G1 F1380 X88.071 Y124.414 E919.78585
G0 F10500 X88.071 Y125.121
G1 F1380 X71.919 Y141.273 E920.23343
G0 F10500 X72.563 Y141.336
G1 F1380 X88.071 Y125.828 E920.66316
G0 F10500 X88.071 Y126.535
G1 F1380 X73.206 Y141.400 E921.07508
G0 F10500 X73.850 Y141.463
G1 F1380 X88.071 Y127.242 E921.46915
G0 F10500 X88.071 Y127.949
G1 F1380 X74.493 Y141.527 E921.84541
G0 F10500 X75.137 Y141.591
G1 F1380 X88.071 Y128.656 E922.20383
G0 F10500 X88.478 Y128.957
G1 F1380 X75.781 Y141.653 E922.55566
G0 F10500 X76.424 Y141.717
G1 F1380 X89.229 Y128.913 E922.91048
G0 F10500 X89.980 Y128.869
G1 F1380 X77.068 Y141.781 E923.26828
G0 F10500 X77.711 Y141.844
G1 F1380 X90.730 Y128.825 E923.62904
G0 F10500 X91.481 Y128.781
G1 F1380 X78.355 Y141.907 E923.99277
G0 F10500 X78.999 Y141.971
G1 F1380 X92.233 Y128.737 E924.35949
G0 F10500 X92.984 Y128.693
G1 F1380 X79.642 Y142.035 E924.72920
G0 F10500 X80.349 Y142.035
G1 F1380 X93.735 Y128.649 E925.10014
G0 F10500 X94.486 Y128.605
G1 F1380 X81.134 Y141.958 E925.47014
G0 F10500 X81.918 Y141.880
G1 F1380 X95.237 Y128.561 E925.83922
G0 F10500 X95.988 Y128.518
G1 F1380 X82.702 Y141.803 E926.20737
G0 F10500 X83.487 Y141.726
G1 F1380 X96.739 Y128.474 E926.57459
G0 F10500 X97.490 Y128.430
G1 F1380 X84.271 Y141.649 E926.94090
G0 F10500 X85.056 Y141.571
G1 F1380 X98.520 Y128.107 E927.31399
G0 F10500 X99.611 Y127.723
G1 F1380 X85.840 Y141.494 E927.69559
G0 F10500 X86.624 Y141.417
G1 F1380 X100.702 Y127.339 E928.08570
G0 F10500 X101.793 Y126.955
G1 F1380 X87.409 Y141.339 E928.48429
G0 F10500 X88.193 Y141.262
G1 F1380 X102.884 Y126.571 E928.89139
G0 F10500 X103.975 Y126.187
G1 F1380 X88.978 Y141.184 E929.30696
G0 F10500 X89.762 Y141.107
G1 F1380 X105.066 Y125.803 E929.73104
G0 F10500 X106.157 Y125.419
G1 F1380 X90.547 Y141.030 E930.16362
G0 F10500 X91.332 Y140.952
G1 F1380 X107.809 Y124.474 E930.62022
G0 F10500 X109.532 Y123.459
G1 F1380 X92.116 Y140.875 E931.10283
G0 F10500 X93.018 Y140.680
G1 F1380 X111.254 Y122.444 E931.60816
G0 F10500 X112.977 Y121.427
G1 F1380 X94.033 Y140.372 E932.13312
G0 F10500 X95.048 Y140.064
G1 F1380 X142.064 Y93.048 E933.43596
G0 F10500 X142.371 Y92.034
G1 F1380 X123.120 Y111.285 E933.96942
G0 F10500 X125.602 Y108.096
G1 F1380 X142.680 Y91.018 E934.44266
G0 F10500 X142.875 Y90.115
G1 F1380 X127.043 Y105.948 E934.88139
G0 F10500 X127.683 Y104.600
G1 F1380 X142.952 Y89.331 E935.30450
G0 F10500 X143.030 Y88.547
G1 F1380 X128.323 Y103.253 E935.71202
G0 F10500 X128.963 Y101.906
G1 F1380 X143.107 Y87.762 E936.10396
G0 F10500 X143.184 Y86.978
G1 F1380 X129.604 Y100.559 E936.48029
G0 F10500 X137.837 Y105.054
G1 F1380 X107.051 Y135.840 E937.33338
G0 F10500 X105.532 Y136.651
G1 F1380 X138.649 Y103.534 E938.25107
G0 F10500 X139.293 Y102.183
G1 F1380 X104.181 Y137.295 E939.22405
G0 F10500 X103.166 Y137.602
G1 F1380 X139.601 Y101.168 E940.23367
G0 F10500 X139.909 Y100.153
G1 F1380 X102.152 Y137.910 E941.27994
G0 F10500 X101.137 Y138.218
G1 F1380 X140.217 Y99.138 E942.36286
G0 F10500 X140.524 Y98.123
G1 F1380 X100.122 Y138.526 E943.48244
G0 F10500 X108.570 Y135.027
G1 F1380 X137.025 Y106.573 E944.27093
G0 F10500 X136.213 Y108.091
G1 F1380 X110.089 Y134.215 E944.99484
G0 F10500 X111.608 Y133.404
G1 F1380 X135.401 Y109.610 E945.65417
G0 F10500 X134.589 Y111.129
G1 F1380 X113.127 Y132.592 E946.24891
G0 F10500 X114.646 Y131.780
G1 F1380 X133.778 Y112.648 E946.77907
G0 F10500 X132.049 Y115.084
G1 F1380 X117.082 Y130.051 E947.19381
G0 F10500 X121.026 Y126.813
G1 F1380 X128.812 Y119.028 E947.40955
G0 F10500 X125.575 Y122.972
G1 F1380 X124.971 Y123.576 E947.42629
G0 F10500 X130.244 Y99.212
G1 F1380 X143.261 Y86.194 E947.78701
G0 F10500 X143.339 Y85.409
G1 F1380 X130.814 Y97.934 E948.13409
G0 F10500 X131.094 Y96.947
G1 F1380 X143.416 Y84.625 E948.47554
G0 F10500 X143.493 Y83.840
G1 F1380 X131.373 Y95.961 E948.81140
G0 F10500 X131.653 Y94.974
G1 F1380 X143.571 Y83.056 E949.14166
G0 F10500 X143.648 Y82.271
G1 F1380 X131.933 Y93.987 E949.46630
G0 F10500 X132.212 Y93.000
G1 F1380 X143.725 Y81.487 E949.78533
G0 F10500 X143.803 Y80.702
G1 F1380 X132.492 Y92.013 E950.09877
G0 F10500 X132.772 Y91.027
G1 F1380 X143.880 Y79.918 E950.40659
G0 F10500 X143.957 Y79.134
G1 F1380 X133.052 Y90.040 E950.70879
G0 F10500 X133.332 Y89.053
G1 F1380 X144.035 Y78.349 E951.00539
G0 F10500 X144.034 Y77.643
G1 F1380 X133.491 Y88.186 E951.29754
G0 F10500 X133.524 Y87.446
G1 F1380 X143.971 Y76.999 E951.58703
G0 F10500 X143.907 Y76.356
G1 F1380 X133.557 Y86.706 E951.87384
G0 F10500 X133.590 Y85.965
G1 F1380 X143.844 Y75.712 E952.15797
G0 F10500 X143.780 Y75.068
G1 F1380 X133.624 Y85.225 E952.43941
G0 F10500 X133.658 Y84.484
G1 F1380 X143.717 Y74.425 E952.71815
G0 F10500 X143.653 Y73.781
G1 F1380 X133.691 Y83.744 E952.99422
G0 F10500 X133.724 Y83.003
G1 F1380 X143.590 Y73.137 E953.26761
G0 F10500 X143.527 Y72.494
G1 F1380 X133.757 Y82.263 E953.53833
G0 F10500 X133.791 Y81.522
G1 F1380 X143.463 Y71.850 E953.80635
G0 F10500 X143.400 Y71.206
G1 F1380 X133.824 Y80.782 E954.07170
G0 F10500 X133.858 Y80.041
G1 F1380 X143.336 Y70.562 E954.33436
G0 F10500 X143.273 Y69.919
G1 F1380 X133.891 Y79.301 E954.59434
G0 F10500 X133.924 Y78.560
G1 F1380 X143.209 Y69.275 E954.85163
G0 F10500 X143.146 Y68.631
G1 F1380 X133.898 Y77.880 E955.10791
G0 F10500 X133.866 Y77.204
G1 F1380 X143.083 Y67.988 E955.36330
G0 F10500 X143.019 Y67.344
G1 F1380 X133.834 Y76.529 E955.61783
G0 F10500 X133.802 Y75.854
G1 F1380 X142.956 Y66.700 E955.87149
G0 F10500 X142.892 Y66.057
G1 F1380 X133.770 Y75.179 E956.12426
G0 F10500 X133.738 Y74.504
G1 F1380 X142.815 Y65.427 E956.37579
G0 F10500 X142.651 Y64.884
G1 F1380 X133.706 Y73.829 E956.62366
G0 F10500 X133.674 Y73.154
G1 F1380 X142.486 Y64.342 E956.86785
G0 F10500 X142.321 Y63.800
G1 F1380 X133.642 Y72.479 E957.10835
G0 F10500 X133.609 Y71.804
G1 F1380 X142.156 Y63.257 E957.34519
G0 F10500 X141.992 Y62.714
G1 F1380 X133.578 Y71.129 E957.57836
G0 F10500 X133.546 Y70.453
G1 F1380 X141.827 Y62.172 E957.80783
G0 F10500 X141.663 Y61.630
G1 F1380 X133.513 Y69.779 E958.03366
G0 F10500 X133.481 Y69.104
G1 F1380 X141.498 Y61.087 E958.25582
G0 F10500 X141.334 Y60.544
G1 F1380 X133.355 Y68.523 E958.47692
G0 F10500 X133.199 Y67.972
G1 F1380 X141.169 Y60.002 E958.69777
G0 F10500 X141.004 Y59.459
G1 F1380 X133.042 Y67.421 E958.91840
G0 F10500 X132.886 Y66.871
G1 F1380 X140.840 Y58.917 E959.13881
G0 F10500 X140.676 Y58.374
G1 F1380 X132.731 Y66.319 E959.35897
G0 F10500 X132.574 Y65.768
G1 F1380 X140.511 Y57.832 E959.57890
G0 F10500 X140.346 Y57.289
G1 F1380 X132.418 Y65.217 E959.79859
G0 F10500 X132.262 Y64.667
G1 F1380 X140.181 Y56.747 E960.01804
G0 F10500 X140.017 Y56.204
G1 F1380 X132.105 Y64.116 E960.23729
G0 F10500 X131.950 Y63.564
G1 F1380 X139.852 Y55.662 E960.45626
G0 F10500 X139.688 Y55.119
G1 F1380 X131.794 Y63.013 E960.67500
G0 F10500 X131.637 Y62.462
G1 F1380 X139.524 Y54.576 E960.89354
G0 F10500 X139.359 Y54.034
G1 F1380 X131.481 Y61.912 E961.11185
G0 F10500 X131.325 Y61.361
G1 F1380 X139.194 Y53.491 E961.32992
G0 F10500 X138.950 Y53.028
G1 F1380 X131.169 Y60.810 E961.54555
G0 F10500 X131.013 Y60.258
G1 F1380 X138.704 Y52.567 E961.75867
G0 F10500 X138.457 Y52.107
G1 F1380 X130.857 Y59.708 E961.96928
G0 F10500 X130.674 Y59.184
G1 F1380 X138.211 Y51.646 E962.17815
G0 F10500 X137.965 Y51.185
G1 F1380 X130.445 Y58.705 E962.38653
G0 F10500 X130.217 Y58.226
G1 F1380 X137.718 Y50.725 E962.59439
G0 F10500 X137.472 Y50.263
G1 F1380 X129.990 Y57.746 E962.80174
G0 F10500 X129.762 Y57.267
G1 F1380 X137.226 Y49.802 E963.00858
G0 F10500 X136.980 Y49.342
G1 F1380 X129.534 Y56.787 E963.21490
G0 F10500 X129.306 Y56.309
G1 F1380 X136.733 Y48.881 E963.42072
G0 F10500 X136.487 Y48.420
G1 F1380 X129.078 Y55.829 E963.62603
G0 F10500 X128.851 Y55.350
G1 F1380 X136.241 Y47.960 E963.83081
G0 F10500 X135.995 Y47.499
G1 F1380 X128.623 Y54.870 E964.03508
G0 F10500 X128.395 Y54.391
G1 F1380 X135.748 Y47.038 E964.23883
G0 F10500 X135.502 Y46.577
G1 F1380 X128.167 Y53.912 E964.44209
G0 F10500 X127.939 Y53.433
G1 F1380 X135.256 Y46.116 E964.64485
G0 F10500 X135.010 Y45.655
G1 F1380 X127.711 Y52.953 E964.84709
G0 F10500 X127.484 Y52.474
G1 F1380 X134.763 Y45.195 E965.04880
G0 F10500 X134.517 Y44.734
G1 F1380 X127.255 Y51.995 E965.25002
G0 F10500 X127.028 Y51.516
G1 F1380 X134.271 Y44.273 E965.45073
G0 F10500 X134.024 Y43.813
G1 F1380 X126.800 Y51.036 E965.65089
G0 F10500 X126.533 Y50.596
G1 F1380 X133.778 Y43.352 E965.85164
G0 F10500 X133.532 Y42.890
G1 F1380 X126.224 Y50.198 E966.05415
G0 F10500 X125.915 Y49.800
G1 F1380 X133.285 Y42.430 E966.25838
G0 F10500 X132.970 Y42.038
G1 F1380 X125.605 Y49.403 E966.46247
G0 F10500 X125.296 Y49.005
G1 F1380 X132.651 Y41.650 E966.66628
G0 F10500 X132.332 Y41.262
G1 F1380 X124.986 Y48.607 E966.86983
G0 F10500 X124.677 Y48.209
G1 F1380 X132.014 Y40.873 E967.07313
G0 F10500 X131.695 Y40.485
G1 F1380 X124.368 Y47.812 E967.27616
G0 F10500 X124.058 Y47.415
G1 F1380 X131.376 Y40.097 E967.47895
G0 F10500 X131.057 Y39.708
G1 F1380 X123.749 Y47.016 E967.68146
G0 F10500 X123.439 Y46.619
G1 F1380 X130.739 Y39.320 E967.88373
G0 F10500 X130.420 Y38.931
G1 F1380 X123.130 Y46.221 E968.08574
G0 F10500 X122.820 Y45.824
G1 F1380 X130.101 Y38.543 E968.28750
G0 F10500 X129.782 Y38.155
G1 F1380 X122.511 Y45.426 E968.48898
G0 F10500 X122.202 Y45.028
G1 F1380 X129.464 Y37.766 E968.69022
G0 F10500 X129.145 Y37.378
G1 F1380 X121.892 Y44.631 E968.89120
G0 F10500 X121.583 Y44.233
G1 F1380 X128.826 Y36.990 E969.09191
G0 F10500 X128.507 Y36.601
G1 F1380 X121.273 Y43.835 E969.29237
G0 F10500 X120.964 Y43.437
G1 F1380 X128.189 Y36.213 E969.49256
G0 F10500 X127.870 Y35.824
G1 F1380 X120.630 Y43.064 E969.69319
G0 F10500 X120.270 Y42.717
G1 F1380 X127.551 Y35.436 E969.89495
G0 F10500 X127.232 Y35.048
G1 F1380 X119.911 Y42.369 E970.09782
G0 F10500 X119.551 Y42.022
G1 F1380 X126.913 Y34.660 E970.30182
G0 F10500 X126.595 Y34.271
G1 F1380 X119.191 Y41.675 E970.50699
G0 F10500 X118.831 Y41.328
G1 F1380 X126.276 Y33.883 E970.71330
G0 F10500 X125.957 Y33.494
G1 F1380 X118.471 Y40.981 E970.92075
G0 F10500 X118.111 Y40.633
G1 F1380 X125.638 Y33.106 E971.12933
G0 F10500 X125.320 Y32.717
G1 F1380 X117.751 Y40.286 E971.33907
G0 F10500 X117.391 Y39.939
G1 F1380 X124.936 Y32.394 E971.54815
G0 F10500 X124.548 Y32.075
G1 F1380 X117.031 Y39.592 E971.75645
G0 F10500 X116.671 Y39.245
G1 F1380 X124.160 Y31.756 E971.96397
G0 F10500 X123.771 Y31.438
G1 F1380 X116.312 Y38.897 E972.17066
G0 F10500 X115.952 Y38.550
G1 F1380 X123.383 Y31.119 E972.37658
G0 F10500 X122.994 Y30.800
G1 F1380 X115.592 Y38.202 E972.58170
G0 F10500 X115.232 Y37.855
G1 F1380 X122.606 Y30.481 E972.78603
G0 F10500 X122.217 Y30.163
G1 F1380 X114.873 Y37.508 E972.98955
G0 F10500 X114.513 Y37.161
G1 F1380 X121.829 Y29.844 E973.19230
G0 F10500 X121.441 Y29.525
G1 F1380 X114.153 Y36.814 E973.39427
G0 F10500 X113.743 Y36.517
G1 F1380 X121.053 Y29.207 E973.59683
G0 F10500 X120.664 Y28.888
G1 F1380 X113.298 Y36.254 E973.80095
G0 F10500 X112.853 Y35.992
G1 F1380 X120.276 Y28.569 E974.00664
G0 F10500 X119.887 Y28.251
G1 F1380 X112.408 Y35.730 E974.21389
G0 F10500 X111.963 Y35.468
G1 F1380 X119.499 Y27.932 E974.42272
G0 F10500 X119.111 Y27.613
G1 F1380 X111.518 Y35.206 E974.63312
G0 F10500 X111.073 Y34.943
G1 F1380 X118.722 Y27.295 E974.84507
G0 F10500 X118.334 Y26.976
G1 F1380 X110.628 Y34.681 E975.05859
G0 F10500 X110.184 Y34.419
G1 F1380 X117.946 Y26.657 E975.27368
G0 F10500 X117.557 Y26.338
G1 F1380 X109.739 Y34.156 E975.49032
G0 F10500 X109.294 Y33.894
G1 F1380 X117.169 Y26.020 E975.70853
G0 F10500 X116.780 Y25.701
G1 F1380 X108.849 Y33.632 E975.92830
G0 F10500 X108.404 Y33.370
G1 F1380 X116.392 Y25.382 E976.14965
G0 F10500 X116.004 Y25.063
G1 F1380 X107.959 Y33.108 E976.37258
G0 F10500 X107.514 Y32.845
G1 F1380 X115.615 Y24.745 E976.59705
G0 F10500 X115.159 Y24.494
G1 F1380 X107.070 Y32.583 E976.82120
G0 F10500 X106.625 Y32.321
G1 F1380 X114.698 Y24.248 E977.04491
G0 F10500 X114.238 Y24.001
G1 F1380 X106.162 Y32.076 E977.26869
G0 F10500 X105.639 Y31.892
G1 F1380 X113.777 Y23.755 E977.49418
G0 F10500 X113.315 Y23.509
G1 F1380 X105.117 Y31.708 E977.72137
G0 F10500 X104.593 Y31.524
G1 F1380 X112.854 Y23.263 E977.95028
G0 F10500 X112.394 Y23.016
G1 F1380 X104.070 Y31.340 E978.18095
G0 F10500 X103.547 Y31.156
G1 F1380 X111.933 Y22.770 E978.41333
G0 F10500 X111.472 Y22.524
G1 F1380 X103.024 Y30.972 E978.64743
G0 F10500 X102.501 Y30.788
G1 F1380 X111.012 Y22.277 E978.88327
G0 F10500 X110.551 Y22.031
G1 F1380 X101.978 Y30.604 E979.12083
G0 F10500 X101.454 Y30.420
G1 F1380 X110.090 Y21.785 E979.36013
G0 F10500 X109.629 Y21.538
G1 F1380 X100.931 Y30.236 E979.60116
G0 F10500 X100.408 Y30.052
G1 F1380 X109.168 Y21.292 E979.84390
G0 F10500 X88.364 Y28.287
G0 X88.071 Y45.218
G1 F1380 X60.218 Y73.071 E980.61572
G0 F10500 X60.925 Y73.071
G1 F1380 X88.071 Y45.925 E981.36795
G0 F10500 X88.071 Y46.632
G1 F1380 X61.632 Y73.071 E982.10059
G0 F10500 X62.339 Y73.071
G1 F1380 X88.071 Y47.339 E982.81364
G0 F10500 X88.071 Y48.046
G1 F1380 X63.047 Y73.071 E983.50708
G0 F10500 X63.754 Y73.071
G1 F1380 X88.071 Y48.753 E984.18094
G0 F10500 X88.071 Y49.460
G1 F1380 X64.461 Y73.071 E984.83520
G0 F10500 X65.168 Y73.071
G1 F1380 X88.071 Y50.167 E985.46987
G0 F10500 X88.071 Y50.874
G1 F1380 X65.875 Y73.071 E986.08494
G0 F10500 X66.582 Y73.071
G1 F1380 X88.071 Y51.582 E986.68042
G0 F10500 X88.071 Y52.289
G1 F1380 X67.289 Y73.071 E987.25630
G0 F10500 X67.996 Y73.071
G1 F1380 X88.071 Y52.996 E987.81259
G0 F10500 X88.071 Y53.703
G1 F1380 X68.703 Y73.071 E988.34928
G0 F10500 X69.411 Y73.071
G1 F1380 X88.071 Y54.410 E988.86638
G0 F10500 X88.071 Y55.117
G1 F1380 X70.118 Y73.071 E989.36388
G0 F10500 X70.825 Y73.071
G1 F1380 X88.071 Y55.824 E989.84179
G0 F10500 X88.071 Y56.531
G1 F1380 X71.532 Y73.071 E990.30011
G0 F10500 X72.239 Y73.071
G1 F1380 X88.071 Y57.238 E990.73884
G0 F10500 X88.071 Y57.945
G1 F1380 X72.946 Y73.071 E991.15797
G0 F10500 X73.653 Y73.071
G1 F1380 X88.071 Y58.653 E991.55750
G0 F10500 X88.071 Y59.360
G1 F1380 X74.360 Y73.071 E991.93744
G0 F10500 X75.067 Y73.071
G1 F1380 X88.071 Y60.067 E992.29779
G0 F10500 X88.071 Y60.774
G1 F1380 X75.774 Y73.071 E992.63855
G0 F10500 X76.482 Y73.071
G1 F1380 X88.071 Y61.481 E992.95970
G0 F10500 X88.071 Y62.188
G1 F1380 X77.189 Y73.071 E993.26126
G0 F10500 X77.896 Y73.071
G1 F1380 X88.071 Y62.895 E993.54323
G0 F10500 X88.071 Y63.602
G1 F1380 X78.603 Y73.071 E993.80561
G0 F10500 X79.310 Y73.071
G1 F1380 X88.071 Y64.309 E994.04839
G0 F10500 X88.071 Y65.017
G1 F1380 X79.927 Y73.160 E994.27405
G0 F10500 X79.927 Y73.867
G1 F1380 X88.071 Y65.724 E994.49971
G0 F10500 X88.071 Y66.431
G1 F1380 X79.927 Y74.575 E994.72539
G0 F10500 X79.927 Y75.282
G1 F1380 X88.071 Y67.138 E994.95106
G0 F10500 X88.071 Y67.845
G1 F1380 X79.927 Y75.989 E995.17674
G0 F10500 X79.927 Y76.696
G1 F1380 X88.071 Y68.552 E995.40241
G0 F10500 X88.071 Y69.259
G1 F1380 X79.927 Y77.403 E995.62809
G0 F10500 X79.927 Y78.110
G1 F1380 X88.071 Y69.966 E995.85376
G0 F10500 X88.071 Y70.673
G1 F1380 X79.927 Y78.817 E996.07944
G0 F10500 X79.927 Y79.524
G1 F1380 X88.071 Y71.381 E996.30510
G0 F10500 X88.071 Y72.088
G1 F1380 X79.928 Y80.231 E996.53075
G0 F10500 X79.928 Y80.938
G1 F1380 X88.071 Y72.795 E996.75639
G0 F10500 X88.071 Y73.502
G1 F1380 X79.928 Y81.645 E996.98204
G0 F10500 X79.928 Y82.352
G1 F1380 X88.071 Y74.209 E997.20769
G0 F10500 X88.071 Y74.916
G1 F1380 X79.928 Y83.059 E997.43333
G0 F10500 X79.928 Y83.766
G1 F1380 X88.071 Y75.623 E997.65898
G0 F10500 X88.071 Y76.330
G1 F1380 X79.928 Y84.473 E997.88463
G0 F10500 X79.928 Y85.180
G1 F1380 X88.071 Y77.037 E998.11028
G0 F10500 X88.071 Y77.744
G1 F1380 X79.928 Y85.888 E998.33594
G0 F10500 X79.928 Y86.595
G1 F1380 X88.071 Y78.452 E998.56158
G0 F10500 X88.360 Y128.677
G0 X97.580 Y128.197
G0 X106.184 Y125.173
G0 X113.870 Y120.642
G0 X120.632 Y114.114
G0 X126.488 Y106.589
G0 X130.547 Y98.052
G0 X141.448 Y95.078
G1 F1380 X97.077 Y139.449 E999.79113
G0 F10500 X96.063 Y139.756
G1 F1380 X141.756 Y94.063 E1001.05731
G0 F10500 X141.140 Y96.093
G1 F1380 X98.092 Y139.141 E1002.25019
G0 F10500 X99.107 Y138.834
G1 F1380 X140.833 Y97.108 E1003.40644
G0 F10500 X113.870 Y120.642
G0 X106.184 Y125.173
G0 X97.580 Y128.197
G0 X88.360 Y128.677
G0 X30.621 Y91.353
G1 F1380 X28.779 Y93.195 E1003.45749
G0 F10500 X28.779 Y92.488
G1 F1380 X29.914 Y91.353 E1003.48894
G0 F10500 X29.207 Y91.353
G1 F1380 X28.779 Y91.781 E1003.50080
G0 F10500 X28.496 Y95.644
G0 X27.463 Y95.926
G1 F1380 X20.829 Y102.560 E1003.68463
G0 F10500 X20.658 Y102.024
G1 F1380 X26.756 Y95.926 E1003.85361
G0 F10500 X26.049 Y95.926
G1 F1380 X20.493 Y101.482 E1004.00757
G0 F10500 X20.329 Y100.939
G1 F1380 X25.341 Y95.926 E1004.14647
G0 F10500 X25.072 Y95.489
G1 F1380 X20.164 Y100.397 E1004.28247
G0 F10500 X19.440 Y57.987
G1 F1380 X59.988 Y17.440 E1005.40607
G0 F10500 X58.973 Y17.747
G1 F1380 X19.748 Y56.973 E1006.49303
G0 F10500 X20.055 Y55.958
G1 F1380 X57.958 Y18.055 E1007.54334
G0 F10500 X56.943 Y18.363
G1 F1380 X20.363 Y54.942 E1008.55698
G0 F10500 X20.671 Y53.928
G1 F1380 X55.928 Y18.671 E1009.53397
G0 F10500 X54.632 Y19.260
G1 F1380 X21.259 Y52.633 E1010.45876
G0 F10500 X22.070 Y51.114
G1 F1380 X53.113 Y20.071 E1011.31898
G0 F10500 X51.594 Y20.883
G1 F1380 X22.882 Y49.595 E1012.11460
G0 F10500 X23.694 Y48.076
G1 F1380 X50.075 Y21.696 E1012.84562
G0 F10500 X48.556 Y22.507
G1 F1380 X24.506 Y46.557 E1013.51206
G0 F10500 X25.318 Y45.038
G1 F1380 X47.037 Y23.319 E1014.11390
G0 F10500 X45.518 Y24.131
G1 F1380 X26.130 Y43.519 E1014.65116
G0 F10500 X27.596 Y41.345
G1 F1380 X43.349 Y25.593 E1015.08767
G0 F10500 X39.405 Y28.830
G1 F1380 X30.832 Y37.403 E1015.32523
G0 F10500 X34.068 Y33.460
G1 F1380 X35.461 Y32.067 E1015.36383
G1 F600 E1013.86383
G1 Z0.775
G0 F10500 X30.967 Y79.855
;TYPE:WALL-INNER
G1 Z0.675
G1 F600 E1015.36383
G1 F1140 X31.627 Y80.058 E1015.37736
G1 X30.967 Y80.258 E1015.39087
G1 X30.967 Y79.855 E1015.39877
G0 F10500 X30.467 Y79.178
;TYPE:WALL-OUTER
G1 F1080 X33.340 Y80.061 E1015.45766
G1 X30.467 Y80.933 E1015.51649
G1 X30.467 Y79.178 E1015.55088
;LAYER:2
G1 F600 E1014.05088
G1 Z0.775
G0 F10500 X27.075 Y78.688 Z0.925
;TYPE:WALL-INNER
G1 Z0.925
G1 F600 E1015.55088
G1 F1440 X27.075 Y81.452 E1015.60504
G1 X26.482 Y81.627 E1015.61716
G1 X25.248 Y81.993 E1015.64238
G1 X25.248 Y87.127 E1015.74297
G1 X37.813 Y82.404 E1016.00600
G1 X37.813 Y77.637 E1016.09940
G1 X25.248 Y72.913 E1016.36243
G1 X25.248 Y78.135 E1016.46475
G1 X27.075 Y78.688 E1016.50215
G0 F10500 X25.338 Y78.068
G0 X25.384 Y73.110
G0 X30.813 Y73.271
G1 F1440 X30.813 Y69.138 E1016.58314
G1 X28.238 Y67.965 E1016.63858
G1 X30.813 Y66.808 E1016.69390
G1 X30.813 Y62.751 E1016.77339
G1 X24.248 Y66.300 E1016.91962
G1 X24.248 Y69.662 E1016.98550
G1 X30.813 Y73.271 E1017.13229
G0 F10500 X37.727 Y77.697
G0 X37.727 Y82.344
G0 X31.506 Y88.187
G1 F1440 X25.248 Y88.187 E1017.25491
G1 X25.248 Y95.753 E1017.40316
G1 X28.605 Y95.753 E1017.46894
G1 X28.605 Y91.180 E1017.55854
G1 X31.506 Y91.180 E1017.61539
G1 X31.506 Y88.187 E1017.67403
G0 F10500 X25.357 Y88.296
G0 X16.988 Y90.529
G1 F1440 X15.753 Y78.000 E1017.92072
G1 X16.988 Y65.470 E1018.16743
G1 X20.647 Y53.410 E1018.41437
G1 X26.578 Y42.312 E1018.66094
G1 X34.571 Y32.571 E1018.90784
G1 X44.308 Y24.581 E1019.15464
G1 X55.415 Y18.645 E1019.40140
G1 X67.469 Y14.989 E1019.64822
G1 X80.000 Y13.753 E1019.89495
G1 X92.529 Y14.988 E1020.14163
G1 X104.586 Y18.646 E1020.38852
G1 X115.692 Y24.581 E1020.63525
G1 X125.429 Y32.571 E1020.88206
G1 X133.422 Y42.312 E1021.12896
G1 X139.354 Y53.411 E1021.37555
G1 X143.011 Y65.468 E1021.62242
G1 X144.247 Y78.000 E1021.86917
G1 X143.012 Y90.529 E1022.11586
G1 X139.354 Y102.586 E1022.36274
G1 X133.419 Y113.692 E1022.60948
G1 X125.429 Y123.429 E1022.85628
G1 X115.692 Y131.419 E1023.10309
G1 X104.585 Y137.356 E1023.34986
G1 X92.531 Y141.011 E1023.59667
G1 X80.000 Y142.247 E1023.84340
G1 X67.469 Y141.011 E1024.09013
G1 X55.413 Y137.355 E1024.33698
G1 X44.310 Y131.421 E1024.58366
G1 X34.571 Y123.429 E1024.83051
G1 X26.581 Y113.692 E1025.07732
G1 X20.646 Y102.586 E1025.32405
G1 X16.988 Y90.529 E1025.57094
G0 F10500 X25.357 Y88.296
G0 X31.397 Y88.296
G0 X53.248 Y86.753
G1 F1440 X79.753 Y86.753 E1026.09028
G1 X79.753 Y73.246 E1026.35494
G1 X53.248 Y73.246 E1026.87429
G1 X53.248 Y86.753 E1027.13895
G0 F10500 X88.247 Y128.797
G1 F1440 X97.591 Y128.249 E1027.32236
G1 X106.206 Y125.219 E1027.50130
G1 X113.901 Y120.683 E1027.67632
G1 X120.670 Y114.149 E1027.86067
G1 X126.532 Y106.617 E1028.04768
G1 X130.594 Y98.070 E1028.23311
G1 X133.302 Y88.521 E1028.42759
G1 X133.753 Y78.499 E1028.62417
G1 X133.302 Y68.974 E1028.81101
G1 X130.594 Y59.425 E1029.00550
G1 X126.532 Y50.879 E1029.19090
G1 X120.670 Y43.345 E1029.37795
G1 X113.901 Y36.812 E1029.56228
G1 X106.206 Y32.276 E1029.73730
G1 X97.612 Y29.253 E1029.91581
G1 X88.247 Y28.155 E1030.10057
G1 X88.247 Y128.797 E1032.07258
G0 F10500 X88.747 Y128.267
;TYPE:WALL-OUTER
G1 F1320 X97.492 Y127.754 E1032.24423
G1 X105.994 Y124.764 E1032.42082
G1 X113.596 Y120.282 E1032.59374
G1 X120.297 Y113.814 E1032.77623
G1 X126.104 Y106.353 E1032.96148
G1 X130.125 Y97.893 E1033.14502
G1 X132.805 Y88.440 E1033.33755
G1 X133.252 Y78.500 E1033.53251
G1 X132.805 Y69.055 E1033.71779
G1 X130.125 Y59.602 E1033.91031
G1 X126.104 Y51.143 E1034.09383
G1 X120.297 Y43.680 E1034.27912
G1 X113.596 Y37.213 E1034.46160
G1 X105.994 Y32.731 E1034.63451
G1 X97.499 Y29.743 E1034.81096
G1 X88.747 Y28.717 E1034.98363
G1 X88.747 Y128.267 E1036.93424
G0 F10500 X88.397 Y128.267
G0 X92.563 Y141.159
G0 X92.634 Y141.503
G1 F1320 X80.000 Y142.749 E1037.18300
G1 X67.366 Y141.503 E1037.43176
G1 X55.222 Y137.820 E1037.68041
G1 X44.030 Y131.838 E1037.92907
G1 X34.216 Y123.784 E1038.17783
G1 X26.164 Y113.973 E1038.42653
G1 X20.180 Y102.775 E1038.67531
G1 X16.497 Y90.633 E1038.92393
G1 X15.251 Y78.000 E1039.17266
G1 X16.497 Y65.366 E1039.42142
G1 X20.181 Y53.221 E1039.67010
G1 X26.162 Y42.030 E1039.91873
G1 X34.216 Y32.216 E1040.16750
G1 X44.027 Y24.164 E1040.41619
G1 X55.226 Y18.179 E1040.66500
G1 X67.366 Y14.497 E1040.91357
G1 X80.000 Y13.251 E1041.16233
G1 X92.633 Y14.497 E1041.41107
G1 X104.775 Y18.180 E1041.65968
G1 X115.973 Y24.164 E1041.90847
G1 X125.784 Y32.216 E1042.15716
G1 X133.838 Y42.030 E1042.40592
G1 X139.819 Y53.222 E1042.65457
G1 X143.503 Y65.365 E1042.90322
G1 X144.749 Y78.000 E1043.15199
G1 X143.503 Y90.633 E1043.40073
G1 X139.820 Y102.775 E1043.64935
G1 X133.836 Y113.973 E1043.89813
G1 X125.784 Y123.784 E1044.14682
G1 X115.973 Y131.836 E1044.39552
G1 X104.774 Y137.822 E1044.64433
G1 X92.634 Y141.503 E1044.89290
G0 F10500 X92.563 Y141.159
G0 X88.360 Y128.677
G0 X79.253 Y86.603
G0 X79.253 Y86.253
G1 F1320 X79.253 Y73.746 E1045.13797
G1 X53.748 Y73.746 E1045.63772
G1 X53.748 Y86.253 E1045.88279
G1 X79.253 Y86.253 E1046.38254
G0 F10500 X79.253 Y86.603
G0 X53.357 Y86.644
G0 X37.436 Y82.385
G0 X37.313 Y82.058
G1 F1320 X37.313 Y77.983 E1046.46239
G1 X25.748 Y73.635 E1046.70448
G1 X25.748 Y77.764 E1046.78539
G1 X27.575 Y78.316 E1046.82279
G1 X27.575 Y81.826 E1046.89156
G1 X25.748 Y82.366 E1046.92889
G1 X25.748 Y86.405 E1047.00803
G1 X37.313 Y82.058 E1047.25012
G0 F10500 X37.436 Y82.385
G0 X31.006 Y88.337
G0 X31.006 Y88.687
G1 F1320 X25.748 Y88.687 E1047.35315
G1 X25.748 Y95.253 E1047.48180
G1 X28.105 Y95.253 E1047.52799
G1 X28.105 Y90.680 E1047.61759
G1 X31.006 Y90.680 E1047.67444
G1 X31.006 Y88.687 E1047.71349
G0 F10500 X31.006 Y88.337
G0 X37.727 Y82.344
G0 X37.727 Y77.697
G0 X30.146 Y72.732
G0 X30.313 Y72.426
G1 F1320 X30.313 Y69.460 E1047.77160
G1 X27.025 Y67.962 E1047.84240
G1 X30.313 Y66.485 E1047.91303
G1 X30.313 Y63.590 E1047.96976
G1 X24.748 Y66.598 E1048.09371
G1 X24.748 Y69.366 E1048.14794
G1 X30.313 Y72.426 E1048.27238
G0 F10500 X30.987 Y72.353
;TYPE:SKIN
G1 F1920 X35.041 Y76.407 E1048.38472
G0 F10500 X33.908 Y75.981
G1 F1920 X30.987 Y73.060 E1048.46567
G0 F10500 X30.539 Y73.319
G1 F1920 X32.775 Y75.555 E1048.52763
G0 F10500 X31.642 Y75.129
G1 F1920 X28.969 Y72.456 E1048.60170
G0 F10500 X28.242 Y73.850
G1 F1920 X24.258 Y69.867 E1048.71208
G0 F10500 X24.072 Y69.681
G1 F1920 X17.796 Y63.404 E1048.88601
G0 F10500 X17.961 Y62.862
G1 F1920 X24.072 Y68.974 E1049.05536
G0 F10500 X24.072 Y68.266
G1 F1920 X18.125 Y62.319 E1049.22016
G0 F10500 X18.290 Y61.777
G1 F1920 X24.072 Y67.559 E1049.38038
G0 F10500 X24.072 Y66.852
G1 F1920 X18.454 Y61.234 E1049.53606
G0 F10500 X18.619 Y60.692
G1 F1920 X24.104 Y66.177 E1049.68805
G0 F10500 X24.563 Y65.929
G1 F1920 X18.783 Y60.149 E1049.84822
G0 F10500 X17.631 Y63.947
G1 F1920 X27.109 Y73.425 E1050.11086
G0 F10500 X25.976 Y72.998
G1 F1920 X17.466 Y64.489 E1050.34666
G0 F10500 X17.302 Y65.032
G1 F1920 X25.073 Y72.803 E1050.56200
G0 F10500 X25.073 Y73.510
G1 F1920 X17.151 Y65.588 E1050.78152
G0 F10500 X17.088 Y66.232
G1 F1920 X25.073 Y74.217 E1051.00279
G0 F10500 X25.073 Y74.924
G1 F1920 X17.025 Y66.876 E1051.22580
G0 F10500 X16.961 Y67.519
G1 F1920 X25.073 Y75.631 E1051.45059
G0 F10500 X25.073 Y76.338
G1 F1920 X16.897 Y68.162 E1051.67715
G0 F10500 X16.834 Y68.807
G1 F1920 X25.073 Y77.045 E1051.90545
G0 F10500 X25.073 Y77.752
G1 F1920 X16.771 Y69.450 E1052.13550
G0 F10500 X16.707 Y70.094
G1 F1920 X26.900 Y80.287 E1052.41795
G0 F10500 X26.900 Y80.994
G1 F1920 X16.644 Y70.738 E1052.70215
G0 F10500 X16.580 Y71.381
G1 F1920 X26.605 Y81.406 E1052.97995
G0 F10500 X26.060 Y81.568
G1 F1920 X16.517 Y72.025 E1053.24439
G0 F10500 X16.453 Y72.668
G1 F1920 X25.514 Y81.729 E1053.49548
G0 F10500 X25.073 Y81.995
G1 F1920 X16.390 Y73.312 E1053.73609
G0 F10500 X16.327 Y73.956
G1 F1920 X25.073 Y82.702 E1053.97845
G0 F10500 X25.073 Y83.409
G1 F1920 X16.263 Y74.599 E1054.22258
G0 F10500 X16.200 Y75.243
G1 F1920 X25.073 Y84.116 E1054.46845
G0 F10500 X25.073 Y84.823
G1 F1920 X16.136 Y75.887 E1054.71609
G0 F10500 X16.073 Y76.530
G1 F1920 X25.073 Y85.530 E1054.96548
G0 F10500 X25.073 Y86.238
G1 F1920 X16.009 Y77.174 E1055.21665
G0 F10500 X15.946 Y77.818
G1 F1920 X25.073 Y86.945 E1055.46957
G0 F10500 X25.389 Y87.261
G1 F1920 X26.139 Y88.011 E1055.49035
G0 F10500 X25.432 Y88.011
G1 F1920 X15.984 Y78.563 E1055.75216
G0 F10500 X16.061 Y79.347
G1 F1920 X25.073 Y88.359 E1056.00189
G0 F10500 X25.073 Y89.066
G1 F1920 X16.139 Y80.132 E1056.24945
G0 F10500 X16.216 Y80.916
G1 F1920 X25.073 Y89.773 E1056.49489
G0 F10500 X25.073 Y90.480
G1 F1920 X16.293 Y81.701 E1056.73817
G0 F10500 X16.370 Y82.485
G1 F1920 X25.073 Y91.187 E1056.97932
G0 F10500 X25.073 Y91.894
G1 F1920 X16.448 Y83.269 E1057.21833
G0 F10500 X16.525 Y84.054
G1 F1920 X25.073 Y92.601 E1057.45518
G0 F10500 X25.073 Y93.309
G1 F1920 X16.602 Y84.838 E1057.68992
G0 F10500 X16.679 Y85.622
G1 F1920 X25.073 Y94.016 E1057.92252
G0 F10500 X25.073 Y94.723
G1 F1920 X16.757 Y86.407 E1058.15296
G0 F10500 X16.834 Y87.191
G1 F1920 X25.073 Y95.430 E1058.38127
G0 F10500 X25.570 Y95.927
G1 F1920 X70.805 Y141.162 E1059.63476
G0 F10500 X70.021 Y141.085
G1 F1920 X16.911 Y87.976 E1061.10645
G0 F10500 X16.989 Y88.760
G1 F1920 X69.237 Y141.008 E1062.55427
G0 F10500 X68.452 Y140.930
G1 F1920 X17.066 Y89.545 E1063.97819
G0 F10500 X17.143 Y90.329
G1 F1920 X67.667 Y140.853 E1065.37824
G0 F10500 X66.702 Y140.594
G1 F1920 X17.403 Y91.295 E1066.74435
G0 F10500 X17.710 Y92.310
G1 F1920 X65.687 Y140.287 E1068.07382
G0 F10500 X71.590 Y141.240
G1 F1920 X26.277 Y95.927 E1069.32946
G0 F10500 X26.984 Y95.927
G1 F1920 X72.374 Y141.317 E1070.58725
G0 F10500 X73.159 Y141.395
G1 F1920 X27.691 Y95.927 E1071.84719
G0 F10500 X28.398 Y95.927
G1 F1920 X73.943 Y141.472 E1073.10927
G0 F10500 X74.727 Y141.549
G1 F1920 X28.779 Y95.601 E1074.38251
G0 F10500 X28.779 Y94.894
G1 F1920 X75.512 Y141.627 E1075.67751
G0 F10500 X76.296 Y141.704
G1 F1920 X28.779 Y94.187 E1076.99423
G0 F10500 X28.779 Y93.480
G1 F1920 X77.081 Y141.781 E1078.33270
G0 F10500 X77.865 Y141.859
G1 F1920 X28.779 Y92.773 E1079.69290
G0 F10500 X28.779 Y92.066
G1 F1920 X78.650 Y141.936 E1081.07484
G0 F10500 X79.434 Y142.013
G1 F1920 X28.779 Y91.358 E1082.47852
G0 F10500 X29.482 Y91.354
G1 F1920 X80.179 Y142.051 E1083.88336
G0 F10500 X80.823 Y141.988
G1 F1920 X30.189 Y91.354 E1085.28646
G0 F10500 X30.897 Y91.354
G1 F1920 X81.467 Y141.924 E1086.68778
G0 F10500 X82.110 Y141.861
G1 F1920 X31.604 Y91.354 E1088.08734
G0 F10500 X31.680 Y90.723
G1 F1920 X82.754 Y141.797 E1089.50263
G0 F10500 X83.398 Y141.734
G1 F1920 X31.680 Y90.016 E1090.93577
G0 F10500 X31.680 Y89.309
G1 F1920 X84.041 Y141.670 E1092.38672
G0 F10500 X84.685 Y141.607
G1 F1920 X31.680 Y88.602 E1093.85552
G0 F10500 X31.089 Y88.011
G1 F1920 X28.986 Y85.908 E1093.91379
G0 F10500 X28.472 Y86.101
G1 F1920 X30.382 Y88.011 E1093.96672
G0 F10500 X29.675 Y88.011
G1 F1920 X27.959 Y86.295 E1094.01427
G0 F10500 X27.444 Y86.488
G1 F1920 X28.968 Y88.011 E1094.05649
G0 F10500 X28.260 Y88.011
G1 F1920 X26.930 Y86.681 E1094.09334
G0 F10500 X26.416 Y86.874
G1 F1920 X27.553 Y88.011 E1094.12485
G0 F10500 X26.846 Y88.011
G1 F1920 X25.903 Y87.068 E1094.15098
G0 F10500 X29.500 Y85.715
G1 F1920 X85.328 Y141.543 E1095.69801
G0 F10500 X85.972 Y141.480
G1 F1920 X30.014 Y85.522 E1097.24864
G0 F10500 X30.528 Y85.329
G1 F1920 X86.616 Y141.417 E1098.80287
G0 F10500 X87.259 Y141.353
G1 F1920 X31.041 Y85.135 E1100.36070
G0 F10500 X31.556 Y84.942
G1 F1920 X87.903 Y141.289 E1101.92211
G0 F10500 X88.547 Y141.226
G1 F1920 X32.070 Y84.749 E1103.48712
G0 F10500 X32.584 Y84.556
G1 F1920 X89.190 Y141.163 E1105.05571
G0 F10500 X89.834 Y141.099
G1 F1920 X33.097 Y84.362 E1106.62793
G0 F10500 X33.611 Y84.169
G1 F1920 X90.477 Y141.035 E1108.20372
G0 F10500 X91.122 Y140.973
G1 F1920 X34.125 Y83.976 E1109.78314
G0 F10500 X34.639 Y83.783
G1 F1920 X91.765 Y140.909 E1111.36613
G0 F10500 X92.408 Y140.845
G1 F1920 X35.153 Y83.590 E1112.95270
G0 F10500 X35.667 Y83.396
G1 F1920 X92.965 Y140.695 E1114.54047
G0 F10500 X93.508 Y140.531
G1 F1920 X36.181 Y83.203 E1116.12905
G0 F10500 X36.695 Y83.010
G1 F1920 X94.050 Y140.366 E1117.71840
G0 F10500 X94.593 Y140.201
G1 F1920 X37.209 Y82.817 E1119.30855
G0 F10500 X37.722 Y82.624
G1 F1920 X95.136 Y140.037 E1120.89951
G0 F10500 X95.678 Y139.872
G1 F1920 X37.987 Y82.182 E1122.49814
G0 F10500 X37.987 Y81.474
G1 F1920 X96.220 Y139.708 E1124.11183
G0 F10500 X96.764 Y139.543
G1 F1920 X37.987 Y80.767 E1125.74056
G0 F10500 X37.987 Y80.060
G1 F1920 X97.306 Y139.379 E1127.38432
G0 F10500 X97.848 Y139.214
G1 F1920 X37.987 Y79.353 E1129.04310
G0 F10500 X37.987 Y78.646
G1 F1920 X88.072 Y128.730 E1130.43097
G0 F10500 X88.309 Y128.967
G1 F1920 X98.391 Y139.050 E1130.71036
G0 F10500 X98.934 Y138.885
G1 F1920 X88.977 Y128.928 E1130.98628
G0 F10500 X89.644 Y128.889
G1 F1920 X99.476 Y138.720 E1131.25872
G0 F10500 X100.019 Y138.556
G1 F1920 X90.313 Y128.850 E1131.52767
G0 F10500 X90.981 Y128.811
G1 F1920 X100.561 Y138.392 E1131.79316
G0 F10500 X101.104 Y138.227
G1 F1920 X91.649 Y128.772 E1132.05516
G0 F10500 X92.317 Y128.733
G1 F1920 X101.647 Y138.063 E1132.31370
G0 F10500 X102.189 Y137.898
G1 F1920 X92.985 Y128.694 E1132.56875
G0 F10500 X93.653 Y128.655
G1 F1920 X102.732 Y137.733 E1132.82032
G0 F10500 X103.275 Y137.569
G1 F1920 X94.321 Y128.616 E1133.06842
G0 F10500 X94.989 Y128.576
G1 F1920 X103.817 Y137.404 E1133.31305
G0 F10500 X104.359 Y137.240
G1 F1920 X95.657 Y128.537 E1133.55420
G0 F10500 X96.325 Y128.498
G1 F1920 X104.844 Y137.018 E1133.79028
G0 F10500 X105.305 Y136.772
G1 F1920 X96.993 Y128.460 E1134.02061
G0 F10500 X97.653 Y128.412
G1 F1920 X105.766 Y136.525 E1134.24543
G0 F10500 X106.227 Y136.279
G1 F1920 X98.176 Y128.228 E1134.46853
G0 F10500 X98.700 Y128.045
G1 F1920 X106.688 Y136.033 E1134.68988
G0 F10500 X107.148 Y135.786
G1 F1920 X99.223 Y127.861 E1134.90949
G0 F10500 X99.745 Y127.676
G1 F1920 X107.609 Y135.540 E1135.12740
G0 F10500 X108.070 Y135.294
G1 F1920 X100.269 Y127.492 E1135.34359
G0 F10500 X100.792 Y127.308
G1 F1920 X108.530 Y135.047 E1135.55802
G0 F10500 X108.992 Y134.801
G1 F1920 X101.314 Y127.124 E1135.77077
G0 F10500 X101.838 Y126.940
G1 F1920 X109.453 Y134.555 E1135.98179
G0 F10500 X109.913 Y134.308
G1 F1920 X102.361 Y126.756 E1136.19106
G0 F10500 X102.884 Y126.572
G1 F1920 X110.374 Y134.062 E1136.39861
G0 F10500 X110.835 Y133.816
G1 F1920 X103.407 Y126.388 E1136.60444
G0 F10500 X103.930 Y126.204
G1 F1920 X111.295 Y133.569 E1136.80853
G0 F10500 X111.756 Y133.323
G1 F1920 X104.453 Y126.019 E1137.01092
G0 F10500 X104.976 Y125.836
G1 F1920 X112.217 Y133.077 E1137.21157
G0 F10500 X112.678 Y132.830
G1 F1920 X105.499 Y125.652 E1137.41049
G0 F10500 X106.022 Y125.468
G1 F1920 X113.139 Y132.584 E1137.60769
G0 F10500 X113.600 Y132.338
G1 F1920 X106.505 Y125.244 E1137.80428
G0 F10500 X106.950 Y124.981
G1 F1920 X114.060 Y132.091 E1138.00131
G0 F10500 X114.521 Y131.845
G1 F1920 X107.395 Y124.719 E1138.19877
G0 F10500 X107.840 Y124.457
G1 F1920 X114.982 Y131.599 E1138.39668
G0 F10500 X115.442 Y131.352
G1 F1920 X108.285 Y124.195 E1138.59500
G0 F10500 X108.730 Y123.933
G1 F1920 X115.855 Y131.057 E1138.79243
G0 F10500 X116.243 Y130.739
G1 F1920 X109.175 Y123.670 E1138.98830
G0 F10500 X109.619 Y123.408
G1 F1920 X116.631 Y130.420 E1139.18261
G0 F10500 X117.019 Y130.101
G1 F1920 X110.064 Y123.146 E1139.37533
G0 F10500 X110.509 Y122.883
G1 F1920 X117.408 Y129.783 E1139.56652
G0 F10500 X117.796 Y129.464
G1 F1920 X110.954 Y122.621 E1139.75613
G0 F10500 X111.399 Y122.359
G1 F1920 X118.185 Y129.145 E1139.94418
G0 F10500 X118.573 Y128.826
G1 F1920 X111.843 Y122.096 E1140.13067
G0 F10500 X112.289 Y121.835
G1 F1920 X118.962 Y128.508 E1140.31558
G0 F10500 X119.350 Y128.189
G1 F1920 X112.734 Y121.572 E1140.49893
G0 F10500 X113.178 Y121.310
G1 F1920 X119.738 Y127.870 E1140.68071
G0 F10500 X120.126 Y127.551
G1 F1920 X113.623 Y121.048 E1140.86091
G0 F10500 X114.057 Y120.774
G1 F1920 X120.515 Y127.233 E1141.03988
G0 F10500 X120.903 Y126.914
G1 F1920 X114.416 Y120.427 E1141.21964
G0 F10500 X114.776 Y120.080
G1 F1920 X121.292 Y126.595 E1141.40019
G0 F10500 X121.680 Y126.276
G1 F1920 X115.136 Y119.732 E1141.58153
G0 F10500 X115.495 Y119.385
G1 F1920 X122.068 Y125.957 E1141.76365
G0 F10500 X122.457 Y125.639
G1 F1920 X115.855 Y119.037 E1141.94660
G0 F10500 X116.215 Y118.690
G1 F1920 X122.845 Y125.320 E1142.13032
G0 F10500 X123.233 Y125.001
G1 F1920 X116.575 Y118.343 E1142.31482
G0 F10500 X116.935 Y117.996
G1 F1920 X123.622 Y124.682 E1142.50010
G0 F10500 X124.010 Y124.364
G1 F1920 X117.295 Y117.649 E1142.68618
G0 F10500 X117.655 Y117.301
G1 F1920 X124.399 Y124.045 E1142.87306
G0 F10500 X124.787 Y123.726
G1 F1920 X118.015 Y116.954 E1143.06072
G0 F10500 X118.375 Y116.607
G1 F1920 X125.175 Y123.407 E1143.24915
G0 F10500 X125.517 Y123.042
G1 F1920 X118.734 Y116.259 E1143.43711
G0 F10500 X119.094 Y115.912
G1 F1920 X125.836 Y122.654 E1143.62393
G0 F10500 X126.155 Y122.266
G1 F1920 X119.454 Y115.565 E1143.80962
G0 F10500 X119.814 Y115.218
G1 F1920 X126.474 Y121.878 E1143.99417
G0 F10500 X126.792 Y121.489
G1 F1920 X120.174 Y114.870 E1144.17758
G0 F10500 X120.534 Y114.523
G1 F1920 X127.111 Y121.101 E1144.35984
G0 F10500 X127.430 Y120.713
G1 F1920 X120.879 Y114.162 E1144.54137
G0 F10500 X121.189 Y113.764
G1 F1920 X127.749 Y120.324 E1144.72316
G0 F10500 X128.068 Y119.936
G1 F1920 X121.499 Y113.367 E1144.90519
G0 F10500 X121.808 Y112.969
G1 F1920 X128.386 Y119.547 E1145.08747
G0 F10500 X128.705 Y119.159
G1 F1920 X122.118 Y112.572 E1145.27000
G0 F10500 X122.427 Y112.174
G1 F1920 X129.024 Y118.771 E1145.45280
G0 F10500 X129.343 Y118.383
G1 F1920 X122.736 Y111.776 E1145.63589
G0 F10500 X123.046 Y111.379
G1 F1920 X129.661 Y117.994 E1145.81919
G0 F10500 X129.980 Y117.605
G1 F1920 X123.356 Y110.981 E1146.00275
G0 F10500 X123.665 Y110.583
G1 F1920 X130.299 Y117.217 E1146.18658
G0 F10500 X130.618 Y116.829
G1 F1920 X123.974 Y110.186 E1146.37067
G0 F10500 X124.284 Y109.788
G1 F1920 X130.936 Y116.440 E1146.55500
G0 F10500 X131.255 Y116.052
G1 F1920 X124.594 Y109.391 E1146.73958
G0 F10500 X124.903 Y108.993
G1 F1920 X131.574 Y115.664 E1146.92444
G0 F10500 X131.893 Y115.276
G1 F1920 X125.213 Y108.596 E1147.10955
